; generated by Slic3r 1.36.2-prusa3d on 2017-09-04 at 11:33:19

; 

; external perimeters extrusion width = 0.60mm
; perimeters extrusion width = 0.43mm
; infill extrusion width = 0.70mm
; solid infill extrusion width = 0.70mm
; top infill extrusion width = 0.43mm
; first layer extrusion width = 0.42mm

M115 U3.0.12 ; tell printer latest fw version
M83  ; extruder relative mode
M104 S255 ; set extruder temp
M140 S100 ; set bed temp
M190 S100 ; wait for bed temp
M109 S255 ; wait for extruder temp
G28 W ; home all without mesh bed level
G80 ; mesh bed leveling
G1 Y-3.0 F1000.0 ; go outside pritn area
G1 X60.0 E9.0  F1000.0 ; intro line
G1 X100.0 E12.5  F1000.0 ; intro line
; Filament gcode

G21 ; set units to millimeters
G90 ; use absolute coordinates
M83 ; use relative distances for extrusion
G1 E-0.80000 F2100.00000
G1 Z0.200 F7200.000
G1 X107.897 Y103.230 F7200.000
G1 E0.80000 F2100.00000
M204 S1000
G1 F2100
G1 X107.991 Y101.763 E0.04422
G1 X108.211 Y100.842 E0.02849
G1 X108.620 Y99.733 E0.03554
G1 X109.700 Y97.909 E0.06376
G1 X111.634 Y95.336 E0.09685
G1 X113.412 Y93.227 E0.08297
G1 X115.003 Y91.789 E0.06451
G1 X116.858 Y90.592 E0.06639
G1 X117.566 Y90.244 E0.02372
G1 X118.722 Y89.823 E0.03702
G1 X119.683 Y89.648 E0.02938
G1 X122.083 Y89.546 E0.07226
G1 X128.195 Y90.005 E0.18438
G1 X130.115 Y90.434 E0.05916
G1 X133.112 Y91.306 E0.09391
G1 X135.465 Y92.373 E0.07769
G1 X136.317 Y92.976 E0.03141
G1 X137.381 Y93.895 E0.04230
G1 X138.467 Y95.179 E0.05056
G1 X139.259 Y96.469 E0.04556
G1 X140.861 Y99.455 E0.10192
G1 X141.441 Y100.748 E0.04262
G1 X141.831 Y101.862 E0.03551
G1 X142.044 Y102.839 E0.03009
G1 X142.122 Y103.743 E0.02727
G1 X142.048 Y105.099 E0.04087
G1 X141.742 Y106.849 E0.05343
G1 X139.580 Y113.394 E0.20735
G1 X139.106 Y114.473 E0.03544
G1 X138.376 Y115.685 E0.04255
G1 X137.299 Y117.024 E0.05169
G1 X136.246 Y118.125 E0.04584
G1 X135.635 Y118.635 E0.02394
G1 X134.838 Y119.155 E0.02860
G1 X133.969 Y119.553 E0.02876
G1 X131.757 Y120.185 E0.06920
G1 X129.504 Y120.367 E0.06799
G1 X116.259 Y118.315 E0.40317
G1 X115.482 Y118.089 E0.02433
G1 X114.469 Y117.670 E0.03297
G1 X113.179 Y117.007 E0.04365
G1 X112.573 Y116.608 E0.02182
G1 X111.811 Y115.989 E0.02953
G1 X111.112 Y115.275 E0.03005
G1 X110.725 Y114.762 E0.01935
G1 X110.193 Y113.807 E0.03287
G1 X109.680 Y112.310 E0.04760
G1 X107.909 Y103.289 E0.27653
G1 X108.277 Y103.217 F7200.000
G1 F2100
G1 X108.360 Y101.839 E0.04153
G1 X108.570 Y100.955 E0.02731
G1 X108.954 Y99.907 E0.03358
G1 X110.010 Y98.124 E0.06234
G1 X111.928 Y95.573 E0.09600
G1 X113.684 Y93.489 E0.08197
G1 X115.227 Y92.092 E0.06262
G1 X117.032 Y90.926 E0.06462
G1 X118.837 Y90.182 E0.05873
G1 X119.720 Y90.024 E0.02701
G1 X122.081 Y89.923 E0.07109
G1 X128.115 Y90.373 E0.18200
G1 X130.018 Y90.798 E0.05864
G1 X132.994 Y91.664 E0.09323
G1 X135.273 Y92.697 E0.07527
G1 X136.082 Y93.272 E0.02985
G1 X137.126 Y94.173 E0.04149
G1 X138.162 Y95.401 E0.04832
G1 X138.932 Y96.656 E0.04430
G1 X140.528 Y99.633 E0.10160
G1 X141.085 Y100.874 E0.04091
G1 X141.467 Y101.961 E0.03465
G1 X141.670 Y102.886 E0.02848
G1 X141.745 Y103.743 E0.02589
G1 X141.674 Y105.050 E0.03938
G1 X141.381 Y106.741 E0.05162
G1 X139.232 Y113.250 E0.20620
G1 X138.701 Y114.424 E0.03875
G1 X137.998 Y115.573 E0.04053
G1 X137.256 Y116.510 E0.03594
G1 X136.320 Y117.526 E0.04154
G1 X135.441 Y118.308 E0.03542
G1 X134.663 Y118.821 E0.02802
G1 X133.837 Y119.199 E0.02732
G1 X131.691 Y119.814 E0.06714
G1 X129.526 Y119.990 E0.06534
G1 X116.361 Y117.952 E0.40075
G1 X114.632 Y117.330 E0.05526
G1 X112.807 Y116.312 E0.06284
G1 X112.069 Y115.714 E0.02856
G1 X111.404 Y115.037 E0.02856
G1 X111.049 Y114.568 E0.01771
G1 X110.547 Y113.677 E0.03076
G1 X110.049 Y112.229 E0.04604
G1 X108.288 Y103.275 E0.27448
G1 F5760
G1 X108.360 Y101.839 E-0.49828
G1 F5760
G1 X108.535 Y101.103 E-0.26172
G1 E-0.04000 F2100.00000
G1 X117.244 Y115.114 F7200.000
G1 E0.80000 F2100.00000
G1 F1680
G1 X116.603 Y114.941 E0.01999
G1 X115.883 Y114.642 E0.02343
G1 X115.363 Y114.369 E0.01766
G1 X115.050 Y114.171 E0.01115
G1 X114.694 Y113.911 E0.01328
G1 X114.317 Y113.583 E0.01501
G1 X114.084 Y113.340 E0.01013
G1 X113.752 Y112.944 E0.01555
G1 X113.502 Y112.569 E0.01355
G1 X113.277 Y112.141 E0.01456
G1 X112.929 Y111.380 E0.02518
G1 X112.830 Y110.975 E0.01253
G1 X112.809 Y110.791 E0.00557
G1 X112.843 Y110.158 E0.01907
G1 X113.069 Y108.747 E0.04300
G1 X113.099 Y108.292 E0.01372
G1 X113.103 Y107.916 E0.01131
G1 X113.063 Y107.457 E0.01384
G1 X112.962 Y106.933 E0.01606
G1 X112.874 Y106.543 E0.01201
G1 X112.745 Y106.151 E0.01242
G1 X112.463 Y105.536 E0.02036
G1 X111.913 Y104.667 E0.03092
G1 X111.457 Y103.874 E0.02753
G1 X111.287 Y103.361 E0.01624
G1 X111.225 Y102.909 E0.01374
G1 X111.269 Y102.412 E0.01501
G1 X111.438 Y101.767 E0.02006
G1 X111.657 Y101.293 E0.01570
G1 X112.227 Y100.302 E0.03439
G1 X113.017 Y99.079 E0.04380
G1 X113.410 Y98.535 E0.02019
G1 X113.606 Y98.312 E0.00893
G1 X114.246 Y97.421 E0.03300
G1 X114.636 Y96.957 E0.01824
G1 X114.785 Y96.819 E0.00611
G1 X114.956 Y96.552 E0.00952
G1 X115.476 Y95.910 E0.02484
G1 X116.260 Y95.106 E0.03380
G1 X117.025 Y94.450 E0.03030
G1 X117.692 Y93.986 E0.02446
G1 X118.428 Y93.541 E0.02584
G1 X118.854 Y93.328 E0.01434
G1 X119.375 Y93.122 E0.01686
G1 X119.689 Y93.022 E0.00991
G1 X119.958 Y92.980 E0.00820
G1 X120.280 Y92.977 E0.00967
G1 X120.763 Y92.934 E0.01459
G1 X121.350 Y92.956 E0.01766
G1 X122.186 Y92.890 E0.02524
G1 X123.797 Y93.077 E0.04880
G1 X123.974 Y93.059 E0.00534
G1 X125.480 Y93.151 E0.04540
G1 X126.008 Y93.144 E0.01586
G1 X126.826 Y93.233 E0.02477
G1 X127.355 Y93.255 E0.01592
G1 X127.517 Y93.277 E0.00492
G1 X128.925 Y93.613 E0.04353
G1 X129.283 Y93.670 E0.01090
G1 X129.624 Y93.766 E0.01068
G1 X130.256 Y94.001 E0.02027
G1 X130.744 Y94.156 E0.01539
G1 X131.099 Y94.257 E0.01110
G1 X131.727 Y94.384 E0.01928
G1 X132.065 Y94.479 E0.01056
G1 X133.423 Y95.064 E0.04449
G1 X133.771 Y95.254 E0.01192
G1 X134.218 Y95.578 E0.01660
G1 X134.420 Y95.786 E0.00872
G1 X134.774 Y96.067 E0.01360
G1 X134.973 Y96.280 E0.00876
G1 X135.145 Y96.380 E0.00601
G1 X135.225 Y96.457 E0.00333
G1 X135.592 Y96.903 E0.01736
G1 X135.911 Y97.364 E0.01687
G1 X136.340 Y98.096 E0.02552
G1 X137.025 Y99.466 E0.04607
G1 X137.975 Y101.145 E0.05804
G1 X138.330 Y101.970 E0.02701
G1 X138.514 Y102.522 E0.01751
G1 X138.687 Y103.225 E0.02175
G1 X138.761 Y103.810 E0.01774
G1 X138.755 Y104.372 E0.01690
G1 X138.674 Y104.908 E0.01631
G1 X138.567 Y105.393 E0.01496
G1 X138.557 Y105.804 E0.01235
G1 X138.314 Y106.647 E0.02640
G1 X138.084 Y107.172 E0.01725
G1 X137.849 Y107.954 E0.02454
G1 X137.447 Y108.964 E0.03271
G1 X137.057 Y110.420 E0.04534
G1 X136.708 Y111.552 E0.03564
G1 X136.601 Y111.793 E0.00793
G1 X136.356 Y112.458 E0.02132
G1 X136.146 Y112.923 E0.01534
G1 X135.552 Y113.899 E0.03437
G1 X135.386 Y114.133 E0.00864
G1 X134.835 Y114.767 E0.02528
G1 X134.595 Y115.002 E0.01010
G1 X134.220 Y115.434 E0.01719
G1 X133.950 Y115.696 E0.01133
G1 X133.515 Y116.043 E0.01673
G1 X133.104 Y116.291 E0.01444
G1 X132.465 Y116.549 E0.02074
G1 X131.727 Y116.761 E0.02309
G1 X131.265 Y116.813 E0.01397
G1 X131.100 Y116.899 E0.00562
G1 X129.726 Y117.032 E0.04153
G1 X129.553 Y117.012 E0.00522
G1 X129.143 Y116.919 E0.01266
G1 X128.884 Y116.927 E0.00778
G1 X128.631 Y116.893 E0.00770
G1 X128.386 Y116.825 E0.00763
G1 X127.390 Y116.625 E0.03056
G1 X126.776 Y116.532 E0.01866
G1 X125.192 Y116.159 E0.04896
G1 X123.894 Y116.015 E0.03928
G1 X123.557 Y115.956 E0.01029
G1 X122.384 Y115.668 E0.03632
G1 X121.010 Y115.246 E0.04325
G1 X120.295 Y115.087 E0.02203
G1 X119.593 Y114.995 E0.02128
G1 X118.824 Y114.957 E0.02318
G1 X118.146 Y114.973 E0.02039
G1 X117.744 Y115.082 E0.01253
G1 X117.531 Y115.076 E0.00641
G1 X117.304 Y115.120 E0.00697
G1 X117.367 Y115.507 F7200.000
G1 F1260
G1 X116.960 Y115.435 E0.01243
G1 X116.484 Y115.299 E0.01491
G1 X116.152 Y115.173 E0.01068
G1 X115.719 Y114.982 E0.01421
G1 X115.175 Y114.696 E0.01850
G1 X114.838 Y114.483 E0.01199
G1 X114.458 Y114.206 E0.01415
G1 X114.057 Y113.856 E0.01601
G1 X113.804 Y113.592 E0.01101
G1 X113.450 Y113.171 E0.01654
G1 X113.177 Y112.762 E0.01478
G1 X112.939 Y112.307 E0.01547
G1 X112.571 Y111.504 E0.02656
G1 X112.458 Y111.041 E0.01433
G1 X112.431 Y110.802 E0.00723
G1 X112.467 Y110.118 E0.02062
G1 X112.694 Y108.704 E0.04306
G1 X112.722 Y108.277 E0.01288
G1 X112.726 Y107.930 E0.01045
G1 X112.689 Y107.509 E0.01270
G1 X112.593 Y107.010 E0.01529
G1 X112.510 Y106.644 E0.01129
G1 X112.394 Y106.289 E0.01124
G1 X112.130 Y105.716 E0.01895
G1 X111.590 Y104.862 E0.03040
G1 X111.114 Y104.034 E0.02874
G1 X110.979 Y103.665 E0.01180
G1 X110.917 Y103.437 E0.00712
G1 X110.845 Y102.918 E0.01576
G1 X110.896 Y102.353 E0.01707
G1 X111.083 Y101.636 E0.02230
G1 X111.322 Y101.120 E0.01710
G1 X111.905 Y100.105 E0.03518
G1 X112.705 Y98.866 E0.04439
G1 X113.115 Y98.300 E0.02102
G1 X113.310 Y98.077 E0.00892
G1 X113.948 Y97.189 E0.03288
G1 X114.363 Y96.696 E0.01938
G1 X114.494 Y96.575 E0.00536
G1 X114.653 Y96.327 E0.00886
G1 X114.954 Y95.975 E0.01393
G1 X115.189 Y95.664 E0.01173
G1 X116.002 Y94.831 E0.03502
G1 X116.794 Y94.151 E0.03138
G1 X117.487 Y93.669 E0.02540
G1 X118.245 Y93.211 E0.02665
G1 X118.700 Y92.983 E0.01530
G1 X119.248 Y92.767 E0.01773
G1 X119.602 Y92.653 E0.01117
G1 X119.928 Y92.603 E0.00992
G1 X120.261 Y92.600 E0.01003
G1 X120.753 Y92.556 E0.01486
G1 X121.342 Y92.579 E0.01772
G1 X122.189 Y92.511 E0.02556
G1 X122.801 Y92.569 E0.01851
G1 X123.339 Y92.653 E0.01636
G1 X123.796 Y92.698 E0.01384
G1 X123.961 Y92.681 E0.00496
G1 X124.390 Y92.695 E0.01292
G1 X124.801 Y92.723 E0.01238
G1 X124.874 Y92.744 E0.00230
G1 X125.487 Y92.773 E0.01846
G1 X126.026 Y92.766 E0.01621
G1 X126.855 Y92.857 E0.02508
G1 X127.389 Y92.879 E0.01608
G1 X127.587 Y92.906 E0.00601
G1 X128.999 Y93.243 E0.04366
G1 X129.364 Y93.302 E0.01112
G1 X129.741 Y93.408 E0.01180
G1 X130.379 Y93.645 E0.02045
G1 X130.852 Y93.795 E0.01495
G1 X131.188 Y93.890 E0.01049
G1 X131.816 Y94.017 E0.01927
G1 X132.191 Y94.123 E0.01174
G1 X133.589 Y94.724 E0.04576
G1 X133.973 Y94.935 E0.01318
G1 X134.465 Y95.292 E0.01828
G1 X134.673 Y95.505 E0.00897
G1 X135.031 Y95.789 E0.01373
G1 X135.211 Y95.982 E0.00795
G1 X135.374 Y96.077 E0.00567
G1 X135.506 Y96.203 E0.00549
G1 X135.882 Y96.660 E0.01781
G1 X136.229 Y97.161 E0.01832
G1 X136.672 Y97.916 E0.02633
G1 X137.358 Y99.289 E0.04616
G1 X138.313 Y100.977 E0.05836
G1 X138.683 Y101.836 E0.02812
G1 X138.876 Y102.418 E0.01845
G1 X139.058 Y103.155 E0.02285
G1 X139.138 Y103.788 E0.01918
G1 X139.131 Y104.402 E0.01847
G1 X139.045 Y104.976 E0.01748
G1 X138.943 Y105.439 E0.01424
G1 X138.933 Y105.847 E0.01229
G1 X138.901 Y105.999 E0.00467
G1 X138.844 Y106.134 E0.00441
G1 X138.671 Y106.773 E0.01990
G1 X138.439 Y107.303 E0.01741
G1 X138.206 Y108.078 E0.02435
G1 X137.806 Y109.083 E0.03254
G1 X137.419 Y110.524 E0.04489
G1 X137.061 Y111.685 E0.03652
G1 X136.950 Y111.935 E0.00823
G1 X136.705 Y112.602 E0.02136
G1 X136.480 Y113.099 E0.01644
G1 X135.867 Y114.106 E0.03545
G1 X135.683 Y114.367 E0.00960
G1 X135.109 Y115.026 E0.02630
G1 X134.870 Y115.261 E0.01010
G1 X134.494 Y115.693 E0.01721
G1 X134.194 Y115.985 E0.01260
G1 X133.949 Y116.164 E0.00913
G1 X133.739 Y116.349 E0.00842
G1 X133.273 Y116.629 E0.01635
G1 X132.588 Y116.906 E0.02223
G1 X131.801 Y117.132 E0.02464
G1 X131.377 Y117.179 E0.01281
G1 X131.205 Y117.269 E0.00585
G1 X129.707 Y117.409 E0.04526
G1 X129.490 Y117.384 E0.00655
G1 X129.107 Y117.298 E0.01183
G1 X128.864 Y117.305 E0.00729
G1 X128.554 Y117.263 E0.00942
G1 X128.298 Y117.192 E0.00799
G1 X127.324 Y116.997 E0.02988
G1 X126.705 Y116.903 E0.01885
G1 X125.128 Y116.531 E0.04874
G1 X123.841 Y116.388 E0.03894
G1 X123.480 Y116.325 E0.01102
G1 X122.284 Y116.032 E0.03704
G1 X120.914 Y115.611 E0.04313
G1 X120.229 Y115.459 E0.02108
G1 X119.560 Y115.371 E0.02032
G1 X118.819 Y115.335 E0.02231
G1 X118.201 Y115.349 E0.01861
G1 X117.789 Y115.460 E0.01282
G1 X117.573 Y115.454 E0.00650
G1 X117.425 Y115.492 E0.00460
G1 X117.195 Y115.146 F7200.000
G1 F5760
G1 X116.960 Y115.435 E-0.16232
G1 F5760
G1 X116.484 Y115.299 E-0.17166
G1 F5760
G1 X116.152 Y115.173 E-0.12302
G1 F5760
G1 X115.719 Y114.982 E-0.16361
G1 F5760
G1 X115.363 Y114.795 E-0.13939
G1 E-0.04000 F2100.00000
G1 X115.390 Y114.252 F7200.000
G1 E0.80000 F2100.00000
G1 F2520
G1 X113.544 Y112.406 E0.07949
G1 F5760
G1 X115.095 Y113.958 E-0.76000
G1 E-0.04000 F2100.00000
G1 X113.050 Y111.373 F7200.000
G1 E0.80000 F2100.00000
G1 F2520
G1 X116.111 Y114.434 E0.13181
G1 X116.692 Y114.672 E0.01913
G1 X116.968 Y114.751 E0.00873
G1 X113.105 Y110.888 E0.16634
G1 X113.093 Y110.783 E0.00323
G1 X113.115 Y110.359 E0.01292
G1 X117.549 Y114.793 E0.19094
G1 X117.710 Y114.798 E0.00490
G1 X118.012 Y114.716 E0.00951
G1 X113.174 Y109.878 E0.20831
G1 X113.249 Y109.413 E0.01434
G1 X118.517 Y114.681 E0.22684
G1 X119.060 Y114.686 E0.01656
G1 X113.323 Y108.948 E0.24704
G1 X113.351 Y108.775 E0.00535
G1 X113.364 Y108.450 E0.00990
G1 X119.628 Y114.714 E0.26973
G1 X120.250 Y114.796 E0.01908
G1 X113.385 Y107.932 E0.29557
G1 X113.327 Y107.334 E0.01829
G1 X120.932 Y114.939 E0.32748
G1 X121.693 Y115.160 E0.02411
G1 X113.190 Y106.657 E0.36615
G1 X113.147 Y106.468 E0.00590
G1 X113.009 Y106.047 E0.01347
G1 X112.915 Y105.842 E0.00686
G1 X122.702 Y115.630 E0.42145
G1 F5760
G1 X121.151 Y114.078 E-0.76000
G1 E-0.04000 F2100.00000
G1 X111.725 Y104.113 F7200.000
G1 E0.80000 F2100.00000
G1 F2520
G1 X123.186 Y115.574 E0.49352
G1 X123.876 Y115.724 E0.02151
G1 X111.621 Y103.470 E0.52770
G1 X111.564 Y103.297 E0.00553
G1 X111.509 Y102.902 E0.01214
G1 X111.516 Y102.825 E0.00235
G1 X124.487 Y115.796 E0.55852
G1 X125.094 Y115.864 E0.01860
G1 X111.575 Y102.344 E0.58213
G1 X111.689 Y101.919 E0.01341
G1 X125.776 Y116.006 E0.60659
G1 X126.482 Y116.172 E0.02208
G1 X111.853 Y101.543 E0.62991
G1 X112.041 Y101.192 E0.01213
G1 X127.152 Y116.303 E0.65068
G1 X127.810 Y116.421 E0.02033
G1 X112.238 Y100.850 E0.67050
G1 X112.435 Y100.507 E0.01203
G1 X128.488 Y116.559 E0.69122
G1 X128.688 Y116.615 E0.00633
G1 X128.899 Y116.644 E0.00650
G1 X129.105 Y116.638 E0.00628
G1 X112.644 Y100.177 E0.70881
G1 X112.856 Y99.849 E0.01188
G1 X129.752 Y116.745 E0.72755
G1 X130.244 Y116.698 E0.01505
G1 X113.068 Y99.521 E0.73962
G1 X113.282 Y99.195 E0.01186
G1 X130.736 Y116.650 E0.75159
G1 X131.018 Y116.623 E0.00862
G1 X131.170 Y116.544 E0.00520
G1 X113.508 Y98.882 E0.76051
G1 X113.746 Y98.580 E0.01170
G1 X131.650 Y116.485 E0.77097
G1 X132.073 Y116.368 E0.01334
G1 X113.980 Y98.275 E0.77906
G1 X114.206 Y97.961 E0.01177
G1 X132.482 Y116.237 E0.78697
G1 X132.866 Y116.082 E0.01262
G1 X114.431 Y97.647 E0.79380
G1 X114.674 Y97.351 E0.01167
G1 X133.217 Y115.893 E0.79843
G1 X133.532 Y115.669 E0.01178
G1 X114.932 Y97.069 E0.80091
G1 X115.004 Y97.002 E0.00299
G1 X115.160 Y96.758 E0.00883
G1 X133.826 Y115.423 E0.80372
G1 X134.092 Y115.150 E0.01162
G1 X115.398 Y96.456 E0.80496
G1 X115.639 Y96.158 E0.01168
G1 X134.343 Y114.861 E0.80537
G1 X134.611 Y114.590 E0.01162
G1 X115.901 Y95.880 E0.80568
G1 X116.167 Y95.606 E0.01162
G1 X134.864 Y114.303 E0.80508
G1 X135.115 Y114.015 E0.01164
G1 X116.434 Y95.333 E0.80442
G1 X116.722 Y95.082 E0.01164
G1 X135.341 Y113.701 E0.80173
G1 X135.545 Y113.366 E0.01196
G1 X117.013 Y94.833 E0.79801
G1 X117.313 Y94.594 E0.01169
G1 X135.749 Y113.030 E0.79386
G1 X135.943 Y112.685 E0.01207
G1 X117.631 Y94.373 E0.78851
G1 X117.955 Y94.157 E0.01185
G1 X136.109 Y112.311 E0.78171
G1 X136.254 Y111.917 E0.01280
G1 X118.292 Y93.954 E0.77347
G1 X118.632 Y93.755 E0.01201
G1 X136.408 Y111.531 E0.76541
G1 X136.543 Y111.126 E0.01298
G1 X118.993 Y93.577 E0.75569
G1 X119.380 Y93.424 E0.01267
G1 X136.670 Y110.714 E0.74450
G1 X136.796 Y110.300 E0.01316
G1 X119.788 Y93.292 E0.73237
G1 X119.981 Y93.262 E0.00596
G1 X120.295 Y93.259 E0.00953
G1 X136.910 Y109.875 E0.71547
G1 X137.024 Y109.450 E0.01341
G1 X120.793 Y93.218 E0.69894
G1 X121.354 Y93.239 E0.01710
G1 X137.138 Y109.024 E0.67968
G1 X137.278 Y108.624 E0.01290
G1 X121.854 Y93.200 E0.66418
G1 X122.184 Y93.174 E0.01009
G1 X122.386 Y93.193 E0.00618
G1 X137.432 Y108.238 E0.64787
G1 X137.585 Y107.852 E0.01266
G1 X123.001 Y93.268 E0.62796
G1 X123.616 Y93.344 E0.01886
G1 X137.709 Y107.437 E0.60686
