; generated by Slic3r 1.36.2-prusa3d on 2017-09-08 at 08:13:23

; 

; external perimeters extrusion width = 0.45mm
; perimeters extrusion width = 0.45mm
; infill extrusion width = 0.45mm
; solid infill extrusion width = 0.45mm
; top infill extrusion width = 0.40mm
; first layer extrusion width = 0.42mm

M107
M115 U3.0.12 ; tell printer latest fw version
M83  ; extruder relative mode
M104 S230 ; set extruder temp
M140 S85 ; set bed temp
M190 S85 ; wait for bed temp
M109 S230 ; wait for extruder temp
G28 W ; home all without mesh bed level
G80 ; mesh bed leveling
G1 Y-3.0 F1000.0 ; go outside pritn area
G1 X60.0 E9.0  F1000.0 ; intro line
G1 X100.0 E12.5  F1000.0 ; intro line
; Filament gcode

G21 ; set units to millimeters
G90 ; use absolute coordinates
M83 ; use relative distances for extrusion
G1 E-0.80000 F2100.00000
G1 Z0.200 F7200.000
G1 X88.610 Y89.877 F7200.000
G1 E0.80000 F2100.00000
M204 S1000
G1 F2100
G1 X89.103 Y89.136 E0.02677
G1 X89.606 Y88.744 E0.01919
G1 X90.200 Y88.500 E0.01930
G1 X120.713 Y80.873 E0.94605
G1 X128.804 Y80.823 E0.24339
G1 X129.370 Y80.892 E0.01714
G1 X159.806 Y88.501 E0.94370
G1 X160.499 Y88.809 E0.02282
G1 X161.063 Y89.323 E0.02293
G1 X161.438 Y89.999 E0.02327
G1 X161.577 Y90.760 E0.02327
G1 X161.577 Y119.611 E0.86783
G1 X161.399 Y120.502 E0.02733
G1 X160.897 Y121.264 E0.02744
G1 X160.380 Y121.663 E0.01964
G1 X159.771 Y121.908 E0.01976
G1 X129.344 Y129.114 E0.94054
G1 X128.800 Y129.177 E0.01648
G1 X120.738 Y129.132 E0.24250
G1 X90.230 Y121.908 E0.94306
G1 X89.643 Y121.677 E0.01896
G1 X89.135 Y121.297 E0.01908
G1 X88.608 Y120.521 E0.02823
G1 X88.423 Y119.604 E0.02812
G1 X88.424 Y90.747 E0.86804
G1 X88.597 Y89.935 E0.02496
G1 F5760
G1 X89.103 Y89.136 E-0.32761
G1 F5760
G1 X89.606 Y88.744 E-0.22097
G1 F5760
G1 X90.171 Y88.512 E-0.21142
G1 E-0.04000 F2100.00000
G1 X91.387 Y91.387 F7200.000
G1 E0.80000 F2100.00000
G1 F1680
G1 X121.787 Y91.387 E0.91443
G1 X121.787 Y83.787 E0.22861
G1 X128.213 Y83.787 E0.19329
G1 X128.213 Y91.387 E0.22861
G1 X158.613 Y91.387 E0.91443
G1 X158.613 Y119.013 E0.83098
G1 X128.213 Y119.013 E0.91443
G1 X128.213 Y126.213 E0.21657
G1 X121.787 Y126.213 E0.19329
G1 X121.787 Y119.013 E0.21657
G1 X91.387 Y119.013 E0.91443
G1 X91.387 Y91.447 E0.82918
G1 F5760
G1 X93.581 Y91.443 E-0.76000
G1 E-0.04000 F2100.00000
G1 X128.590 Y91.010 F7200.000
G1 E0.80000 F2100.00000
G1 F1260
G1 X158.990 Y91.010 E0.91443
G1 X158.990 Y119.390 E0.85367
G1 X128.590 Y119.390 E0.91443
G1 X128.590 Y126.590 E0.21657
G1 X121.410 Y126.590 E0.21597
G1 X121.410 Y119.390 E0.21657
G1 X91.010 Y119.390 E0.91443
G1 X91.010 Y91.010 E0.85367
G1 X121.410 Y91.010 E0.91443
G1 X121.410 Y83.410 E0.22861
G1 X128.590 Y83.410 E0.21597
G1 X128.590 Y90.950 E0.22680
G1 X128.690 Y91.397 F7200.000
G1 F5760
G1 X130.784 Y90.954 E-0.76000
G1 E-0.04000 F2100.00000
G1 X127.719 Y83.900 F7200.000
G1 E0.80000 F2100.00000
G1 F1680
G1 X127.930 Y84.111 E0.00899
G1 X127.930 Y84.645 E0.01607
G1 X127.355 Y84.070 E0.02449
G1 X126.821 Y84.070 E0.01607
G1 X127.930 Y85.179 E0.04721
G1 X127.930 Y85.712 E0.01607
G1 X126.288 Y84.070 E0.06994
G1 X125.754 Y84.070 E0.01607
G1 X127.930 Y86.246 E0.09267
G1 X127.930 Y86.780 E0.01607
G1 X125.220 Y84.070 E0.11540
G1 X124.686 Y84.070 E0.01607
G1 X127.930 Y87.314 E0.13812
G1 X127.930 Y87.848 E0.01607
G1 X124.152 Y84.070 E0.16085
G1 X123.619 Y84.070 E0.01607
G1 X127.930 Y88.381 E0.18358
G1 X127.930 Y88.915 E0.01607
G1 X123.085 Y84.070 E0.20630
G1 X122.551 Y84.070 E0.01607
G1 X127.930 Y89.449 E0.22903
G1 X127.930 Y89.983 E0.01607
G1 X122.070 Y84.122 E0.24953
G1 X122.070 Y84.656 E0.01607
G1 X127.930 Y90.516 E0.24953
G1 X127.930 Y91.050 E0.01607
G1 X122.070 Y85.190 E0.24953
G1 X122.070 Y85.724 E0.01607
G1 X155.076 Y118.730 E1.40541
G1 X155.610 Y118.730 E0.01607
G1 X128.550 Y91.670 E1.15222
G1 X129.084 Y91.670 E0.01607
G1 X156.144 Y118.730 E1.15222
G1 X156.678 Y118.730 E0.01607
G1 X129.617 Y91.670 E1.15222
G1 X130.151 Y91.670 E0.01607
G1 X157.212 Y118.730 E1.15222
G1 X157.745 Y118.730 E0.01607
G1 X130.685 Y91.670 E1.15222
G1 X131.219 Y91.670 E0.01607
G1 X158.279 Y118.730 E1.15222
G1 X158.330 Y118.730 E0.00154
G1 X158.330 Y118.248 E0.01453
G1 X131.752 Y91.670 E1.13166
G1 X132.286 Y91.670 E0.01607
G1 X158.330 Y117.714 E1.10894
G1 X158.330 Y117.180 E0.01607
G1 X132.820 Y91.670 E1.08621
G1 X133.354 Y91.670 E0.01607
G1 X158.330 Y116.646 E1.06348
G1 X158.330 Y116.112 E0.01607
G1 X133.888 Y91.670 E1.04076
G1 X134.421 Y91.670 E0.01607
G1 X158.330 Y115.579 E1.01803
G1 X158.330 Y115.045 E0.01607
G1 X134.955 Y91.670 E0.99530
G1 X135.489 Y91.670 E0.01607
G1 X158.330 Y114.511 E0.97258
G1 X158.330 Y113.977 E0.01607
G1 X136.023 Y91.670 E0.94985
G1 X136.556 Y91.670 E0.01607
G1 X158.330 Y113.444 E0.92712
G1 X158.330 Y112.910 E0.01607
G1 X137.090 Y91.670 E0.90439
G1 X137.624 Y91.670 E0.01607
G1 X158.330 Y112.376 E0.88167
G1 X158.330 Y111.842 E0.01607
G1 X138.158 Y91.670 E0.85894
G1 X138.691 Y91.670 E0.01607
G1 X158.330 Y111.309 E0.83621
G1 X158.330 Y110.775 E0.01607
G1 X139.225 Y91.670 E0.81349
G1 X139.759 Y91.670 E0.01607
G1 X158.330 Y110.241 E0.79076
G1 X158.330 Y109.707 E0.01607
G1 X140.293 Y91.670 E0.76803
G1 X140.826 Y91.670 E0.01607
G1 X158.330 Y109.174 E0.74530
G1 X158.330 Y108.640 E0.01607
G1 X141.360 Y91.670 E0.72258
G1 X141.894 Y91.670 E0.01607
G1 X158.330 Y108.106 E0.69985
G1 X158.330 Y107.572 E0.01607
G1 X142.428 Y91.670 E0.67712
G1 X142.961 Y91.670 E0.01607
G1 X158.330 Y107.039 E0.65440
G1 X158.330 Y106.505 E0.01607
G1 X143.495 Y91.670 E0.63167
G1 X144.029 Y91.670 E0.01607
G1 X158.330 Y105.971 E0.60894
G1 X158.330 Y105.437 E0.01607
G1 X144.563 Y91.670 E0.58621
G1 X145.096 Y91.670 E0.01607
G1 X158.330 Y104.904 E0.56349
G1 X158.330 Y104.370 E0.01607
G1 X145.630 Y91.670 E0.54076
G1 X146.164 Y91.670 E0.01607
G1 X158.330 Y103.836 E0.51803
G1 X158.330 Y103.302 E0.01607
G1 X146.698 Y91.670 E0.49531
G1 X147.231 Y91.670 E0.01607
G1 X158.330 Y102.769 E0.47258
G1 X158.330 Y102.235 E0.01607
G1 X147.765 Y91.670 E0.44985
G1 X148.299 Y91.670 E0.01607
G1 X158.330 Y101.701 E0.42713
G1 X158.330 Y101.167 E0.01607
G1 X148.833 Y91.670 E0.40440
G1 X149.366 Y91.670 E0.01607
G1 X158.330 Y100.634 E0.38167
G1 X158.330 Y100.100 E0.01607
G1 X149.900 Y91.670 E0.35894
G1 X150.434 Y91.670 E0.01607
G1 X158.330 Y99.566 E0.33622
G1 X158.330 Y99.032 E0.01607
G1 X150.968 Y91.670 E0.31349
G1 X151.501 Y91.670 E0.01607
G1 X158.330 Y98.499 E0.29076
G1 X158.330 Y97.965 E0.01607
G1 X152.035 Y91.670 E0.26804
G1 X152.569 Y91.670 E0.01607
G1 X158.330 Y97.431 E0.24531
G1 X158.330 Y96.897 E0.01607
G1 X153.103 Y91.670 E0.22258
G1 X153.636 Y91.670 E0.01607
G1 X158.330 Y96.364 E0.19985
G1 X158.330 Y95.830 E0.01607
G1 X154.170 Y91.670 E0.17713
G1 X154.704 Y91.670 E0.01607
G1 X158.330 Y95.296 E0.15440
G1 X158.330 Y94.762 E0.01607
G1 X155.238 Y91.670 E0.13167
G1 X155.771 Y91.670 E0.01607
G1 X158.330 Y94.229 E0.10895
G1 X158.330 Y93.695 E0.01607
G1 X156.305 Y91.670 E0.08622
G1 X156.839 Y91.670 E0.01607
G1 X158.330 Y93.161 E0.06349
G1 X158.330 Y92.627 E0.01607
G1 X157.373 Y91.670 E0.04076
G1 X157.907 Y91.670 E0.01607
G1 X158.500 Y92.263 E0.02526
G1 F5760
G1 X157.907 Y91.670 E-0.29062
G1 F5760
G1 X157.373 Y91.670 E-0.18487
G1 F5760
G1 X157.954 Y92.251 E-0.28452
G1 E-0.04000 F2100.00000
G1 X154.712 Y118.900 F7200.000
G1 E0.80000 F2100.00000
G1 F1680
G1 X122.070 Y86.257 E1.38991
G1 X122.070 Y86.791 E0.01607
G1 X154.009 Y118.730 E1.35995
G1 X153.475 Y118.730 E0.01607
G1 X122.070 Y87.325 E1.33723
G1 X122.070 Y87.859 E0.01607
G1 X152.941 Y118.730 E1.31450
G1 X152.408 Y118.730 E0.01607
G1 X122.070 Y88.392 E1.29177
G1 X122.070 Y88.926 E0.01607
G1 X151.874 Y118.730 E1.26905
G1 X151.340 Y118.730 E0.01607
G1 X122.070 Y89.460 E1.24632
G1 X122.070 Y89.994 E0.01607
G1 X150.806 Y118.730 E1.22359
G1 X150.273 Y118.730 E0.01607
G1 X122.070 Y90.527 E1.20086
G1 X122.070 Y91.061 E0.01607
G1 X149.739 Y118.730 E1.17814
G1 X149.205 Y118.730 E0.01607
G1 X122.070 Y91.595 E1.15541
G1 X122.070 Y91.670 E0.00226
G1 X121.611 Y91.670 E0.01381
G1 X148.671 Y118.730 E1.15222
G1 X148.138 Y118.730 E0.01607
G1 X121.077 Y91.670 E1.15222
G1 X120.544 Y91.670 E0.01607
G1 X147.604 Y118.730 E1.15222
G1 X147.070 Y118.730 E0.01607
G1 X120.010 Y91.670 E1.15222
G1 X119.476 Y91.670 E0.01607
G1 X146.536 Y118.730 E1.15222
G1 X146.003 Y118.730 E0.01607
G1 X118.942 Y91.670 E1.15222
G1 X118.409 Y91.670 E0.01607
G1 X145.469 Y118.730 E1.15222
G1 X144.935 Y118.730 E0.01607
G1 X117.875 Y91.670 E1.15222
G1 X117.341 Y91.670 E0.01607
G1 X144.401 Y118.730 E1.15222
G1 X143.868 Y118.730 E0.01607
G1 X116.807 Y91.670 E1.15222
G1 X116.274 Y91.670 E0.01607
G1 X143.334 Y118.730 E1.15222
G1 X142.800 Y118.730 E0.01607
G1 X115.740 Y91.670 E1.15222
G1 X115.206 Y91.670 E0.01607
G1 X142.266 Y118.730 E1.15222
G1 X141.733 Y118.730 E0.01607
G1 X114.672 Y91.670 E1.15222
G1 X114.139 Y91.670 E0.01607
G1 X141.199 Y118.730 E1.15222
G1 X140.665 Y118.730 E0.01607
G1 X113.605 Y91.670 E1.15222
G1 X113.071 Y91.670 E0.01607
G1 X140.131 Y118.730 E1.15222
G1 X139.598 Y118.730 E0.01607
G1 X112.537 Y91.670 E1.15222
G1 X112.004 Y91.670 E0.01607
G1 X139.064 Y118.730 E1.15222
G1 X138.530 Y118.730 E0.01607
G1 X111.470 Y91.670 E1.15222
G1 X110.936 Y91.670 E0.01607
G1 X137.996 Y118.730 E1.15222
G1 X137.463 Y118.730 E0.01607
G1 X110.402 Y91.670 E1.15222
G1 X109.869 Y91.670 E0.01607
G1 X136.929 Y118.730 E1.15222
G1 X136.395 Y118.730 E0.01607
G1 X109.335 Y91.670 E1.15222
G1 X108.801 Y91.670 E0.01607
G1 X135.861 Y118.730 E1.15222
G1 X135.328 Y118.730 E0.01607
G1 X108.267 Y91.670 E1.15222
G1 X107.734 Y91.670 E0.01607
G1 X134.794 Y118.730 E1.15222
G1 X134.260 Y118.730 E0.01607
G1 X107.200 Y91.670 E1.15222
G1 X106.666 Y91.670 E0.01607
G1 X133.726 Y118.730 E1.15222
G1 X133.193 Y118.730 E0.01607
G1 X106.132 Y91.670 E1.15222
G1 X105.598 Y91.670 E0.01607
G1 X132.659 Y118.730 E1.15222
G1 X132.125 Y118.730 E0.01607
G1 X105.065 Y91.670 E1.15222
G1 X104.531 Y91.670 E0.01607
G1 X131.591 Y118.730 E1.15222
G1 X131.057 Y118.730 E0.01607
G1 X103.997 Y91.670 E1.15222
G1 X103.463 Y91.670 E0.01607
G1 X130.524 Y118.730 E1.15222
G1 X129.990 Y118.730 E0.01607
G1 X102.930 Y91.670 E1.15222
G1 X102.396 Y91.670 E0.01607
G1 X129.456 Y118.730 E1.15222
G1 X128.922 Y118.730 E0.01607
G1 X101.862 Y91.670 E1.15222
G1 X101.328 Y91.670 E0.01607
G1 X128.389 Y118.730 E1.15222
G1 X127.930 Y118.730 E0.01381
G1 X127.930 Y118.805 E0.00226
G1 X100.795 Y91.670 E1.15542
G1 X100.261 Y91.670 E0.01607
G1 X127.930 Y119.339 E1.17814
G1 X127.930 Y119.873 E0.01607
G1 X99.727 Y91.670 E1.20087
G1 X99.193 Y91.670 E0.01607
G1 X127.930 Y120.407 E1.22360
G1 X127.930 Y120.940 E0.01607
G1 X98.660 Y91.670 E1.24632
G1 X98.126 Y91.670 E0.01607
G1 X127.930 Y121.474 E1.26905
G1 X127.930 Y122.008 E0.01607
G1 X97.592 Y91.670 E1.29178
G1 X97.058 Y91.670 E0.01607
G1 X127.930 Y122.542 E1.31451
G1 X127.930 Y123.075 E0.01607
G1 X96.525 Y91.670 E1.33723
G1 X95.991 Y91.670 E0.01607
G1 X127.930 Y123.609 E1.35996
G1 X127.930 Y124.143 E0.01607
G1 X95.457 Y91.670 E1.38269
G1 X94.923 Y91.670 E0.01607
G1 X127.930 Y124.677 E1.40541
G1 X127.930 Y125.210 E0.01607
G1 X122.070 Y119.350 E0.24953
G1 X122.070 Y119.884 E0.01607
G1 X127.930 Y125.744 E0.24953
G1 X127.930 Y125.930 E0.00560
G1 X127.582 Y125.930 E0.01047
G1 X122.070 Y120.418 E0.23472
G1 X122.070 Y120.951 E0.01607
G1 X127.049 Y125.930 E0.21199
G1 X126.515 Y125.930 E0.01607
G1 X122.070 Y121.485 E0.18927
G1 X122.070 Y122.019 E0.01607
G1 X125.981 Y125.930 E0.16654
G1 X125.447 Y125.930 E0.01607
G1 X122.070 Y122.553 E0.14381
G1 X122.070 Y123.086 E0.01607
G1 X124.914 Y125.930 E0.12109
G1 X124.380 Y125.930 E0.01607
G1 X122.070 Y123.620 E0.09836
G1 X122.070 Y124.154 E0.01607
G1 X123.846 Y125.930 E0.07563
G1 X123.312 Y125.930 E0.01607
G1 X122.070 Y124.688 E0.05290
G1 X122.070 Y125.221 E0.01607
G1 X122.779 Y125.930 E0.03018
G1 X122.245 Y125.930 E0.01607
G1 X121.900 Y125.585 E0.01468
G1 F5760
G1 X122.245 Y125.930 E-0.16882
G1 F5760
G1 X122.779 Y125.930 E-0.18487
G1 F5760
G1 X122.070 Y125.221 E-0.34714
G1 F5760
G1 X122.070 Y125.051 E-0.05917
G1 E-0.04000 F2100.00000
G1 X121.620 Y118.900 F7200.000
G1 E0.80000 F2100.00000
G1 F1680
G1 X94.390 Y91.670 E1.15944
G1 X93.856 Y91.670 E0.01607
G1 X120.916 Y118.730 E1.15222
G1 X120.382 Y118.730 E0.01607
G1 X93.322 Y91.670 E1.15222
G1 X92.788 Y91.670 E0.01607
G1 X119.849 Y118.730 E1.15222
G1 X119.315 Y118.730 E0.01607
G1 X92.255 Y91.670 E1.15222
G1 X91.721 Y91.670 E0.01607
G1 X118.781 Y118.730 E1.15222
G1 X118.247 Y118.730 E0.01607
G1 X91.670 Y92.153 E1.13166
G1 X91.670 Y92.686 E0.01607
G1 X117.714 Y118.730 E1.10893
G1 X117.180 Y118.730 E0.01607
G1 X91.670 Y93.220 E1.08620
G1 X91.670 Y93.754 E0.01607
G1 X116.646 Y118.730 E1.06348
G1 X116.112 Y118.730 E0.01607
G1 X91.670 Y94.288 E1.04075
G1 X91.670 Y94.821 E0.01607
G1 X115.579 Y118.730 E1.01802
G1 X115.045 Y118.730 E0.01607
G1 X91.670 Y95.355 E0.99530
G1 X91.670 Y95.889 E0.01607
G1 X114.511 Y118.730 E0.97257
G1 X113.977 Y118.730 E0.01607
G1 X91.670 Y96.423 E0.94984
G1 X91.670 Y96.956 E0.01607
G1 X113.444 Y118.730 E0.92712
G1 X112.910 Y118.730 E0.01607
G1 X91.670 Y97.490 E0.90439
G1 X91.670 Y98.024 E0.01607
G1 X112.376 Y118.730 E0.88166
G1 X111.842 Y118.730 E0.01607
G1 X91.670 Y98.558 E0.85893
G1 X91.670 Y99.091 E0.01607
G1 X111.309 Y118.730 E0.83621
G1 X110.775 Y118.730 E0.01607
G1 X91.670 Y99.625 E0.81348
G1 X91.670 Y100.159 E0.01607
G1 X110.241 Y118.730 E0.79075
G1 X109.707 Y118.730 E0.01607
G1 X91.670 Y100.693 E0.76803
G1 X91.670 Y101.226 E0.01607
G1 X109.174 Y118.730 E0.74530
G1 X108.640 Y118.730 E0.01607
G1 X91.670 Y101.760 E0.72257
G1 X91.670 Y102.294 E0.01607
G1 X108.106 Y118.730 E0.69984
G1 X107.572 Y118.730 E0.01607
G1 X91.670 Y102.828 E0.67712
G1 X91.670 Y103.361 E0.01607
G1 X107.038 Y118.730 E0.65439
G1 X106.505 Y118.730 E0.01607
G1 X91.670 Y103.895 E0.63166
G1 X91.670 Y104.429 E0.01607
G1 X105.971 Y118.730 E0.60894
G1 X105.437 Y118.730 E0.01607
G1 X91.670 Y104.963 E0.58621
G1 X91.670 Y105.497 E0.01607
G1 X104.903 Y118.730 E0.56348
G1 X104.370 Y118.730 E0.01607
G1 X91.670 Y106.030 E0.54075
G1 X91.670 Y106.564 E0.01607
G1 X103.836 Y118.730 E0.51803
G1 X103.302 Y118.730 E0.01607
G1 X91.670 Y107.098 E0.49530
G1 X91.670 Y107.632 E0.01607
G1 X102.768 Y118.730 E0.47257
G1 X102.235 Y118.730 E0.01607
G1 X91.670 Y108.165 E0.44985
G1 X91.670 Y108.699 E0.01607
G1 X101.701 Y118.730 E0.42712
G1 X101.167 Y118.730 E0.01607
G1 X91.670 Y109.233 E0.40439
G1 X91.670 Y109.767 E0.01607
G1 X100.633 Y118.730 E0.38167
G1 X100.100 Y118.730 E0.01607
G1 X91.670 Y110.300 E0.35894
G1 X91.670 Y110.834 E0.01607
G1 X99.566 Y118.730 E0.33621
G1 X99.032 Y118.730 E0.01607
G1 X91.670 Y111.368 E0.31348
G1 X91.670 Y111.902 E0.01607
G1 X98.498 Y118.730 E0.29076
G1 X97.965 Y118.730 E0.01607
G1 X91.670 Y112.435 E0.26803
G1 X91.670 Y112.969 E0.01607
G1 X97.431 Y118.730 E0.24530
G1 X96.897 Y118.730 E0.01607
G1 X91.670 Y113.503 E0.22258
G1 X91.670 Y114.037 E0.01607
G1 X96.363 Y118.730 E0.19985
G1 X95.830 Y118.730 E0.01607
G1 X91.670 Y114.570 E0.17712
G1 X91.670 Y115.104 E0.01607
G1 X95.296 Y118.730 E0.15439
G1 X94.762 Y118.730 E0.01607
G1 X91.670 Y115.638 E0.13167
G1 X91.670 Y116.172 E0.01607
G1 X94.228 Y118.730 E0.10894
G1 X93.695 Y118.730 E0.01607
G1 X91.670 Y116.705 E0.08621
G1 X91.670 Y117.239 E0.01607
G1 X93.161 Y118.730 E0.06349
G1 X92.627 Y118.730 E0.01607
G1 X91.670 Y117.773 E0.04076
G1 X91.670 Y118.307 E0.01607
G1 X92.263 Y118.900 E0.02526
G1 F5760
G1 X91.670 Y118.307 E-0.29055
G1 F5760
G1 X91.670 Y117.773 E-0.18487
G1 F5760
G1 X92.251 Y118.354 E-0.28458
G1 E-0.04000 F2100.00000
G1 Z0.400 F7200.000
M104 S240 ; set temperature
M140 S90 ; set bed temperature
G1 X88.608 Y120.521 F7200.000
G1 E0.80000 F2100.00000
G1 F3000
G1 X88.423 Y119.604 E0.02812
G1 X88.424 Y90.747 E0.86804
G1 X88.610 Y89.877 E0.02677
G1 X89.103 Y89.136 E0.02677
G1 X89.606 Y88.744 E0.01919
G1 X90.200 Y88.500 E0.01930
G1 X120.713 Y80.873 E0.94605
G1 X128.804 Y80.823 E0.24339
G1 X129.370 Y80.892 E0.01714
G1 X159.806 Y88.501 E0.94370
G1 X160.499 Y88.809 E0.02282
G1 X161.063 Y89.323 E0.02293
G1 X161.438 Y89.999 E0.02327
G1 X161.577 Y90.760 E0.02327
G1 X161.577 Y119.611 E0.86783
G1 X161.399 Y120.502 E0.02733
G1 X160.897 Y121.264 E0.02744
