; generated by Slic3r 1.36.2-prusa3d on 2017-09-08 at 08:13:00

; 

; external perimeters extrusion width = 0.45mm
; perimeters extrusion width = 0.45mm
; infill extrusion width = 0.45mm
; solid infill extrusion width = 0.45mm
; top infill extrusion width = 0.40mm
; first layer extrusion width = 0.42mm

M107
M115 U3.0.12 ; tell printer latest fw version
M83  ; extruder relative mode
M104 S230 ; set extruder temp
M140 S85 ; set bed temp
M190 S85 ; wait for bed temp
M109 S230 ; wait for extruder temp
G28 W ; home all without mesh bed level
G80 ; mesh bed leveling
G1 Y-3.0 F1000.0 ; go outside pritn area
G1 X60.0 E9.0  F1000.0 ; intro line
G1 X100.0 E12.5  F1000.0 ; intro line
; Filament gcode

G21 ; set units to millimeters
G90 ; use absolute coordinates
M83 ; use relative distances for extrusion
G1 E-0.80000 F2100.00000
G1 Z0.200 F7200.000
G1 X45.824 Y54.814 F7200.000
G1 E0.80000 F2100.00000
M204 S1000
G1 F2100
G1 X46.313 Y54.440 E0.01851
G1 X46.881 Y54.205 E0.01851
G1 X47.495 Y54.123 E0.01862
G1 X202.504 Y54.123 E4.66264
G1 X203.395 Y54.298 E0.02733
G1 X204.159 Y54.797 E0.02744
G1 X204.678 Y55.548 E0.02744
G1 X204.876 Y56.438 E0.02744
G1 X204.872 Y143.660 E2.62362
G1 X204.726 Y144.335 E0.02078
G1 X204.394 Y144.937 E0.02067
G1 X198.724 Y151.752 E0.26668
G1 X197.293 Y153.116 E0.05945
G1 X195.686 Y154.220 E0.05865
G1 X193.993 Y155.032 E0.05648
G1 X192.705 Y155.455 E0.04080
G1 X191.377 Y155.733 E0.04080
G1 X189.528 Y155.877 E0.05579
G1 X59.827 Y155.859 E3.90139
G1 X57.924 Y155.606 E0.05773
G1 X56.066 Y155.055 E0.05831
G1 X54.316 Y154.221 E0.05831
G1 X52.751 Y153.150 E0.05705
G1 X51.270 Y151.746 E0.06139
G1 X45.441 Y144.688 E0.27533
G1 X45.205 Y144.120 E0.01851
G1 X45.123 Y143.510 E0.01851
G1 X45.123 Y56.477 E2.61794
G1 X45.209 Y55.868 E0.01851
G1 X45.448 Y55.301 E0.01851
G1 X45.787 Y54.862 E0.01670
G1 F5760
G1 X46.313 Y54.440 E-0.23327
G1 F5760
G1 X46.881 Y54.205 E-0.21312
G1 F5760
G1 X47.495 Y54.123 E-0.21443
G1 F5760
G1 X47.781 Y54.123 E-0.09918
G1 E-0.04000 F2100.00000
G1 X127.087 Y57.087 F7200.000
G1 E0.80000 F2100.00000
G1 F1680
G1 X132.213 Y57.087 E0.15418
G1 X132.213 Y60.287 E0.09626
G1 X146.787 Y60.287 E0.43839
G1 X146.787 Y57.087 E0.09626
G1 X156.713 Y57.087 E0.29857
G1 X156.713 Y131.087 E2.22591
G1 X172.287 Y131.087 E0.46847
G1 X172.287 Y57.087 E2.22591
G1 X182.213 Y57.087 E0.29857
G1 X182.213 Y60.287 E0.09626
G1 X196.787 Y60.287 E0.43839
G1 X196.787 Y57.087 E0.09626
G1 X201.913 Y57.087 E0.15418
G1 X201.913 Y62.213 E0.15418
G1 X198.913 Y62.213 E0.09024
G1 X198.913 Y76.787 E0.43839
G1 X201.913 Y76.787 E0.09024
G1 X201.913 Y81.713 E0.14817
G1 X198.913 Y81.713 E0.09024
G1 X198.913 Y96.287 E0.43839
G1 X201.913 Y96.287 E0.09024
G1 X201.913 Y142.913 E1.40250
G1 X198.928 Y142.913 E0.08978
G1 X198.900 Y143.993 E0.03249
G1 X198.861 Y144.484 E0.01482
G1 X198.797 Y144.972 E0.01482
G1 X198.707 Y145.457 E0.01482
G1 X198.592 Y145.936 E0.01482
G1 X198.452 Y146.409 E0.01482
G1 X198.288 Y146.873 E0.01482
G1 X198.099 Y147.328 E0.01481
G1 X197.652 Y148.206 E0.02965
G1 X197.394 Y148.627 E0.01482
G1 X197.115 Y149.033 E0.01482
G1 X196.815 Y149.424 E0.01482
G1 X196.495 Y149.798 E0.01481
G1 X196.144 Y150.167 E0.01535
G1 X195.798 Y150.495 E0.01431
G1 X195.424 Y150.815 E0.01482
G1 X195.033 Y151.115 E0.01482
G1 X194.627 Y151.394 E0.01482
G1 X194.207 Y151.651 E0.01481
G1 X193.758 Y151.894 E0.01535
G1 X193.328 Y152.099 E0.01431
G1 X192.873 Y152.288 E0.01482
G1 X192.409 Y152.452 E0.01482
G1 X191.937 Y152.592 E0.01481
G1 X191.440 Y152.710 E0.01535
G1 X190.972 Y152.797 E0.01431
G1 X190.484 Y152.861 E0.01482
G1 X189.993 Y152.900 E0.01481
G1 X189.483 Y152.912 E0.01535
G1 X189.007 Y152.900 E0.01431
G1 X188.516 Y152.861 E0.01482
G1 X188.028 Y152.797 E0.01481
G1 X187.526 Y152.703 E0.01535
G1 X187.064 Y152.592 E0.01431
G1 X186.591 Y152.452 E0.01482
G1 X186.127 Y152.288 E0.01482
G1 X185.672 Y152.099 E0.01482
G1 X185.227 Y151.887 E0.01482
G1 X184.794 Y151.652 E0.01482
G1 X184.373 Y151.394 E0.01482
G1 X183.967 Y151.115 E0.01482
G1 X183.576 Y150.815 E0.01482
G1 X183.202 Y150.495 E0.01482
G1 X182.844 Y150.156 E0.01482
G1 X182.505 Y149.798 E0.01482
G1 X182.185 Y149.424 E0.01482
G1 X181.885 Y149.033 E0.01482
G1 X181.606 Y148.627 E0.01482
G1 X181.348 Y148.206 E0.01482
G1 X181.113 Y147.774 E0.01481
G1 X180.712 Y146.873 E0.02965
G1 X180.548 Y146.409 E0.01482
G1 X180.408 Y145.936 E0.01482
G1 X180.293 Y145.457 E0.01481
G1 X180.139 Y144.484 E0.02965
G1 X180.100 Y143.993 E0.01482
G1 X180.072 Y142.913 E0.03249
G1 X148.928 Y142.913 E0.93680
G1 X148.900 Y143.993 E0.03249
G1 X148.861 Y144.484 E0.01482
G1 X148.797 Y144.972 E0.01482
G1 X148.707 Y145.457 E0.01482
G1 X148.592 Y145.936 E0.01482
G1 X148.452 Y146.409 E0.01482
G1 X148.288 Y146.873 E0.01482
G1 X148.099 Y147.329 E0.01482
G1 X147.887 Y147.773 E0.01482
G1 X147.652 Y148.206 E0.01482
G1 X147.394 Y148.627 E0.01482
G1 X147.115 Y149.033 E0.01482
G1 X146.815 Y149.424 E0.01482
G1 X146.495 Y149.798 E0.01482
G1 X146.156 Y150.156 E0.01482
G1 X145.798 Y150.495 E0.01482
G1 X145.424 Y150.815 E0.01482
G1 X145.033 Y151.115 E0.01482
G1 X144.627 Y151.394 E0.01482
G1 X144.206 Y151.652 E0.01482
G1 X143.773 Y151.887 E0.01482
G1 X143.329 Y152.099 E0.01482
G1 X142.873 Y152.288 E0.01482
G1 X142.409 Y152.452 E0.01482
G1 X141.936 Y152.592 E0.01482
G1 X141.457 Y152.707 E0.01482
G1 X140.972 Y152.797 E0.01482
G1 X140.484 Y152.861 E0.01482
G1 X139.993 Y152.900 E0.01482
G1 X139.500 Y152.913 E0.01482
G1 X139.007 Y152.900 E0.01482
G1 X138.516 Y152.861 E0.01482
G1 X138.028 Y152.797 E0.01482
G1 X137.543 Y152.707 E0.01482
G1 X137.064 Y152.592 E0.01482
G1 X136.591 Y152.452 E0.01482
G1 X136.127 Y152.288 E0.01482
G1 X135.671 Y152.099 E0.01482
G1 X135.227 Y151.887 E0.01482
G1 X134.794 Y151.652 E0.01482
G1 X134.374 Y151.394 E0.01481
G1 X133.576 Y150.815 E0.02965
G1 X133.202 Y150.495 E0.01482
G1 X132.844 Y150.156 E0.01482
G1 X132.505 Y149.798 E0.01482
G1 X132.185 Y149.424 E0.01482
G1 X131.885 Y149.033 E0.01482
G1 X131.606 Y148.627 E0.01482
G1 X131.348 Y148.206 E0.01482
G1 X131.113 Y147.773 E0.01482
G1 X130.901 Y147.329 E0.01482
G1 X130.712 Y146.873 E0.01482
G1 X130.548 Y146.409 E0.01482
G1 X130.408 Y145.937 E0.01481
G1 X130.203 Y144.972 E0.02965
G1 X130.139 Y144.484 E0.01482
G1 X130.100 Y143.993 E0.01482
G1 X130.072 Y142.913 E0.03249
G1 X127.087 Y142.913 E0.08978
G1 X127.087 Y96.287 E1.40250
G1 X130.087 Y96.287 E0.09024
G1 X130.087 Y81.713 E0.43839
G1 X127.087 Y81.713 E0.09024
G1 X127.087 Y76.787 E0.14817
G1 X130.087 Y76.787 E0.09024
G1 X130.087 Y62.213 E0.43839
G1 X127.087 Y62.213 E0.09024
G1 X127.087 Y57.147 E0.15238
G1 F5760
G1 X129.281 Y57.121 E-0.76000
G1 E-0.04000 F2100.00000
G1 X132.590 Y59.910 F7200.000
G1 E0.80000 F2100.00000
G1 F1260
G1 X146.410 Y59.910 E0.41570
G1 X146.410 Y56.710 E0.09626
G1 X157.090 Y56.710 E0.32125
G1 X157.090 Y130.710 E2.22591
G1 X171.910 Y130.710 E0.44578
G1 X171.910 Y56.710 E2.22591
G1 X182.590 Y56.710 E0.32125
G1 X182.590 Y59.910 E0.09626
G1 X196.410 Y59.910 E0.41570
G1 X196.410 Y56.710 E0.09626
G1 X202.290 Y56.710 E0.17687
G1 X202.290 Y62.590 E0.17687
G1 X199.290 Y62.590 E0.09024
G1 X199.290 Y76.410 E0.41570
G1 X202.290 Y76.410 E0.09024
G1 X202.290 Y82.090 E0.17085
G1 X199.290 Y82.090 E0.09024
G1 X199.290 Y95.910 E0.41570
G1 X202.290 Y95.910 E0.09024
G1 X202.290 Y143.290 E1.42518
G1 X199.295 Y143.290 E0.09008
G1 X199.277 Y144.012 E0.02174
G1 X199.236 Y144.523 E0.01542
G1 X199.169 Y145.031 E0.01542
G1 X199.076 Y145.535 E0.01542
G1 X198.956 Y146.034 E0.01542
G1 X198.811 Y146.525 E0.01542
G1 X198.640 Y147.008 E0.01542
G1 X198.444 Y147.482 E0.01541
G1 X198.215 Y147.960 E0.01594
G1 X197.978 Y148.395 E0.01490
G1 X197.711 Y148.832 E0.01542
G1 X197.420 Y149.254 E0.01542
G1 X197.108 Y149.661 E0.01542
G1 X196.775 Y150.051 E0.01541
G1 X196.410 Y150.434 E0.01594
G1 X196.051 Y150.775 E0.01490
G1 X195.661 Y151.108 E0.01542
G1 X195.254 Y151.420 E0.01542
G1 X194.832 Y151.711 E0.01542
G1 X194.395 Y151.978 E0.01541
G1 X193.929 Y152.230 E0.01594
G1 X193.482 Y152.444 E0.01490
G1 X193.008 Y152.640 E0.01542
G1 X192.525 Y152.811 E0.01542
G1 X192.034 Y152.956 E0.01541
G1 X191.518 Y153.079 E0.01594
G1 X191.031 Y153.169 E0.01490
G1 X190.523 Y153.236 E0.01542
G1 X190.013 Y153.276 E0.01541
G1 X189.483 Y153.289 E0.01594
G1 X188.988 Y153.277 E0.01490
G1 X188.477 Y153.236 E0.01542
G1 X187.969 Y153.169 E0.01541
G1 X187.448 Y153.072 E0.01594
G1 X186.966 Y152.956 E0.01490
G1 X186.475 Y152.811 E0.01542
G1 X185.992 Y152.640 E0.01542
G1 X185.518 Y152.444 E0.01542
G1 X185.055 Y152.223 E0.01542
G1 X184.605 Y151.978 E0.01542
G1 X184.168 Y151.711 E0.01542
G1 X183.746 Y151.420 E0.01542
G1 X183.339 Y151.108 E0.01542
G1 X182.949 Y150.775 E0.01542
G1 X182.577 Y150.423 E0.01542
G1 X182.225 Y150.051 E0.01542
G1 X181.892 Y149.661 E0.01542
G1 X181.580 Y149.254 E0.01542
G1 X181.289 Y148.832 E0.01542
G1 X181.022 Y148.395 E0.01542
G1 X180.777 Y147.945 E0.01541
G1 X180.550 Y147.466 E0.01594
G1 X180.360 Y147.008 E0.01490
G1 X180.189 Y146.525 E0.01542
G1 X180.044 Y146.034 E0.01542
G1 X179.924 Y145.536 E0.01541
G1 X179.828 Y145.014 E0.01594
G1 X179.764 Y144.523 E0.01490
G1 X179.723 Y144.012 E0.01542
G1 X179.705 Y143.290 E0.02174
G1 X149.295 Y143.290 E0.91470
G1 X149.277 Y144.012 E0.02174
G1 X149.236 Y144.523 E0.01542
G1 X149.169 Y145.031 E0.01542
G1 X149.076 Y145.535 E0.01542
G1 X148.956 Y146.034 E0.01542
G1 X148.811 Y146.525 E0.01542
G1 X148.640 Y147.008 E0.01542
G1 X148.444 Y147.482 E0.01542
G1 X148.223 Y147.945 E0.01542
G1 X147.978 Y148.395 E0.01542
G1 X147.711 Y148.832 E0.01542
G1 X147.420 Y149.254 E0.01542
G1 X147.108 Y149.661 E0.01542
G1 X146.775 Y150.051 E0.01542
G1 X146.423 Y150.423 E0.01542
G1 X146.051 Y150.775 E0.01542
G1 X145.661 Y151.108 E0.01542
G1 X145.254 Y151.420 E0.01542
G1 X144.832 Y151.711 E0.01542
G1 X144.395 Y151.978 E0.01542
G1 X143.945 Y152.223 E0.01542
G1 X143.482 Y152.444 E0.01542
G1 X143.008 Y152.640 E0.01542
G1 X142.525 Y152.811 E0.01542
G1 X142.034 Y152.956 E0.01542
G1 X141.535 Y153.076 E0.01542
G1 X141.031 Y153.169 E0.01542
G1 X140.523 Y153.236 E0.01542
G1 X140.012 Y153.277 E0.01542
G1 X139.500 Y153.290 E0.01542
G1 X138.988 Y153.277 E0.01542
G1 X138.477 Y153.236 E0.01542
G1 X137.969 Y153.169 E0.01542
G1 X137.465 Y153.076 E0.01542
G1 X136.966 Y152.956 E0.01542
G1 X136.475 Y152.811 E0.01542
G1 X135.992 Y152.640 E0.01542
G1 X135.518 Y152.444 E0.01542
G1 X135.055 Y152.223 E0.01542
G1 X134.605 Y151.978 E0.01542
G1 X134.168 Y151.711 E0.01541
G1 X133.732 Y151.410 E0.01594
G1 X133.339 Y151.108 E0.01490
G1 X132.949 Y150.775 E0.01542
G1 X132.577 Y150.423 E0.01542
G1 X132.225 Y150.051 E0.01542
G1 X131.892 Y149.661 E0.01542
G1 X131.580 Y149.254 E0.01542
G1 X131.289 Y148.832 E0.01542
G1 X131.022 Y148.395 E0.01542
G1 X130.777 Y147.945 E0.01542
G1 X130.556 Y147.482 E0.01542
G1 X130.360 Y147.008 E0.01542
G1 X130.189 Y146.525 E0.01542
G1 X130.044 Y146.034 E0.01541
G1 X129.921 Y145.518 E0.01594
G1 X129.831 Y145.031 E0.01490
G1 X129.764 Y144.523 E0.01542
G1 X129.723 Y144.012 E0.01542
G1 X129.705 Y143.290 E0.02174
G1 X126.710 Y143.290 E0.09008
G1 X126.710 Y95.910 E1.42518
G1 X129.710 Y95.910 E0.09024
G1 X129.710 Y82.090 E0.41570
G1 X126.710 Y82.090 E0.09024
G1 X126.710 Y76.410 E0.17085
G1 X129.710 Y76.410 E0.09024
G1 X129.710 Y62.590 E0.41570
G1 X126.710 Y62.590 E0.09024
G1 X126.710 Y56.710 E0.17687
G1 X132.590 Y56.710 E0.17687
G1 X132.590 Y59.850 E0.09445
G1 X132.730 Y60.285 F7200.000
G1 F5760
G1 X134.784 Y59.860 E-0.76000
G1 E-0.04000 F2100.00000
G1 X131.611 Y57.200 F7200.000
G1 E0.80000 F2100.00000
G1 F1680
G1 X131.930 Y57.520 E0.01361
G1 X131.930 Y58.054 E0.01609
G1 X131.246 Y57.370 E0.02913
G1 X130.712 Y57.370 E0.01609
G1 X131.930 Y58.588 E0.05188
G1 X131.930 Y59.122 E0.01609
G1 X130.178 Y57.370 E0.07464
G1 X129.644 Y57.370 E0.01609
G1 X131.930 Y59.656 E0.09739
G1 X131.930 Y60.190 E0.01609
G1 X129.110 Y57.370 E0.12014
G1 X128.576 Y57.370 E0.01609
G1 X156.430 Y85.224 E1.18668
G1 X156.430 Y84.690 E0.01609
G1 X132.310 Y60.570 E1.02760
G1 X132.844 Y60.570 E0.01609
G1 X156.430 Y84.156 E1.00485
G1 X156.430 Y83.622 E0.01609
G1 X133.378 Y60.570 E0.98209
G1 X133.912 Y60.570 E0.01609
G1 X156.430 Y83.088 E0.95934
G1 X156.430 Y82.554 E0.01609
G1 X134.446 Y60.570 E0.93659
G1 X134.980 Y60.570 E0.01609
G1 X156.430 Y82.020 E0.91384
G1 X156.430 Y81.486 E0.01609
G1 X135.514 Y60.570 E0.89108
G1 X136.048 Y60.570 E0.01609
G1 X156.430 Y80.952 E0.86833
G1 X156.430 Y80.417 E0.01609
G1 X136.583 Y60.570 E0.84558
G1 X137.117 Y60.570 E0.01609
G1 X156.430 Y79.883 E0.82283
G1 X156.430 Y79.349 E0.01609
G1 X137.651 Y60.570 E0.80008
G1 X138.185 Y60.570 E0.01609
G1 X156.430 Y78.815 E0.77732
G1 X156.430 Y78.281 E0.01609
G1 X138.719 Y60.570 E0.75457
G1 X139.253 Y60.570 E0.01609
G1 X156.430 Y77.747 E0.73182
G1 X156.430 Y77.213 E0.01609
G1 X139.787 Y60.570 E0.70907
G1 X140.321 Y60.570 E0.01609
G1 X156.430 Y76.679 E0.68631
G1 X156.430 Y76.145 E0.01609
G1 X140.855 Y60.570 E0.66356
G1 X141.389 Y60.570 E0.01609
G1 X156.430 Y75.611 E0.64081
G1 X156.430 Y75.077 E0.01609
G1 X141.923 Y60.570 E0.61806
G1 X142.457 Y60.570 E0.01609
G1 X156.430 Y74.543 E0.59531
G1 X156.430 Y74.009 E0.01609
G1 X142.991 Y60.570 E0.57255
G1 X143.525 Y60.570 E0.01609
G1 X156.430 Y73.475 E0.54980
G1 X156.430 Y72.941 E0.01609
G1 X144.059 Y60.570 E0.52705
G1 X144.593 Y60.570 E0.01609
G1 X156.430 Y72.407 E0.50430
G1 X156.430 Y71.873 E0.01609
G1 X145.127 Y60.570 E0.48154
G1 X145.661 Y60.570 E0.01609
G1 X156.430 Y71.339 E0.45879
G1 X156.430 Y70.805 E0.01609
G1 X146.195 Y60.570 E0.43604
G1 X146.729 Y60.570 E0.01609
G1 X156.430 Y70.271 E0.41329
G1 X156.430 Y69.737 E0.01609
G1 X147.070 Y60.376 E0.39878
G1 X147.070 Y59.842 E0.01609
G1 X156.430 Y69.203 E0.39878
G1 X156.430 Y68.669 E0.01609
G1 X147.070 Y59.308 E0.39878
G1 X147.070 Y58.774 E0.01609
G1 X156.430 Y68.134 E0.39878
G1 X156.430 Y67.600 E0.01609
G1 X147.070 Y58.240 E0.39878
G1 X147.070 Y57.706 E0.01609
G1 X156.430 Y67.066 E0.39878
G1 X156.430 Y66.532 E0.01609
G1 X147.268 Y57.370 E0.39035
G1 X147.802 Y57.370 E0.01609
G1 X156.430 Y65.998 E0.36760
G1 X156.430 Y65.464 E0.01609
G1 X148.336 Y57.370 E0.34485
G1 X148.870 Y57.370 E0.01609
G1 X156.430 Y64.930 E0.32210
G1 X156.430 Y64.396 E0.01609
G1 X149.404 Y57.370 E0.29935
G1 X149.938 Y57.370 E0.01609
G1 X156.430 Y63.862 E0.27659
G1 X156.430 Y63.328 E0.01609
G1 X150.472 Y57.370 E0.25384
G1 X151.006 Y57.370 E0.01609
G1 X156.430 Y62.794 E0.23109
G1 X156.430 Y62.260 E0.01609
G1 X151.540 Y57.370 E0.20834
G1 X152.074 Y57.370 E0.01609
G1 X156.430 Y61.726 E0.18558
G1 X156.430 Y61.192 E0.01609
G1 X152.608 Y57.370 E0.16283
G1 X153.142 Y57.370 E0.01609
G1 X156.430 Y60.658 E0.14008
G1 X156.430 Y60.124 E0.01609
G1 X153.676 Y57.370 E0.11733
G1 X154.210 Y57.370 E0.01609
G1 X156.430 Y59.590 E0.09458
G1 X156.430 Y59.056 E0.01609
G1 X154.744 Y57.370 E0.07182
G1 X155.278 Y57.370 E0.01609
G1 X156.430 Y58.522 E0.04907
G1 X156.430 Y57.988 E0.01609
G1 X155.812 Y57.370 E0.02632
G1 X156.346 Y57.370 E0.01609
G1 X156.600 Y57.623 E0.01080
G1 F5760
G1 X156.346 Y57.370 E-0.12413
G1 F5760
G1 X155.812 Y57.370 E-0.18497
G1 F5760
G1 X156.430 Y57.988 E-0.30260
G1 F5760
G1 X156.430 Y58.416 E-0.14830
G1 E-0.04000 F2100.00000
G1 X182.100 Y58.023 F7200.000
G1 E0.80000 F2100.00000
G1 F1680
G1 X181.446 Y57.370 E0.02784
G1 X180.912 Y57.370 E0.01609
G1 X181.930 Y58.388 E0.04336
G1 X181.930 Y58.922 E0.01609
G1 X180.378 Y57.370 E0.06611
G1 X179.844 Y57.370 E0.01609
G1 X181.930 Y59.456 E0.08886
G1 X181.930 Y59.990 E0.01609
G1 X179.310 Y57.370 E0.11162
G1 X178.776 Y57.370 E0.01609
G1 X201.630 Y80.224 E0.97366
G1 X201.630 Y79.690 E0.01609
G1 X199.010 Y77.070 E0.11162
G1 X198.630 Y77.070 E0.01145
G1 X198.630 Y76.690 E0.01145
G1 X182.510 Y60.570 E0.68676
G1 X183.044 Y60.570 E0.01609
G1 X198.630 Y76.156 E0.66401
G1 X198.630 Y75.622 E0.01609
G1 X183.578 Y60.570 E0.64126
G1 X184.112 Y60.570 E0.01609
G1 X198.630 Y75.088 E0.61851
G1 X198.630 Y74.554 E0.01609
G1 X184.646 Y60.570 E0.59575
G1 X185.180 Y60.570 E0.01609
G1 X198.630 Y74.020 E0.57300
G1 X198.630 Y73.485 E0.01609
G1 X185.715 Y60.570 E0.55025
G1 X186.249 Y60.570 E0.01609
G1 X198.630 Y72.951 E0.52750
G1 X198.630 Y72.417 E0.01609
G1 X186.783 Y60.570 E0.50475
G1 X187.317 Y60.570 E0.01609
