; generated by Slic3r 1.36.2-prusa3d on 2017-09-08 at 08:11:11

; 

; external perimeters extrusion width = 0.45mm
; perimeters extrusion width = 0.45mm
; infill extrusion width = 0.45mm
; solid infill extrusion width = 0.45mm
; top infill extrusion width = 0.40mm
; first layer extrusion width = 0.42mm

M107
M115 U3.0.12 ; tell printer latest fw version
M83  ; extruder relative mode
M104 S230 ; set extruder temp
M140 S85 ; set bed temp
M190 S85 ; wait for bed temp
M109 S230 ; wait for extruder temp
G28 W ; home all without mesh bed level
G80 ; mesh bed leveling
G1 Y-3.0 F1000.0 ; go outside pritn area
G1 X60.0 E9.0  F1000.0 ; intro line
G1 X100.0 E12.5  F1000.0 ; intro line
; Filament gcode

G21 ; set units to millimeters
G90 ; use absolute coordinates
M83 ; use relative distances for extrusion
G1 E-0.80000 F2100.00000
G1 Z0.200 F7200.000
G1 X96.362 Y62.097 F7200.000
G1 E0.80000 F2100.00000
M204 S1000
G1 F2100
G1 X96.808 Y61.465 E0.02327
G1 X97.517 Y60.765 E0.02995
G1 X97.986 Y60.449 E0.01703
G1 X102.227 Y58.902 E0.13579
G1 X102.845 Y58.778 E0.01896
G1 X147.004 Y58.773 E1.32828
G1 X147.770 Y58.902 E0.02338
G1 X152.194 Y60.552 E0.14202
G1 X152.600 Y60.873 E0.01555
G1 X153.480 Y61.819 E0.03887
G1 X153.768 Y62.422 E0.02010
G1 X153.877 Y63.085 E0.02021
G1 X153.873 Y133.354 E2.11370
G1 X153.778 Y133.901 E0.01669
G1 X148.938 Y149.889 E0.50246
G1 X148.580 Y150.425 E0.01942
G1 X148.087 Y150.848 E0.01953
G1 X147.498 Y151.122 E0.01953
G1 X146.857 Y151.226 E0.01953
G1 X103.189 Y151.227 E1.31354
G1 X102.660 Y151.165 E0.01601
G1 X102.162 Y150.988 E0.01589
G1 X101.420 Y150.425 E0.02800
G1 X100.952 Y149.621 E0.02800
G1 X96.221 Y133.898 E0.49388
G1 X96.128 Y133.374 E0.01601
G1 X96.123 Y63.127 E2.11304
G1 X96.184 Y62.598 E0.01601
G1 X96.342 Y62.153 E0.01420
G1 F5760
G1 X96.808 Y61.465 E-0.28799
G1 F5760
G1 X97.517 Y60.765 E-0.34484
G1 F5760
G1 X97.821 Y60.560 E-0.12718
G1 E-0.04000 F2100.00000
G1 X105.213 Y142.062 F7200.000
G1 E0.80000 F2100.00000
G1 F840
G1 X114.787 Y142.062 E0.28799
G1 X114.787 Y146.437 E0.13157
G1 X105.213 Y146.437 E0.28799
G1 X105.213 Y142.122 E0.12977
G1 X105.590 Y142.440 F7200.000
G1 F840
G1 X114.410 Y142.440 E0.26530
G1 X114.410 Y146.060 E0.10889
G1 X105.590 Y146.060 E0.26530
G1 X105.590 Y142.500 E0.10708
G1 X105.437 Y142.070 F7200.000
G1 F5760
G1 X107.784 Y142.485 E-0.76000
G1 E-0.04000 F2100.00000
G1 X116.413 Y65.663 F7200.000
G1 E0.80000 F2100.00000
G1 F1680
G1 X116.413 Y67.846 E0.06566
G1 X120.609 Y69.357 E0.13413
G1 X120.913 Y69.661 E0.01294
G1 X120.913 Y70.146 E0.01459
G1 X120.631 Y70.428 E0.01200
G1 X116.413 Y71.946 E0.13484
G1 X116.413 Y74.129 E0.06566
G1 X120.609 Y75.640 E0.13413
G1 X120.913 Y75.944 E0.01294
G1 X120.913 Y76.429 E0.01459
G1 X120.631 Y76.711 E0.01200
G1 X116.413 Y78.230 E0.13484
G1 X116.413 Y80.413 E0.06566
G1 X120.609 Y81.923 E0.13413
G1 X120.913 Y82.227 E0.01294
G1 X120.913 Y82.712 E0.01459
G1 X120.631 Y82.994 E0.01200
G1 X116.413 Y84.513 E0.13484
G1 X116.413 Y86.696 E0.06566
G1 X120.609 Y88.206 E0.13413
G1 X120.913 Y88.510 E0.01294
G1 X120.913 Y88.996 E0.01459
G1 X120.631 Y89.278 E0.01200
G1 X116.413 Y90.796 E0.13484
G1 X116.413 Y92.979 E0.06566
G1 X120.609 Y94.489 E0.13413
G1 X120.913 Y94.794 E0.01295
G1 X120.913 Y95.279 E0.01459
G1 X120.631 Y95.561 E0.01200
G1 X116.413 Y97.079 E0.13484
G1 X116.413 Y99.262 E0.06566
G1 X120.609 Y100.773 E0.13413
G1 X120.913 Y101.077 E0.01294
G1 X120.913 Y101.562 E0.01459
G1 X120.631 Y101.844 E0.01200
G1 X116.413 Y103.362 E0.13484
G1 X116.413 Y105.545 E0.06566
G1 X120.609 Y107.056 E0.13413
G1 X120.913 Y107.360 E0.01294
G1 X120.913 Y107.845 E0.01459
G1 X120.631 Y108.127 E0.01200
G1 X116.413 Y109.646 E0.13484
G1 X116.413 Y111.829 E0.06566
G1 X120.609 Y113.339 E0.13413
G1 X120.913 Y113.643 E0.01294
G1 X120.913 Y114.128 E0.01459
G1 X120.631 Y114.410 E0.01200
G1 X116.413 Y115.929 E0.13484
G1 X116.413 Y118.112 E0.06566
G1 X120.609 Y119.622 E0.13413
G1 X120.913 Y119.926 E0.01294
G1 X120.913 Y120.412 E0.01459
G1 X120.631 Y120.694 E0.01200
G1 X116.413 Y122.212 E0.13484
G1 X116.413 Y124.395 E0.06566
G1 X120.609 Y125.905 E0.13413
G1 X120.913 Y126.210 E0.01294
G1 X120.913 Y126.695 E0.01459
G1 X120.631 Y126.977 E0.01200
G1 X116.413 Y128.495 E0.13484
G1 X116.413 Y130.678 E0.06566
G1 X120.609 Y132.188 E0.13413
G1 X120.913 Y132.493 E0.01295
G1 X120.913 Y132.978 E0.01459
G1 X120.631 Y133.260 E0.01200
G1 X116.413 Y134.778 E0.13484
G1 X116.413 Y135.962 E0.03559
G1 X116.213 Y135.962 E0.00602
G1 X116.213 Y148.262 E0.37001
G1 X103.787 Y148.262 E0.37377
G1 X103.787 Y135.962 E0.37001
G1 X103.587 Y135.962 E0.00602
G1 X103.587 Y134.778 E0.03559
G1 X99.369 Y133.260 E0.13484
G1 X99.087 Y132.978 E0.01200
G1 X99.087 Y132.493 E0.01459
G1 X99.391 Y132.188 E0.01295
G1 X103.587 Y130.678 E0.13413
G1 X103.587 Y128.495 E0.06566
G1 X99.369 Y126.977 E0.13484
G1 X99.087 Y126.695 E0.01200
G1 X99.087 Y126.210 E0.01459
G1 X99.391 Y125.905 E0.01294
G1 X103.587 Y124.395 E0.13413
G1 X103.587 Y122.212 E0.06566
G1 X99.369 Y120.694 E0.13484
G1 X99.087 Y120.412 E0.01200
G1 X99.087 Y119.926 E0.01459
G1 X99.391 Y119.622 E0.01294
G1 X103.587 Y118.112 E0.13413
G1 X103.587 Y115.929 E0.06566
G1 X99.369 Y114.410 E0.13484
G1 X99.087 Y114.128 E0.01200
G1 X99.087 Y113.643 E0.01459
G1 X99.391 Y113.339 E0.01294
G1 X103.587 Y111.829 E0.13413
G1 X103.587 Y109.646 E0.06566
G1 X99.369 Y108.127 E0.13484
G1 X99.087 Y107.845 E0.01200
G1 X99.087 Y107.360 E0.01459
G1 X99.391 Y107.056 E0.01294
G1 X103.587 Y105.545 E0.13413
G1 X103.587 Y103.362 E0.06566
G1 X99.369 Y101.844 E0.13484
G1 X99.087 Y101.562 E0.01200
G1 X99.087 Y101.077 E0.01459
G1 X99.391 Y100.773 E0.01294
G1 X103.587 Y99.262 E0.13413
G1 X103.587 Y97.079 E0.06566
G1 X99.369 Y95.561 E0.13484
G1 X99.087 Y95.279 E0.01200
G1 X99.087 Y94.794 E0.01459
G1 X99.391 Y94.489 E0.01294
G1 X103.587 Y92.979 E0.13413
G1 X103.587 Y90.796 E0.06566
G1 X99.369 Y89.278 E0.13484
G1 X99.087 Y88.996 E0.01200
G1 X99.087 Y88.510 E0.01459
G1 X99.391 Y88.206 E0.01294
G1 X103.587 Y86.696 E0.13413
G1 X103.587 Y84.513 E0.06566
G1 X99.369 Y82.994 E0.13484
G1 X99.087 Y82.712 E0.01200
G1 X99.087 Y82.227 E0.01459
G1 X99.391 Y81.923 E0.01294
G1 X103.587 Y80.413 E0.13413
G1 X103.587 Y78.230 E0.06566
G1 X99.369 Y76.711 E0.13484
G1 X99.087 Y76.429 E0.01200
G1 X99.087 Y75.944 E0.01459
G1 X99.391 Y75.640 E0.01294
G1 X103.587 Y74.129 E0.13413
G1 X103.587 Y71.946 E0.06566
G1 X99.369 Y70.428 E0.13484
G1 X99.087 Y70.146 E0.01200
G1 X99.087 Y69.661 E0.01459
G1 X99.391 Y69.357 E0.01294
G1 X103.587 Y67.846 E0.13413
G1 X103.587 Y65.663 E0.06566
G1 X99.369 Y64.145 E0.13484
G1 X99.087 Y63.863 E0.01200
G1 X99.087 Y63.378 E0.01459
G1 X99.391 Y63.073 E0.01294
G1 X103.102 Y61.738 E0.11864
G1 X116.898 Y61.738 E0.41495
G1 X120.609 Y63.073 E0.11864
G1 X120.913 Y63.378 E0.01294
G1 X120.913 Y63.863 E0.01459
G1 X120.631 Y64.145 E0.01200
G1 X116.469 Y65.643 E0.13304
G1 X116.790 Y65.928 F7200.000
G1 F1260
G1 X116.790 Y67.581 E0.04972
G1 X120.816 Y69.030 E0.12870
G1 X121.290 Y69.505 E0.02018
G1 X121.290 Y70.302 E0.02399
G1 X120.838 Y70.754 E0.01923
G1 X116.790 Y72.211 E0.12941
G1 X116.790 Y73.864 E0.04972
G1 X120.816 Y75.314 E0.12870
G1 X121.290 Y75.788 E0.02018
G1 X121.290 Y76.585 E0.02399
G1 X120.838 Y77.038 E0.01923
G1 X116.790 Y78.495 E0.12941
G1 X116.790 Y80.148 E0.04972
G1 X120.816 Y81.597 E0.12870
G1 X121.290 Y82.071 E0.02018
G1 X121.290 Y82.869 E0.02399
G1 X120.838 Y83.321 E0.01923
G1 X116.790 Y84.778 E0.12941
G1 X116.790 Y86.431 E0.04972
G1 X120.816 Y87.880 E0.12870
G1 X121.290 Y88.354 E0.02018
G1 X121.290 Y89.152 E0.02399
G1 X120.838 Y89.604 E0.01923
G1 X116.790 Y91.061 E0.12941
G1 X116.790 Y92.714 E0.04972
G1 X120.816 Y94.163 E0.12870
G1 X121.290 Y94.637 E0.02018
G1 X121.290 Y95.435 E0.02399
G1 X120.838 Y95.887 E0.01923
G1 X116.790 Y97.344 E0.12941
G1 X116.790 Y98.997 E0.04972
G1 X120.816 Y100.446 E0.12870
G1 X121.290 Y100.921 E0.02018
G1 X121.290 Y101.718 E0.02399
G1 X120.838 Y102.170 E0.01923
G1 X116.790 Y103.627 E0.12941
G1 X116.790 Y105.280 E0.04972
G1 X120.816 Y106.729 E0.12870
G1 X121.290 Y107.204 E0.02018
G1 X121.290 Y108.001 E0.02399
G1 X120.838 Y108.453 E0.01923
G1 X116.790 Y109.911 E0.12941
G1 X116.790 Y111.564 E0.04972
G1 X120.816 Y113.013 E0.12870
G1 X121.290 Y113.487 E0.02018
G1 X121.290 Y114.285 E0.02399
G1 X120.838 Y114.737 E0.01923
G1 X116.790 Y116.194 E0.12941
G1 X116.790 Y117.847 E0.04972
G1 X120.816 Y119.296 E0.12870
G1 X121.290 Y119.770 E0.02018
G1 X121.290 Y120.568 E0.02399
G1 X120.838 Y121.020 E0.01923
G1 X116.790 Y122.477 E0.12941
G1 X116.790 Y124.130 E0.04972
G1 X120.816 Y125.579 E0.12870
G1 X121.290 Y126.053 E0.02018
G1 X121.290 Y126.851 E0.02399
G1 X120.838 Y127.303 E0.01923
G1 X116.790 Y128.760 E0.12941
G1 X116.790 Y130.413 E0.04972
G1 X120.816 Y131.862 E0.12870
G1 X121.290 Y132.337 E0.02018
G1 X121.290 Y133.134 E0.02399
G1 X120.838 Y133.586 E0.01923
G1 X116.790 Y135.043 E0.12941
G1 X116.790 Y136.339 E0.03896
G1 X116.590 Y136.339 E0.00602
G1 X116.590 Y148.640 E0.37001
G1 X103.410 Y148.640 E0.39645
G1 X103.410 Y136.339 E0.37001
G1 X103.210 Y136.339 E0.00602
G1 X103.210 Y135.043 E0.03896
G1 X99.162 Y133.586 E0.12941
G1 X98.710 Y133.134 E0.01923
G1 X98.710 Y132.337 E0.02399
G1 X99.184 Y131.862 E0.02018
G1 X103.210 Y130.413 E0.12870
G1 X103.210 Y128.760 E0.04972
G1 X99.162 Y127.303 E0.12941
G1 X98.710 Y126.851 E0.01923
G1 X98.710 Y126.053 E0.02399
G1 X99.184 Y125.579 E0.02018
G1 X103.210 Y124.130 E0.12870
G1 X103.210 Y122.477 E0.04972
G1 X99.162 Y121.020 E0.12941
G1 X98.710 Y120.568 E0.01923
G1 X98.710 Y119.770 E0.02399
G1 X99.184 Y119.296 E0.02018
G1 X103.210 Y117.847 E0.12870
G1 X103.210 Y116.194 E0.04972
G1 X99.162 Y114.737 E0.12941
G1 X98.710 Y114.285 E0.01923
G1 X98.710 Y113.487 E0.02399
G1 X99.184 Y113.013 E0.02018
G1 X103.210 Y111.564 E0.12870
G1 X103.210 Y109.911 E0.04972
G1 X99.162 Y108.453 E0.12941
G1 X98.710 Y108.001 E0.01923
G1 X98.710 Y107.204 E0.02399
G1 X99.184 Y106.729 E0.02018
G1 X103.210 Y105.280 E0.12870
G1 X103.210 Y103.627 E0.04972
G1 X99.162 Y102.170 E0.12941
G1 X98.710 Y101.718 E0.01923
G1 X98.710 Y100.921 E0.02399
G1 X99.184 Y100.446 E0.02018
G1 X103.210 Y98.997 E0.12870
G1 X103.210 Y97.344 E0.04972
G1 X99.162 Y95.887 E0.12941
G1 X98.710 Y95.435 E0.01923
G1 X98.710 Y94.637 E0.02399
G1 X99.184 Y94.163 E0.02018
G1 X103.210 Y92.714 E0.12870
G1 X103.210 Y91.061 E0.04972
G1 X99.162 Y89.604 E0.12941
G1 X98.710 Y89.152 E0.01923
G1 X98.710 Y88.354 E0.02399
G1 X99.184 Y87.880 E0.02018
G1 X103.210 Y86.431 E0.12870
G1 X103.210 Y84.778 E0.04972
G1 X99.162 Y83.321 E0.12941
G1 X98.710 Y82.869 E0.01923
G1 X98.710 Y82.071 E0.02399
G1 X99.184 Y81.597 E0.02018
G1 X103.210 Y80.148 E0.12870
G1 X103.210 Y78.495 E0.04972
G1 X99.162 Y77.038 E0.12941
G1 X98.710 Y76.585 E0.01923
G1 X98.710 Y75.788 E0.02399
G1 X99.184 Y75.314 E0.02018
G1 X103.210 Y73.864 E0.12870
G1 X103.210 Y72.211 E0.04972
G1 X99.162 Y70.754 E0.12941
G1 X98.710 Y70.302 E0.01923
G1 X98.710 Y69.505 E0.02399
G1 X99.184 Y69.030 E0.02018
G1 X103.210 Y67.581 E0.12870
G1 X103.210 Y65.928 E0.04972
G1 X99.162 Y64.471 E0.12941
G1 X98.710 Y64.019 E0.01923
G1 X98.710 Y63.222 E0.02399
G1 X99.184 Y62.747 E0.02018
G1 X103.037 Y61.360 E0.12316
G1 X116.963 Y61.360 E0.41891
G1 X120.816 Y62.747 E0.12316
G1 X121.290 Y63.222 E0.02018
G1 X121.290 Y64.019 E0.02399
G1 X120.838 Y64.471 E0.01923
G1 X116.846 Y65.908 E0.12760
G1 X116.394 Y65.982 F7200.000
G1 F5760
G1 X116.790 Y67.581 E-0.57987
G1 F5760
G1 X117.279 Y67.757 E-0.18013
G1 E-0.04000 F2100.00000
G1 X120.800 Y63.666 F7200.000
G1 E0.80000 F2100.00000
G1 F1680
G1 X120.452 Y63.317 E0.01486
G1 X119.616 Y63.016 E0.02683
G1 X120.487 Y63.888 E0.03723
G1 X120.100 Y64.036 E0.01253
G1 X118.779 Y62.715 E0.05637
G1 X117.943 Y62.414 E0.02683
G1 X119.706 Y64.177 E0.07528
G1 X119.312 Y64.319 E0.01263
G1 X117.107 Y62.113 E0.09418
G1 X116.848 Y62.020 E0.00830
G1 X116.479 Y62.020 E0.01116
G1 X118.919 Y64.461 E0.10420
G1 X118.525 Y64.602 E0.01263
G1 X115.943 Y62.020 E0.11025
G1 X115.408 Y62.020 E0.01616
G1 X118.132 Y64.744 E0.11630
G1 X117.738 Y64.886 E0.01263
G1 X114.873 Y62.020 E0.12235
G1 X114.338 Y62.020 E0.01616
G1 X117.345 Y65.027 E0.12840
G1 X116.951 Y65.169 E0.01263
G1 X113.803 Y62.020 E0.13445
G1 X113.267 Y62.020 E0.01616
G1 X116.558 Y65.311 E0.14050
G1 X116.164 Y65.452 E0.01263
G1 X112.732 Y62.020 E0.14655
G1 X112.197 Y62.020 E0.01616
G1 X116.130 Y65.954 E0.16795
G1 X116.130 Y66.489 E0.01616
G1 X111.662 Y62.020 E0.19080
G1 X111.127 Y62.020 E0.01616
G1 X116.130 Y67.024 E0.21365
G1 X116.130 Y67.559 E0.01616
G1 X110.591 Y62.020 E0.23651
G1 X110.056 Y62.020 E0.01616
G1 X118.816 Y70.781 E0.37407
G1 X119.210 Y70.639 E0.01263
G1 X116.889 Y68.318 E0.09910
G1 X117.726 Y68.619 E0.02683
G1 X119.604 Y70.497 E0.08019
G1 X119.997 Y70.356 E0.01263
G1 X118.562 Y68.920 E0.06129
G1 X119.398 Y69.221 E0.02683
G1 X120.391 Y70.214 E0.04239
G1 X120.476 Y70.183 E0.00272
G1 X120.630 Y70.029 E0.00660
G1 X120.630 Y69.918 E0.00334
G1 X119.952 Y69.241 E0.02894
G1 F5760
G1 X120.630 Y69.918 E-0.33198
G1 F5760
G1 X120.630 Y70.029 E-0.03830
G1 F5760
G1 X120.476 Y70.183 E-0.07571
G1 F5760
G1 X120.391 Y70.214 E-0.03126
G1 F5760
G1 X119.813 Y69.637 E-0.28275
G1 E-0.04000 F2100.00000
G1 X118.556 Y71.055 F7200.000
G1 E0.80000 F2100.00000
G1 F1680
G1 X109.521 Y62.020 E0.38578
G1 X108.986 Y62.020 E0.01616
G1 X118.029 Y71.064 E0.38617
G1 X117.636 Y71.206 E0.01263
G1 X108.451 Y62.020 E0.39222
G1 X107.915 Y62.020 E0.01616
G1 X117.242 Y71.347 E0.39826
G1 X116.849 Y71.489 E0.01263
G1 X107.380 Y62.020 E0.40431
G1 X106.845 Y62.020 E0.01616
G1 X116.455 Y71.631 E0.41036
G1 X116.130 Y71.748 E0.01043
G1 X116.130 Y71.841 E0.00281
G1 X106.310 Y62.020 E0.41933
G1 X105.774 Y62.020 E0.01616
G1 X116.130 Y72.376 E0.44219
G1 X116.130 Y72.911 E0.01616
G1 X105.239 Y62.020 E0.46504
G1 X104.704 Y62.020 E0.01616
G1 X116.130 Y73.446 E0.48789
G1 X116.130 Y73.982 E0.01616
G1 X104.169 Y62.020 E0.51075
G1 X103.634 Y62.020 E0.01616
G1 X118.714 Y77.101 E0.64393
G1 X119.108 Y76.959 E0.01263
G1 X116.672 Y74.523 E0.10401
G1 X117.508 Y74.824 E0.02683
G1 X119.501 Y76.817 E0.08511
G1 X119.895 Y76.676 E0.01263
G1 X118.344 Y75.125 E0.06621
G1 X119.180 Y75.426 E0.02683
G1 X120.288 Y76.534 E0.04731
G1 X120.476 Y76.467 E0.00601
G1 X120.616 Y76.326 E0.00599
G1 X119.735 Y75.445 E0.03762
G1 F5760
G1 X120.616 Y76.326 E-0.43153
G1 F5760
G1 X120.476 Y76.467 E-0.06869
G1 F5760
G1 X120.288 Y76.534 E-0.06895
G1 F5760
G1 X119.899 Y76.144 E-0.19083
G1 E-0.04000 F2100.00000
G1 X118.453 Y77.375 F7200.000
G1 E0.80000 F2100.00000
G1 F1680
G1 X103.113 Y62.034 E0.65504
G1 X102.719 Y62.176 E0.01263
G1 X117.927 Y77.384 E0.64938
G1 X117.533 Y77.526 E0.01263
G1 X102.326 Y62.318 E0.64938
G1 X101.932 Y62.459 E0.01263
G1 X117.140 Y77.667 E0.64938
G1 X116.746 Y77.809 E0.01263
G1 X101.538 Y62.601 E0.64938
G1 X101.145 Y62.743 E0.01263
G1 X116.353 Y77.951 E0.64938
G1 X116.130 Y78.031 E0.00715
G1 X116.130 Y78.263 E0.00701
G1 X103.870 Y66.003 E0.52351
G1 X103.870 Y66.538 E0.01616
G1 X116.130 Y78.798 E0.52351
G1 X116.130 Y79.334 E0.01616
G1 X103.870 Y67.073 E0.52351
G1 X103.870 Y67.609 E0.01616
G1 X116.300 Y80.038 E0.53076
G1 F5760
G1 X114.748 Y78.487 E-0.76000
G1 E-0.04000 F2100.00000
G1 X120.666 Y82.799 F7200.000
G1 E0.80000 F2100.00000
G1 F1680
G1 X119.799 Y81.932 E0.03703
G1 X118.963 Y81.631 E0.02683
G1 X120.186 Y82.854 E0.05223
G1 X119.792 Y82.996 E0.01263
G1 X118.127 Y81.330 E0.07113
G1 X117.290 Y81.029 E0.02683
G1 X119.399 Y83.137 E0.09003
G1 X119.005 Y83.279 E0.01263
G1 X103.797 Y68.071 E0.64938
G1 X103.404 Y68.213 E0.01263
G1 X118.612 Y83.421 E0.64938
G1 X118.218 Y83.562 E0.01263
G1 X103.010 Y68.354 E0.64938
G1 X102.617 Y68.496 E0.01263
G1 X117.825 Y83.704 E0.64938
G1 X117.431 Y83.846 E0.01263
G1 X102.223 Y68.638 E0.64938
G1 X101.830 Y68.779 E0.01263
G1 X117.038 Y83.987 E0.64938
G1 X116.644 Y84.129 E0.01263
G1 X101.436 Y68.921 E0.64938
G1 X101.042 Y69.063 E0.01263
G1 X116.250 Y84.271 E0.64938
G1 X116.130 Y84.314 E0.00386
G1 X116.130 Y84.686 E0.01122
G1 X103.870 Y72.425 E0.52351
G1 X103.870 Y72.961 E0.01616
G1 X116.130 Y85.221 E0.52351
G1 X116.130 Y85.756 E0.01616
G1 X103.870 Y73.496 E0.52351
G1 X103.870 Y74.031 E0.01616
G1 X116.300 Y86.461 E0.53076
