; generated by Slic3r 1.36.2-prusa3d on 2017-09-08 at 08:10:47

; 

; external perimeters extrusion width = 0.45mm
; perimeters extrusion width = 0.45mm
; infill extrusion width = 0.45mm
; solid infill extrusion width = 0.45mm
; top infill extrusion width = 0.40mm
; first layer extrusion width = 0.42mm

M107
M115 U3.0.12 ; tell printer latest fw version
M83  ; extruder relative mode
M104 S230 ; set extruder temp
M140 S85 ; set bed temp
M190 S85 ; wait for bed temp
M109 S230 ; wait for extruder temp
G28 W ; home all without mesh bed level
G80 ; mesh bed leveling
G1 Y-3.0 F1000.0 ; go outside pritn area
G1 X60.0 E9.0  F1000.0 ; intro line
G1 X100.0 E12.5  F1000.0 ; intro line
; Filament gcode

G21 ; set units to millimeters
G90 ; use absolute coordinates
M83 ; use relative distances for extrusion
G1 E-0.80000 F2100.00000
G1 Z0.200 F7200.000
G1 X46.548 Y65.822 F7200.000
G1 E0.80000 F2100.00000
M204 S1000
G1 F2100
G1 X47.495 Y65.623 E0.02913
G1 X202.504 Y65.623 E4.66264
G1 X203.402 Y65.801 E0.02755
G1 X204.170 Y66.308 E0.02767
G1 X204.687 Y67.069 E0.02767
G1 X204.877 Y67.968 E0.02767
G1 X204.877 Y133.471 E1.97030
G1 X204.768 Y134.134 E0.02021
G1 X204.476 Y134.743 E0.02033
G1 X204.027 Y135.243 E0.02021
G1 X203.452 Y135.599 E0.02033
G1 X168.092 Y144.371 E1.09589
G1 X82.060 Y144.377 E2.58783
G1 X81.509 Y144.308 E0.01669
G1 X46.876 Y135.715 E1.07335
G1 X46.385 Y135.520 E0.01589
G1 X45.946 Y135.220 E0.01601
G1 X45.587 Y134.832 E0.01589
G1 X45.322 Y134.375 E0.01589
G1 X45.123 Y133.427 E0.02913
G1 X45.123 Y67.958 E1.96930
G1 X45.231 Y67.291 E0.02033
G1 X45.522 Y66.681 E0.02033
G1 X45.973 Y66.178 E0.02033
G1 X46.497 Y65.854 E0.01852
G1 F5760
G1 X47.495 Y65.623 E-0.35498
G1 F5760
G1 X48.664 Y65.623 E-0.40502
G1 E-0.04000 F2100.00000
G1 X48.087 Y68.587 F7200.000
G1 E0.80000 F2100.00000
G1 F1680
G1 X53.213 Y68.587 E0.15418
G1 X53.213 Y71.787 E0.09626
G1 X67.787 Y71.787 E0.43839
G1 X67.787 Y68.587 E0.09626
G1 X103.213 Y68.587 E1.06560
G1 X103.213 Y71.787 E0.09626
G1 X117.787 Y71.787 E0.43839
G1 X117.787 Y68.587 E0.09626
G1 X122.913 Y68.587 E0.15418
G1 X122.913 Y73.713 E0.15418
G1 X119.913 Y73.713 E0.09024
G1 X119.913 Y88.287 E0.43839
G1 X122.913 Y88.287 E0.09024
G1 X122.913 Y93.213 E0.14817
G1 X119.913 Y93.213 E0.09024
G1 X119.913 Y107.787 E0.43839
G1 X122.913 Y107.787 E0.09024
G1 X122.913 Y132.407 E0.74055
G1 X122.207 Y132.023 E0.02416
G1 X120.989 Y131.442 E0.04061
G1 X119.741 Y130.926 E0.04061
G1 X118.469 Y130.475 E0.04061
G1 X117.174 Y130.091 E0.04061
G1 X115.861 Y129.776 E0.04061
G1 X114.534 Y129.530 E0.04061
G1 X113.196 Y129.354 E0.04061
G1 X111.850 Y129.248 E0.04061
G1 X110.500 Y129.213 E0.04061
G1 X109.150 Y129.248 E0.04061
G1 X107.804 Y129.354 E0.04061
G1 X106.466 Y129.530 E0.04061
G1 X105.139 Y129.776 E0.04061
G1 X103.826 Y130.091 E0.04061
G1 X102.531 Y130.475 E0.04061
G1 X101.259 Y130.926 E0.04061
G1 X100.011 Y131.442 E0.04061
G1 X98.793 Y132.023 E0.04061
G1 X97.606 Y132.668 E0.04061
G1 X96.455 Y133.373 E0.04061
G1 X95.343 Y134.138 E0.04061
G1 X94.272 Y134.960 E0.04061
G1 X93.245 Y135.836 E0.04061
G1 X92.266 Y136.766 E0.04061
G1 X91.336 Y137.745 E0.04061
G1 X90.460 Y138.772 E0.04061
G1 X89.638 Y139.843 E0.04061
G1 X88.873 Y140.955 E0.04061
G1 X88.593 Y141.413 E0.01615
G1 X82.407 Y141.413 E0.18604
G1 X82.127 Y140.955 E0.01615
G1 X81.362 Y139.843 E0.04061
G1 X80.540 Y138.772 E0.04061
G1 X79.664 Y137.745 E0.04061
G1 X78.734 Y136.766 E0.04061
G1 X77.755 Y135.836 E0.04061
G1 X76.728 Y134.960 E0.04061
G1 X75.657 Y134.138 E0.04061
G1 X74.545 Y133.373 E0.04061
G1 X73.394 Y132.668 E0.04061
G1 X72.207 Y132.023 E0.04061
G1 X70.989 Y131.442 E0.04061
G1 X69.741 Y130.926 E0.04061
G1 X68.469 Y130.475 E0.04061
G1 X67.174 Y130.091 E0.04061
G1 X65.861 Y129.776 E0.04061
G1 X64.534 Y129.530 E0.04061
G1 X63.195 Y129.354 E0.04062
G1 X61.805 Y129.247 E0.04193
G1 X60.500 Y129.213 E0.03927
G1 X59.150 Y129.248 E0.04061
G1 X57.804 Y129.354 E0.04061
G1 X56.466 Y129.530 E0.04061
G1 X55.139 Y129.776 E0.04061
G1 X53.826 Y130.091 E0.04061
G1 X52.531 Y130.475 E0.04061
G1 X51.259 Y130.926 E0.04061
G1 X50.011 Y131.442 E0.04061
G1 X48.793 Y132.023 E0.04061
G1 X48.087 Y132.407 E0.02416
G1 X48.087 Y107.787 E0.74055
G1 X51.087 Y107.787 E0.09024
G1 X51.087 Y93.213 E0.43839
G1 X48.087 Y93.213 E0.09024
G1 X48.087 Y88.287 E0.14817
G1 X51.087 Y88.287 E0.09024
G1 X51.087 Y73.713 E0.43839
G1 X48.087 Y73.713 E0.09024
G1 X48.087 Y68.647 E0.15238
G1 F5760
G1 X50.281 Y68.621 E-0.76000
G1 E-0.04000 F2100.00000
G1 X53.590 Y71.410 F7200.000
G1 E0.80000 F2100.00000
G1 F1260
G1 X67.410 Y71.410 E0.41570
G1 X67.410 Y68.210 E0.09626
G1 X103.590 Y68.210 E1.08829
G1 X103.590 Y71.410 E0.09626
G1 X117.410 Y71.410 E0.41570
G1 X117.410 Y68.210 E0.09626
G1 X123.290 Y68.210 E0.17687
G1 X123.290 Y74.090 E0.17687
G1 X120.290 Y74.090 E0.09024
G1 X120.290 Y87.910 E0.41570
G1 X123.290 Y87.910 E0.09024
G1 X123.290 Y93.590 E0.17085
G1 X120.290 Y93.590 E0.09024
G1 X120.290 Y107.410 E0.41570
G1 X123.290 Y107.410 E0.09024
G1 X123.290 Y133.046 E0.77114
G1 X122.036 Y132.359 E0.04301
G1 X120.835 Y131.787 E0.04002
G1 X119.606 Y131.278 E0.04002
G1 X118.352 Y130.834 E0.04002
G1 X117.077 Y130.456 E0.04002
G1 X115.783 Y130.145 E0.04002
G1 X114.475 Y129.903 E0.04002
G1 X113.156 Y129.729 E0.04002
G1 X111.830 Y129.625 E0.04002
G1 X110.500 Y129.590 E0.04002
G1 X109.170 Y129.625 E0.04002
G1 X107.844 Y129.729 E0.04002
G1 X106.525 Y129.903 E0.04002
G1 X105.217 Y130.145 E0.04002
G1 X103.923 Y130.456 E0.04002
G1 X102.648 Y130.834 E0.04002
G1 X101.394 Y131.278 E0.04002
G1 X100.165 Y131.787 E0.04002
G1 X98.964 Y132.359 E0.04002
G1 X97.795 Y132.994 E0.04002
G1 X96.661 Y133.689 E0.04002
G1 X95.564 Y134.443 E0.04002
G1 X94.509 Y135.253 E0.04002
G1 X93.497 Y136.117 E0.04002
G1 X92.532 Y137.032 E0.04002
G1 X91.617 Y137.997 E0.04002
G1 X90.753 Y139.009 E0.04002
G1 X89.943 Y140.064 E0.04002
G1 X89.189 Y141.161 E0.04002
G1 X88.804 Y141.790 E0.02220
G1 X82.196 Y141.790 E0.19875
G1 X81.811 Y141.161 E0.02220
G1 X81.057 Y140.064 E0.04002
G1 X80.247 Y139.009 E0.04002
G1 X79.383 Y137.997 E0.04002
G1 X78.468 Y137.032 E0.04002
G1 X77.503 Y136.117 E0.04002
G1 X76.491 Y135.253 E0.04002
G1 X75.436 Y134.443 E0.04002
G1 X74.339 Y133.689 E0.04002
G1 X73.205 Y132.994 E0.04002
G1 X72.036 Y132.359 E0.04002
G1 X70.835 Y131.787 E0.04002
G1 X69.606 Y131.278 E0.04002
G1 X68.352 Y130.834 E0.04002
G1 X67.077 Y130.456 E0.04002
G1 X65.783 Y130.145 E0.04002
G1 X64.475 Y129.903 E0.04002
G1 X63.156 Y129.729 E0.04002
G1 X61.786 Y129.624 E0.04134
G1 X60.500 Y129.590 E0.03869
G1 X59.170 Y129.625 E0.04002
G1 X57.844 Y129.729 E0.04002
G1 X56.525 Y129.903 E0.04002
G1 X55.217 Y130.145 E0.04002
G1 X53.923 Y130.456 E0.04002
G1 X52.648 Y130.834 E0.04002
G1 X51.394 Y131.278 E0.04002
G1 X50.165 Y131.787 E0.04002
G1 X48.964 Y132.359 E0.04002
G1 X47.710 Y133.046 E0.04301
G1 X47.710 Y107.410 E0.77114
G1 X50.710 Y107.410 E0.09024
G1 X50.710 Y93.590 E0.41570
G1 X47.710 Y93.590 E0.09024
G1 X47.710 Y87.910 E0.17085
G1 X50.710 Y87.910 E0.09024
G1 X50.710 Y74.090 E0.41570
G1 X47.710 Y74.090 E0.09024
G1 X47.710 Y68.210 E0.17687
G1 X53.590 Y68.210 E0.17687
G1 X53.590 Y71.350 E0.09445
G1 X53.730 Y71.785 F7200.000
G1 F5760
G1 X55.784 Y71.360 E-0.76000
G1 E-0.04000 F2100.00000
G1 X53.100 Y69.132 F7200.000
G1 E0.80000 F2100.00000
G1 F1680
G1 X52.838 Y68.870 E0.01114
G1 X52.304 Y68.870 E0.01606
G1 X52.930 Y69.496 E0.02663
G1 X52.930 Y70.029 E0.01606
G1 X51.771 Y68.870 E0.04935
G1 X51.237 Y68.870 E0.01606
G1 X52.930 Y70.563 E0.07206
G1 X52.930 Y71.096 E0.01606
G1 X50.704 Y68.870 E0.09478
G1 X50.170 Y68.870 E0.01606
G1 X52.930 Y71.630 E0.11749
G1 X52.930 Y72.070 E0.01324
G1 X53.370 Y72.070 E0.01324
G1 X110.237 Y128.937 E2.42066
G1 X110.771 Y128.937 E0.01607
G1 X53.904 Y72.070 E2.42067
G1 X54.437 Y72.070 E0.01606
G1 X111.319 Y128.951 E2.42128
G1 X111.867 Y128.966 E0.01650
G1 X54.971 Y72.070 E2.42189
G1 X55.504 Y72.070 E0.01606
G1 X112.446 Y129.011 E2.42383
G1 X113.025 Y129.057 E0.01749
G1 X56.038 Y72.070 E2.42577
G1 X56.572 Y72.070 E0.01606
G1 X113.627 Y129.126 E2.42870
G1 X114.242 Y129.207 E0.01866
G1 X57.105 Y72.070 E2.43214
G1 X57.639 Y72.070 E0.01606
G1 X114.875 Y129.306 E2.43637
G1 X115.530 Y129.427 E0.02005
G1 X58.172 Y72.070 E2.44153
G1 X58.706 Y72.070 E0.01606
G1 X116.204 Y129.568 E2.44751
G1 X116.906 Y129.736 E0.02174
G1 X59.240 Y72.070 E2.45469
G1 X59.773 Y72.070 E0.01606
G1 X117.637 Y129.934 E2.46309
G1 X118.395 Y130.158 E0.02380
G1 X60.307 Y72.070 E2.47265
G1 X60.840 Y72.070 E0.01606
G1 X119.207 Y130.436 E2.48449
G1 X120.053 Y130.748 E0.02713
G1 X61.374 Y72.070 E2.49777
G1 X61.908 Y72.070 E0.01606
G1 X120.963 Y131.126 E2.51383
G1 X121.967 Y131.595 E0.03335
G1 X62.441 Y72.070 E2.53383
G1 X62.975 Y72.070 E0.01606
G1 X122.630 Y131.725 E2.53935
G1 X122.630 Y131.191 E0.01606
G1 X63.509 Y72.070 E2.51664
G1 X64.042 Y72.070 E0.01606
G1 X122.630 Y130.658 E2.49392
G1 X122.630 Y130.124 E0.01606
G1 X64.576 Y72.070 E2.47121
G1 X65.109 Y72.070 E0.01606
G1 X122.630 Y129.591 E2.44850
G1 X122.630 Y129.057 E0.01606
G1 X65.643 Y72.070 E2.42578
G1 X66.177 Y72.070 E0.01606
G1 X122.630 Y128.523 E2.40307
G1 X122.630 Y127.990 E0.01606
G1 X66.710 Y72.070 E2.38035
G1 X67.244 Y72.070 E0.01606
G1 X122.630 Y127.456 E2.35764
G1 X122.630 Y126.923 E0.01606
G1 X67.777 Y72.070 E2.33493
G1 X68.070 Y72.070 E0.00880
G1 X68.070 Y71.829 E0.00726
G1 X122.630 Y126.389 E2.32247
G1 X122.630 Y125.855 E0.01606
G1 X68.070 Y71.295 E2.32247
G1 X68.070 Y70.762 E0.01606
G1 X122.630 Y125.322 E2.32247
G1 X122.630 Y124.788 E0.01606
G1 X68.070 Y70.228 E2.32247
G1 X68.070 Y69.694 E0.01606
G1 X122.630 Y124.255 E2.32247
G1 X122.630 Y123.721 E0.01606
G1 X68.070 Y69.161 E2.32247
G1 X68.070 Y68.870 E0.00876
G1 X68.313 Y68.870 E0.00731
G1 X122.630 Y123.187 E2.31214
G1 X122.630 Y122.654 E0.01606
G1 X68.846 Y68.870 E2.28943
G1 X69.380 Y68.870 E0.01606
G1 X122.630 Y122.120 E2.26671
G1 X122.630 Y121.587 E0.01606
G1 X69.913 Y68.870 E2.24400
G1 X70.447 Y68.870 E0.01606
G1 X122.630 Y121.053 E2.22129
G1 X122.630 Y120.519 E0.01606
G1 X70.981 Y68.870 E2.19857
G1 X71.514 Y68.870 E0.01606
G1 X122.630 Y119.986 E2.17586
G1 X122.630 Y119.452 E0.01606
G1 X72.048 Y68.870 E2.15314
G1 X72.581 Y68.870 E0.01606
G1 X122.630 Y118.919 E2.13043
G1 X122.630 Y118.385 E0.01606
G1 X73.115 Y68.870 E2.10772
G1 X73.649 Y68.870 E0.01606
G1 X122.630 Y117.851 E2.08500
G1 X122.630 Y117.318 E0.01606
G1 X74.182 Y68.870 E2.06229
G1 X74.716 Y68.870 E0.01606
G1 X122.630 Y116.784 E2.03957
G1 X122.630 Y116.251 E0.01606
G1 X75.249 Y68.870 E2.01686
G1 X75.783 Y68.870 E0.01606
G1 X122.630 Y115.717 E1.99415
G1 X122.630 Y115.183 E0.01606
G1 X76.317 Y68.870 E1.97143
G1 X76.850 Y68.870 E0.01606
G1 X122.630 Y114.650 E1.94872
G1 X122.630 Y114.116 E0.01606
G1 X77.384 Y68.870 E1.92600
G1 X77.917 Y68.870 E0.01606
G1 X122.630 Y113.583 E1.90329
G1 X122.630 Y113.049 E0.01606
G1 X78.451 Y68.870 E1.88058
G1 X78.985 Y68.870 E0.01606
G1 X122.630 Y112.515 E1.85786
G1 X122.630 Y111.982 E0.01606
G1 X79.518 Y68.870 E1.83515
G1 X80.052 Y68.870 E0.01606
G1 X122.800 Y111.618 E1.81966
G1 F5760
G1 X121.248 Y110.066 E-0.76000
G1 E-0.04000 F2100.00000
G1 X122.284 Y107.900 F7200.000
G1 E0.80000 F2100.00000
G1 F1680
G1 X122.630 Y108.246 E0.01474
G1 X122.630 Y108.780 E0.01606
G1 X121.920 Y108.070 E0.03023
G1 X121.386 Y108.070 E0.01606
G1 X122.630 Y109.314 E0.05295
G1 X122.630 Y109.847 E0.01606
G1 X120.853 Y108.070 E0.07566
G1 X120.319 Y108.070 E0.01606
G1 X122.630 Y110.381 E0.09837
G1 X122.630 Y110.914 E0.01606
G1 X80.586 Y68.870 E1.78972
G1 X81.119 Y68.870 E0.01606
G1 X119.630 Y107.381 E1.63930
G1 X119.630 Y106.847 E0.01606
G1 X81.653 Y68.870 E1.61659
G1 X82.186 Y68.870 E0.01606
G1 X119.630 Y106.314 E1.59388
G1 X119.630 Y105.780 E0.01606
G1 X82.720 Y68.870 E1.57116
G1 X83.254 Y68.870 E0.01606
G1 X119.630 Y105.246 E1.54845
G1 X119.630 Y104.713 E0.01606
G1 X83.787 Y68.870 E1.52573
G1 X84.321 Y68.870 E0.01606
G1 X119.630 Y104.179 E1.50302
G1 X119.630 Y103.646 E0.01606
G1 X84.854 Y68.870 E1.48031
G1 X85.388 Y68.870 E0.01606
G1 X119.630 Y103.112 E1.45759
G1 X119.630 Y102.578 E0.01606
G1 X85.922 Y68.870 E1.43488
G1 X86.455 Y68.870 E0.01606
G1 X119.630 Y102.045 E1.41216
G1 X119.630 Y101.511 E0.01606
G1 X86.989 Y68.870 E1.38945
G1 X87.522 Y68.870 E0.01606
G1 X119.630 Y100.978 E1.36673
G1 X119.630 Y100.444 E0.01606
G1 X88.056 Y68.870 E1.34402
G1 X88.590 Y68.870 E0.01606
G1 X119.630 Y99.910 E1.32131
G1 X119.630 Y99.377 E0.01606
G1 X89.123 Y68.870 E1.29859
G1 X89.657 Y68.870 E0.01606
G1 X119.630 Y98.843 E1.27588
G1 X119.630 Y98.310 E0.01606
G1 X90.190 Y68.870 E1.25316
G1 X90.724 Y68.870 E0.01606
G1 X119.630 Y97.776 E1.23045
G1 X119.630 Y97.242 E0.01606
G1 X91.258 Y68.870 E1.20774
G1 X91.791 Y68.870 E0.01606
G1 X119.630 Y96.709 E1.18502
G1 X119.630 Y96.175 E0.01606
G1 X92.325 Y68.870 E1.16231
G1 X92.858 Y68.870 E0.01606
G1 X119.630 Y95.642 E1.13959
G1 X119.630 Y95.108 E0.01606
G1 X93.392 Y68.870 E1.11688
G1 X93.926 Y68.870 E0.01606
G1 X119.630 Y94.574 E1.09417
G1 X119.630 Y94.041 E0.01606
G1 X94.459 Y68.870 E1.07145
G1 X94.993 Y68.870 E0.01606
G1 X119.630 Y93.507 E1.04874
G1 X119.630 Y92.974 E0.01606
G1 X95.526 Y68.870 E1.02602
G1 X96.060 Y68.870 E0.01606
G1 X120.120 Y92.930 E1.02418
G1 X120.654 Y92.930 E0.01606
G1 X96.594 Y68.870 E1.02418
G1 X97.127 Y68.870 E0.01606
G1 X121.188 Y92.930 E1.02418
G1 X121.721 Y92.930 E0.01606
G1 X97.661 Y68.870 E1.02418
G1 X98.194 Y68.870 E0.01606
G1 X122.255 Y92.930 E1.02418
G1 X122.630 Y92.930 E0.01130
G1 X122.630 Y92.772 E0.00476
G1 X98.728 Y68.870 E1.01744
G1 X99.262 Y68.870 E0.01606
G1 X122.630 Y92.238 E0.99473
G1 X122.630 Y91.705 E0.01606
G1 X99.795 Y68.870 E0.97201
G1 X100.329 Y68.870 E0.01606
G1 X102.930 Y71.471 E0.11073
G1 X102.930 Y70.937 E0.01606
G1 X100.863 Y68.870 E0.08801
G1 X101.396 Y68.870 E0.01606
G1 X102.930 Y70.404 E0.06530
G1 X102.930 Y69.870 E0.01606
G1 X101.930 Y68.870 E0.04258
G1 X102.463 Y68.870 E0.01606
G1 X103.100 Y69.506 E0.02709
G1 F5760
G1 X102.463 Y68.870 E-0.31176
G1 F5760
G1 X101.930 Y68.870 E-0.18482
G1 F5760
G1 X102.468 Y69.408 E-0.26342
G1 E-0.04000 F2100.00000
G1 X122.800 Y69.463 F7200.000
G1 E0.80000 F2100.00000
G1 F1680
G1 X122.207 Y68.870 E0.02525
G1 X121.673 Y68.870 E0.01606
G1 X122.630 Y69.827 E0.04074
G1 X122.630 Y70.360 E0.01606
G1 X121.140 Y68.870 E0.06345
G1 X120.606 Y68.870 E0.01606
G1 X122.630 Y70.894 E0.08617
G1 X122.630 Y71.428 E0.01606
G1 X120.072 Y68.870 E0.10888
G1 X119.539 Y68.870 E0.01606
G1 X122.630 Y71.961 E0.13159
G1 X122.630 Y72.495 E0.01606
G1 X119.005 Y68.870 E0.15431
G1 X118.471 Y68.870 E0.01606
G1 X122.630 Y73.029 E0.17702
G1 X122.630 Y73.430 E0.01209
G1 X122.498 Y73.430 E0.00397
G1 X118.070 Y69.002 E0.18850
G1 X118.070 Y69.535 E0.01606
G1 X121.965 Y73.430 E0.16579
G1 X121.431 Y73.430 E0.01606
G1 X118.070 Y70.069 E0.14307
G1 X118.070 Y70.603 E0.01606
G1 X120.897 Y73.430 E0.12036
G1 X120.364 Y73.430 E0.01606
G1 X118.070 Y71.136 E0.09764
G1 X118.070 Y71.670 E0.01606
G1 X119.830 Y73.430 E0.07493
G1 X119.630 Y73.430 E0.00602
G1 X119.630 Y73.764 E0.01004
G1 X117.936 Y72.070 E0.07210
G1 X117.403 Y72.070 E0.01606
G1 X119.630 Y74.297 E0.09482
G1 X119.630 Y74.831 E0.01606
G1 X116.869 Y72.070 E0.11753
G1 X116.335 Y72.070 E0.01606
G1 X119.630 Y75.365 E0.14025
G1 X119.630 Y75.898 E0.01606
G1 X115.802 Y72.070 E0.16296
G1 X115.268 Y72.070 E0.01606
G1 X119.630 Y76.432 E0.18567
G1 X119.630 Y76.965 E0.01606
G1 X114.735 Y72.070 E0.20839
G1 X114.201 Y72.070 E0.01606
G1 X119.630 Y77.499 E0.23110
G1 X119.630 Y78.033 E0.01606
G1 X113.667 Y72.070 E0.25382
G1 X113.134 Y72.070 E0.01606
G1 X119.630 Y78.566 E0.27653
G1 X119.630 Y79.100 E0.01606
G1 X112.600 Y72.070 E0.29924
G1 X112.067 Y72.070 E0.01606
G1 X119.630 Y79.633 E0.32196
G1 X119.630 Y80.167 E0.01606
G1 X111.533 Y72.070 E0.34467
G1 X110.999 Y72.070 E0.01606
G1 X119.630 Y80.701 E0.36739
G1 X119.630 Y81.234 E0.01606
G1 X110.466 Y72.070 E0.39010
G1 X109.932 Y72.070 E0.01606
G1 X119.630 Y81.768 E0.41281
G1 X119.630 Y82.301 E0.01606
G1 X109.399 Y72.070 E0.43553
G1 X108.865 Y72.070 E0.01606
G1 X119.630 Y82.835 E0.45824
G1 X119.630 Y83.369 E0.01606
G1 X108.331 Y72.070 E0.48096
G1 X107.798 Y72.070 E0.01606
G1 X119.630 Y83.902 E0.50367
G1 X119.630 Y84.436 E0.01606
