; generated by Slic3r 1.36.2-prusa3d on 2017-09-08 at 08:13:34

; 

; external perimeters extrusion width = 0.45mm
; perimeters extrusion width = 0.45mm
; infill extrusion width = 0.45mm
; solid infill extrusion width = 0.45mm
; top infill extrusion width = 0.40mm
; first layer extrusion width = 0.42mm

M107
M115 U3.0.12 ; tell printer latest fw version
M83  ; extruder relative mode
M104 S230 ; set extruder temp
M140 S85 ; set bed temp
M190 S85 ; wait for bed temp
M109 S230 ; wait for extruder temp
G28 W ; home all without mesh bed level
G80 ; mesh bed leveling
G1 Y-3.0 F1000.0 ; go outside pritn area
G1 X60.0 E9.0  F1000.0 ; intro line
G1 X100.0 E12.5  F1000.0 ; intro line
; Filament gcode

G21 ; set units to millimeters
G90 ; use absolute coordinates
M83 ; use relative distances for extrusion
G1 E-0.80000 F2100.00000
G1 Z0.200 F7200.000
G1 X92.344 Y77.746 F7200.000
G1 E0.80000 F2100.00000
M204 S1000
G1 F2100
G1 X93.081 Y77.623 E0.02248
G1 X156.904 Y77.623 E1.91977
G1 X157.392 Y77.674 E0.01475
G1 X157.855 Y77.823 E0.01464
G1 X158.281 Y78.066 E0.01475
G1 X158.649 Y78.390 E0.01475
G1 X161.547 Y81.836 E0.13543
G1 X161.857 Y82.453 E0.02078
G1 X161.976 Y83.138 E0.02089
G1 X161.970 Y126.979 E1.31874
G1 X161.828 Y127.628 E0.01998
G1 X161.510 Y128.215 E0.02010
G1 X158.699 Y131.553 E0.13125
G1 X158.315 Y131.910 E0.01578
G1 X157.656 Y132.254 E0.02236
G1 X156.919 Y132.377 E0.02248
G1 X92.974 Y132.374 E1.92344
G1 X92.177 Y132.190 E0.02462
G1 X91.485 Y131.745 E0.02474
G1 X88.489 Y128.213 E0.13931
G1 X88.146 Y127.554 E0.02236
G1 X88.023 Y126.824 E0.02225
G1 X88.028 Y83.048 E1.31679
G1 X88.166 Y82.386 E0.02033
G1 X88.488 Y81.788 E0.02044
G1 X91.301 Y78.447 E0.13137
G1 X91.685 Y78.090 E0.01578
G1 X92.291 Y77.774 E0.02056
G1 F5760
G1 X93.081 Y77.623 E-0.27865
G1 F5760
G1 X94.471 Y77.623 E-0.48135
G1 E-0.04000 F2100.00000
G1 X105.713 Y119.413 F7200.000
G1 E0.80000 F2100.00000
G1 F840
G1 X118.387 Y119.413 E0.38124
G1 X118.387 Y123.787 E0.13157
G1 X105.713 Y123.787 E0.38124
G1 X105.713 Y119.473 E0.12977
G1 X106.090 Y119.790 F7200.000
G1 F840
G1 X118.010 Y119.790 E0.35855
G1 X118.010 Y123.410 E0.10889
G1 X106.090 Y123.410 E0.35855
G1 X106.090 Y119.850 E0.10708
G1 X105.925 Y119.426 F7200.000
G1 F5760
G1 X108.284 Y119.839 E-0.76000
G1 E-0.04000 F2100.00000
G1 X131.613 Y119.413 F7200.000
G1 E0.80000 F2100.00000
G1 F840
G1 X144.287 Y119.413 E0.38124
G1 X144.287 Y123.787 E0.13157
G1 X131.613 Y123.787 E0.38124
G1 X131.613 Y119.473 E0.12977
G1 X131.990 Y119.790 F7200.000
G1 F840
G1 X143.910 Y119.790 E0.35855
G1 X143.910 Y123.410 E0.10889
G1 X131.990 Y123.410 E0.35855
G1 X131.990 Y119.850 E0.10708
G1 X131.825 Y119.426 F7200.000
G1 F5760
G1 X134.184 Y119.839 E-0.76000
G1 E-0.04000 F2100.00000
G1 X131.613 Y86.213 F7200.000
G1 E0.80000 F2100.00000
G1 F840
G1 X144.287 Y86.213 E0.38124
G1 X144.287 Y90.587 E0.13157
G1 X131.613 Y90.587 E0.38124
G1 X131.613 Y86.273 E0.12977
G1 X131.990 Y86.590 F7200.000
G1 F840
G1 X143.910 Y86.590 E0.35855
G1 X143.910 Y90.210 E0.10889
G1 X131.990 Y90.210 E0.35855
G1 X131.990 Y86.650 E0.10708
G1 X131.825 Y86.226 F7200.000
G1 F5760
G1 X134.184 Y86.639 E-0.76000
G1 E-0.04000 F2100.00000
G1 X105.713 Y86.213 F7200.000
G1 E0.80000 F2100.00000
G1 F840
G1 X118.387 Y86.213 E0.38124
G1 X118.387 Y90.587 E0.13157
G1 X105.713 Y90.587 E0.38124
G1 X105.713 Y86.273 E0.12977
G1 X106.090 Y86.590 F7200.000
G1 F840
G1 X118.010 Y86.590 E0.35855
G1 X118.010 Y90.210 E0.10889
G1 X106.090 Y90.210 E0.35855
G1 X106.090 Y86.650 E0.10708
G1 X105.925 Y86.226 F7200.000
G1 F5760
G1 X108.284 Y86.639 E-0.76000
G1 E-0.04000 F2100.00000
G1 X105.713 Y83.587 F7200.000
G1 E0.80000 F2100.00000
G1 F1680
G1 X144.287 Y83.587 E1.16030
G1 X144.287 Y80.587 E0.09024
G1 X156.313 Y80.587 E0.36174
G1 X156.313 Y83.787 E0.09626
G1 X159.013 Y83.787 E0.08122
G1 X159.013 Y86.213 E0.07297
G1 X156.313 Y86.213 E0.08122
G1 X156.313 Y90.787 E0.13759
G1 X159.013 Y90.787 E0.08122
G1 X159.013 Y119.213 E0.85505
G1 X156.313 Y119.213 E0.08122
G1 X156.313 Y123.787 E0.13759
G1 X159.013 Y123.787 E0.08122
G1 X159.013 Y126.213 E0.07297
G1 X156.313 Y126.213 E0.08122
G1 X156.313 Y129.413 E0.09626
G1 X144.287 Y129.413 E0.36174
G1 X144.287 Y126.413 E0.09024
G1 X105.713 Y126.413 E1.16030
G1 X105.713 Y129.413 E0.09024
G1 X93.687 Y129.413 E0.36174
G1 X93.687 Y126.213 E0.09626
G1 X90.987 Y126.213 E0.08122
G1 X90.987 Y123.787 E0.07297
G1 X93.687 Y123.787 E0.08122
G1 X93.687 Y119.213 E0.13759
G1 X90.987 Y119.213 E0.08122
G1 X90.987 Y90.787 E0.85505
G1 X93.687 Y90.787 E0.08122
G1 X93.687 Y86.213 E0.13759
G1 X90.987 Y86.213 E0.08122
G1 X90.987 Y83.787 E0.07297
G1 X93.687 Y83.787 E0.08122
G1 X93.687 Y80.587 E0.09626
G1 X105.713 Y80.587 E0.36174
G1 X105.713 Y83.527 E0.08843
G1 X106.090 Y83.210 F7200.000
G1 F1260
G1 X143.910 Y83.210 E1.13762
G1 X143.910 Y80.210 E0.09024
G1 X156.690 Y80.210 E0.38442
G1 X156.690 Y83.410 E0.09626
G1 X159.390 Y83.410 E0.08122
G1 X159.390 Y86.590 E0.09565
G1 X156.690 Y86.590 E0.08122
G1 X156.690 Y90.410 E0.11490
G1 X159.390 Y90.410 E0.08122
G1 X159.390 Y119.590 E0.87773
G1 X156.690 Y119.590 E0.08122
G1 X156.690 Y123.410 E0.11490
G1 X159.390 Y123.410 E0.08122
G1 X159.390 Y126.590 E0.09565
G1 X156.690 Y126.590 E0.08122
G1 X156.690 Y129.790 E0.09626
G1 X143.910 Y129.790 E0.38442
G1 X143.910 Y126.790 E0.09024
G1 X106.090 Y126.790 E1.13762
G1 X106.090 Y129.790 E0.09024
G1 X93.310 Y129.790 E0.38442
G1 X93.310 Y126.590 E0.09626
G1 X90.610 Y126.590 E0.08122
G1 X90.610 Y123.410 E0.09565
G1 X93.310 Y123.410 E0.08122
G1 X93.310 Y119.590 E0.11490
G1 X90.610 Y119.590 E0.08122
G1 X90.610 Y90.410 E0.87773
G1 X93.310 Y90.410 E0.08122
G1 X93.310 Y86.590 E0.11490
G1 X90.610 Y86.590 E0.08122
G1 X90.610 Y83.410 E0.09565
G1 X93.310 Y83.410 E0.08122
G1 X93.310 Y80.210 E0.09626
G1 X106.090 Y80.210 E0.38442
G1 X106.090 Y83.150 E0.08843
G1 X106.263 Y83.571 F7200.000
G1 F5760
G1 X108.284 Y83.153 E-0.76000
G1 E-0.04000 F2100.00000
G1 X105.600 Y81.061 F7200.000
G1 E0.80000 F2100.00000
G1 F1680
G1 X105.409 Y80.870 E0.00813
G1 X104.875 Y80.870 E0.01609
G1 X105.430 Y81.425 E0.02365
G1 X105.430 Y81.959 E0.01609
G1 X104.341 Y80.870 E0.04640
G1 X103.807 Y80.870 E0.01609
G1 X105.430 Y82.493 E0.06915
G1 X105.430 Y83.027 E0.01609
G1 X103.103 Y80.700 E0.09913
G1 F5760
G1 X104.655 Y82.252 E-0.76000
G1 E-0.04000 F2100.00000
G1 X91.100 Y85.252 F7200.000
G1 E0.80000 F2100.00000
G1 F1680
G1 X91.779 Y85.930 E0.02891
G1 X92.313 Y85.930 E0.01609
G1 X91.270 Y84.887 E0.04443
G1 X91.270 Y84.353 E0.01609
G1 X92.847 Y85.930 E0.06718
G1 X93.381 Y85.930 E0.01609
G1 X91.521 Y84.070 E0.07925
G1 X92.055 Y84.070 E0.01609
G1 X131.330 Y123.345 E1.67318
G1 X131.330 Y122.811 E0.01609
G1 X92.589 Y84.070 E1.65043
G1 X93.123 Y84.070 E0.01609
G1 X131.330 Y122.277 E1.62768
G1 X131.330 Y121.743 E0.01609
G1 X93.657 Y84.070 E1.60493
G1 X93.970 Y84.070 E0.00944
G1 X93.970 Y83.849 E0.00665
G1 X131.330 Y121.209 E1.59158
G1 X131.330 Y120.675 E0.01609
G1 X93.970 Y83.315 E1.59158
G1 X93.970 Y82.781 E0.01609
G1 X131.330 Y120.141 E1.59158
G1 X131.330 Y119.607 E0.01609
G1 X93.970 Y82.247 E1.59158
G1 X93.970 Y81.713 E0.01609
G1 X131.387 Y119.130 E1.59400
G1 X131.921 Y119.130 E0.01609
G1 X93.970 Y81.179 E1.61675
G1 X93.970 Y80.870 E0.00931
G1 X94.195 Y80.870 E0.00677
G1 X132.455 Y119.130 E1.62993
G1 X132.989 Y119.130 E0.01609
G1 X94.729 Y80.870 E1.62993
G1 X95.263 Y80.870 E0.01609
G1 X133.693 Y119.300 E1.63715
G1 F5760
G1 X132.141 Y117.748 E-0.76000
G1 E-0.04000 F2100.00000
G1 X131.885 Y123.900 F7200.000
G1 E0.80000 F2100.00000
G1 F1680
G1 X134.115 Y126.130 E0.09500
G1 X134.649 Y126.130 E0.01609
G1 X132.589 Y124.070 E0.08777
G1 X133.123 Y124.070 E0.01609
G1 X135.183 Y126.130 E0.08777
G1 X135.717 Y126.130 E0.01609
G1 X133.657 Y124.070 E0.08777
G1 X134.191 Y124.070 E0.01609
G1 X136.251 Y126.130 E0.08777
G1 X136.785 Y126.130 E0.01609
G1 X134.725 Y124.070 E0.08777
G1 X135.259 Y124.070 E0.01609
G1 X137.319 Y126.130 E0.08777
G1 X137.853 Y126.130 E0.01609
G1 X135.793 Y124.070 E0.08777
G1 X136.327 Y124.070 E0.01609
G1 X138.387 Y126.130 E0.08777
G1 X138.921 Y126.130 E0.01609
G1 X136.861 Y124.070 E0.08777
G1 X137.395 Y124.070 E0.01609
G1 X139.455 Y126.130 E0.08777
G1 X139.989 Y126.130 E0.01609
G1 X137.929 Y124.070 E0.08777
G1 X138.463 Y124.070 E0.01609
G1 X140.523 Y126.130 E0.08777
G1 X141.057 Y126.130 E0.01609
G1 X138.997 Y124.070 E0.08777
G1 X139.531 Y124.070 E0.01609
G1 X141.591 Y126.130 E0.08777
G1 X142.125 Y126.130 E0.01609
G1 X140.065 Y124.070 E0.08777
G1 X140.599 Y124.070 E0.01609
G1 X142.659 Y126.130 E0.08777
G1 X143.193 Y126.130 E0.01609
G1 X141.133 Y124.070 E0.08777
G1 X141.667 Y124.070 E0.01609
G1 X143.897 Y126.300 E0.09500
G1 F5760
G1 X142.345 Y124.748 E-0.76000
G1 E-0.04000 F2100.00000
G1 X144.400 Y128.939 F7200.000
G1 E0.80000 F2100.00000
G1 F1680
G1 X144.591 Y129.130 E0.00813
G1 X145.125 Y129.130 E0.01609
G1 X144.570 Y128.575 E0.02365
G1 X144.570 Y128.041 E0.01609
G1 X145.659 Y129.130 E0.04640
G1 X146.193 Y129.130 E0.01609
G1 X144.570 Y127.507 E0.06915
G1 X144.570 Y126.973 E0.01609
G1 X146.727 Y129.130 E0.09190
G1 X147.261 Y129.130 E0.01609
G1 X142.201 Y124.070 E0.21557
G1 X142.735 Y124.070 E0.01609
G1 X147.795 Y129.130 E0.21557
G1 X148.329 Y129.130 E0.01609
G1 X143.269 Y124.070 E0.21557
G1 X143.803 Y124.070 E0.01609
G1 X148.863 Y129.130 E0.21557
G1 X149.397 Y129.130 E0.01609
G1 X144.337 Y124.070 E0.21557
G1 X144.570 Y124.070 E0.00702
G1 X144.570 Y123.769 E0.00907
G1 X149.931 Y129.130 E0.22839
G1 X150.465 Y129.130 E0.01609
G1 X144.570 Y123.235 E0.25114
G1 X144.570 Y122.701 E0.01609
G1 X150.999 Y129.130 E0.27389
G1 X151.533 Y129.130 E0.01609
G1 X144.570 Y122.167 E0.29664
G1 X144.570 Y121.633 E0.01609
G1 X152.067 Y129.130 E0.31939
G1 X152.601 Y129.130 E0.01609
G1 X144.570 Y121.099 E0.34214
G1 X144.570 Y120.565 E0.01609
G1 X153.135 Y129.130 E0.36489
G1 X153.669 Y129.130 E0.01609
G1 X144.570 Y120.031 E0.38764
G1 X144.570 Y119.497 E0.01609
G1 X154.373 Y129.300 E0.41762
G1 F5760
G1 X152.821 Y127.748 E-0.76000
G1 E-0.04000 F2100.00000
G1 X156.200 Y123.651 F7200.000
G1 E0.80000 F2100.00000
G1 F1680
G1 X116.419 Y83.870 E1.69470
G1 X116.953 Y83.870 E0.01609
G1 X156.030 Y122.947 E1.66472
G1 X156.030 Y122.413 E0.01609
G1 X117.487 Y83.870 E1.64197
G1 X118.021 Y83.870 E0.01609
G1 X156.030 Y121.879 E1.61922
G1 X156.030 Y121.345 E0.01609
G1 X118.555 Y83.870 E1.59647
G1 X119.089 Y83.870 E0.01609
G1 X156.030 Y120.811 E1.57372
G1 X156.030 Y120.277 E0.01609
G1 X119.623 Y83.870 E1.55097
G1 X120.157 Y83.870 E0.01609
G1 X156.030 Y119.743 E1.52822
G1 X156.030 Y119.209 E0.01609
G1 X120.691 Y83.870 E1.50547
G1 X121.225 Y83.870 E0.01609
G1 X156.286 Y118.930 E1.49360
G1 X156.820 Y118.930 E0.01609
G1 X121.759 Y83.870 E1.49360
G1 X122.293 Y83.870 E0.01609
G1 X157.354 Y118.930 E1.49360
G1 X157.888 Y118.930 E0.01609
G1 X122.827 Y83.870 E1.49360
G1 X123.361 Y83.870 E0.01609
G1 X158.422 Y118.930 E1.49360
G1 X158.730 Y118.930 E0.00930
G1 X158.730 Y118.705 E0.00679
G1 X123.895 Y83.870 E1.48400
G1 X124.429 Y83.870 E0.01609
G1 X158.900 Y118.340 E1.46848
G1 F5760
G1 X157.348 Y116.789 E-0.76000
G1 E-0.04000 F2100.00000
G1 X158.900 Y124.749 F7200.000
G1 E0.80000 F2100.00000
G1 F1680
G1 X158.221 Y124.070 E0.02891
G1 X157.687 Y124.070 E0.01609
G1 X158.730 Y125.113 E0.04443
G1 X158.730 Y125.647 E0.01609
G1 X157.153 Y124.070 E0.06718
G1 X156.619 Y124.070 E0.01609
G1 X158.479 Y125.930 E0.07925
G1 X157.945 Y125.930 E0.01609
G1 X118.670 Y86.655 E1.67318
G1 X118.670 Y87.189 E0.01609
G1 X157.411 Y125.930 E1.65043
G1 X156.877 Y125.930 E0.01609
G1 X118.670 Y87.723 E1.62768
G1 X118.670 Y88.257 E0.01609
G1 X156.343 Y125.930 E1.60493
G1 X156.030 Y125.930 E0.00943
G1 X156.030 Y126.151 E0.00665
G1 X118.670 Y88.791 E1.59158
G1 X118.670 Y89.325 E0.01609
G1 X156.030 Y126.685 E1.59158
G1 X156.030 Y127.219 E0.01609
G1 X118.670 Y89.859 E1.59158
G1 X118.670 Y90.393 E0.01609
G1 X156.030 Y127.753 E1.59158
G1 X156.030 Y128.287 E0.01609
G1 X118.613 Y90.870 E1.59401
G1 X118.079 Y90.870 E0.01609
G1 X156.030 Y128.821 E1.61676
G1 X156.030 Y129.130 E0.00931
G1 X155.805 Y129.130 E0.00677
G1 X117.545 Y90.870 E1.62993
G1 X117.011 Y90.870 E0.01609
G1 X155.271 Y129.130 E1.62993
G1 X154.737 Y129.130 E0.01609
G1 X116.477 Y90.870 E1.62993
G1 X115.943 Y90.870 E0.01609
G1 X144.203 Y119.130 E1.20392
G1 X143.669 Y119.130 E0.01609
G1 X115.409 Y90.870 E1.20392
G1 X114.875 Y90.870 E0.01609
G1 X143.135 Y119.130 E1.20392
G1 X142.601 Y119.130 E0.01609
G1 X114.341 Y90.870 E1.20392
G1 X113.807 Y90.870 E0.01609
G1 X142.067 Y119.130 E1.20392
G1 X141.533 Y119.130 E0.01609
G1 X113.273 Y90.870 E1.20392
G1 X112.739 Y90.870 E0.01609
G1 X140.999 Y119.130 E1.20392
G1 X140.465 Y119.130 E0.01609
G1 X112.205 Y90.870 E1.20392
G1 X111.671 Y90.870 E0.01609
G1 X139.931 Y119.130 E1.20392
G1 X139.397 Y119.130 E0.01609
G1 X111.137 Y90.870 E1.20392
G1 X110.603 Y90.870 E0.01609
G1 X138.863 Y119.130 E1.20392
G1 X138.329 Y119.130 E0.01609
G1 X110.069 Y90.870 E1.20392
G1 X109.535 Y90.870 E0.01609
G1 X137.795 Y119.130 E1.20392
G1 X137.261 Y119.130 E0.01609
G1 X109.001 Y90.870 E1.20392
G1 X108.467 Y90.870 E0.01609
G1 X136.727 Y119.130 E1.20392
G1 X136.193 Y119.130 E0.01609
G1 X107.933 Y90.870 E1.20392
G1 X107.399 Y90.870 E0.01609
G1 X135.659 Y119.130 E1.20392
G1 X135.125 Y119.130 E0.01609
G1 X106.865 Y90.870 E1.20392
G1 X106.331 Y90.870 E0.01609
G1 X134.591 Y119.130 E1.20392
G1 X134.057 Y119.130 E0.01609
G1 X105.797 Y90.870 E1.20392
G1 X105.430 Y90.870 E0.01104
G1 X105.430 Y90.503 E0.01104
G1 X95.797 Y80.870 E0.41039
G1 X96.331 Y80.870 E0.01609
G1 X105.430 Y89.969 E0.38764
G1 X105.430 Y89.435 E0.01609
G1 X96.865 Y80.870 E0.36489
G1 X97.399 Y80.870 E0.01609
G1 X105.430 Y88.901 E0.34215
G1 X105.430 Y88.367 E0.01609
G1 X97.933 Y80.870 E0.31940
G1 X98.467 Y80.870 E0.01609
G1 X105.430 Y87.833 E0.29665
G1 X105.430 Y87.299 E0.01609
G1 X99.001 Y80.870 E0.27390
G1 X99.535 Y80.870 E0.01609
G1 X105.430 Y86.765 E0.25115
G1 X105.430 Y86.231 E0.01609
G1 X100.069 Y80.870 E0.22840
G1 X100.603 Y80.870 E0.01609
G1 X105.663 Y85.930 E0.21557
G1 X106.197 Y85.930 E0.01609
G1 X101.137 Y80.870 E0.21557
G1 X101.671 Y80.870 E0.01609
G1 X106.731 Y85.930 E0.21557
G1 X107.265 Y85.930 E0.01609
G1 X102.205 Y80.870 E0.21557
G1 X102.739 Y80.870 E0.01609
G1 X107.799 Y85.930 E0.21557
G1 X108.333 Y85.930 E0.01609
G1 X106.273 Y83.870 E0.08777
G1 X106.807 Y83.870 E0.01609
G1 X108.867 Y85.930 E0.08777
G1 X109.401 Y85.930 E0.01609
G1 X107.341 Y83.870 E0.08777
G1 X107.875 Y83.870 E0.01609
G1 X109.935 Y85.930 E0.08777
G1 X110.469 Y85.930 E0.01609
G1 X108.409 Y83.870 E0.08777
G1 X108.943 Y83.870 E0.01609
G1 X111.003 Y85.930 E0.08777
G1 X111.537 Y85.930 E0.01609
G1 X109.477 Y83.870 E0.08777
G1 X110.011 Y83.870 E0.01609
G1 X112.071 Y85.930 E0.08777
G1 X112.605 Y85.930 E0.01609
G1 X110.545 Y83.870 E0.08777
G1 X111.079 Y83.870 E0.01609
G1 X113.139 Y85.930 E0.08777
G1 X113.673 Y85.930 E0.01609
G1 X111.613 Y83.870 E0.08777
G1 X112.147 Y83.870 E0.01609
G1 X114.207 Y85.930 E0.08777
G1 X114.741 Y85.930 E0.01609
G1 X112.681 Y83.870 E0.08777
G1 X113.215 Y83.870 E0.01609
G1 X115.275 Y85.930 E0.08777
G1 X115.809 Y85.930 E0.01609
G1 X113.749 Y83.870 E0.08777
G1 X114.283 Y83.870 E0.01609
G1 X116.343 Y85.930 E0.08777
G1 X116.877 Y85.930 E0.01609
G1 X114.817 Y83.870 E0.08777
G1 X115.351 Y83.870 E0.01609
G1 X117.411 Y85.930 E0.08777
G1 X117.945 Y85.930 E0.01609
G1 X115.715 Y83.700 E0.09500
G1 F5760
G1 X117.267 Y85.252 E-0.76000
G1 E-0.04000 F2100.00000
G1 X131.500 Y90.406 F7200.000
G1 E0.80000 F2100.00000
G1 F1680
G1 X124.963 Y83.870 E0.27846
G1 X125.497 Y83.870 E0.01609
G1 X131.330 Y89.703 E0.24848
G1 X131.330 Y89.169 E0.01609
G1 X126.031 Y83.870 E0.22573
G1 X126.565 Y83.870 E0.01609
G1 X131.330 Y88.635 E0.20298
G1 X131.330 Y88.101 E0.01609
G1 X127.099 Y83.870 E0.18023
G1 X127.633 Y83.870 E0.01609
G1 X131.330 Y87.567 E0.15749
G1 X131.330 Y87.033 E0.01609
G1 X128.167 Y83.870 E0.13474
G1 X128.701 Y83.870 E0.01609
G1 X131.330 Y86.499 E0.11199
G1 X131.330 Y85.965 E0.01609
G1 X129.235 Y83.870 E0.08924
G1 X129.769 Y83.870 E0.01609
G1 X131.830 Y85.930 E0.08777
G1 X132.364 Y85.930 E0.01609
G1 X130.303 Y83.870 E0.08777
G1 X130.837 Y83.870 E0.01609
G1 X132.898 Y85.930 E0.08777
G1 X133.432 Y85.930 E0.01609
