; generated by Slic3r 1.36.2-prusa3d on 2017-09-08 at 08:13:11

; 

; external perimeters extrusion width = 0.45mm
; perimeters extrusion width = 0.45mm
; infill extrusion width = 0.45mm
; solid infill extrusion width = 0.45mm
; top infill extrusion width = 0.40mm
; first layer extrusion width = 0.42mm

M107
M115 U3.0.12 ; tell printer latest fw version
M83  ; extruder relative mode
M104 S230 ; set extruder temp
M140 S85 ; set bed temp
M190 S85 ; wait for bed temp
M109 S230 ; wait for extruder temp
G28 W ; home all without mesh bed level
G80 ; mesh bed leveling
G1 Y-3.0 F1000.0 ; go outside pritn area
G1 X60.0 E9.0  F1000.0 ; intro line
G1 X100.0 E12.5  F1000.0 ; intro line
; Filament gcode

G21 ; set units to millimeters
G90 ; use absolute coordinates
M83 ; use relative distances for extrusion
G1 E-0.80000 F2100.00000
G1 Z0.200 F7200.000
G1 X71.015 Y63.551 F7200.000
G1 E0.80000 F2100.00000
M204 S1000
G1 F2100
G1 X71.549 Y63.044 E0.02214
G1 X72.216 Y62.724 E0.02225
G1 X89.072 Y58.050 E0.52618
G1 X89.552 Y57.970 E0.01464
G1 X160.304 Y57.966 E2.12819
G1 X160.925 Y58.049 E0.01885
G1 X177.913 Y62.766 E0.53032
G1 X178.536 Y63.106 E0.02135
G1 X179.033 Y63.617 E0.02146
G1 X179.355 Y64.249 E0.02135
G1 X179.477 Y64.952 E0.02146
G1 X179.430 Y81.469 E0.49683
G1 X162.607 Y150.230 E2.12931
G1 X162.441 Y150.691 E0.01475
G1 X162.183 Y151.108 E0.01475
G1 X161.807 Y151.496 E0.01623
G1 X161.353 Y151.788 E0.01623
G1 X160.849 Y151.970 E0.01612
G1 X160.313 Y152.034 E0.01623
G1 X89.685 Y152.034 E2.12450
G1 X88.930 Y151.906 E0.02304
G1 X88.251 Y151.542 E0.02316
G1 X87.712 Y150.961 E0.02383
G1 X87.395 Y150.239 E0.02372
G1 X70.567 Y81.457 E2.12997
G1 X70.524 Y64.939 E0.49686
G1 X70.659 Y64.208 E0.02236
G1 X70.987 Y63.604 E0.02067
G1 F5760
G1 X71.549 Y63.044 E-0.27475
G1 F5760
G1 X72.216 Y62.724 E-0.25621
G1 F5760
G1 X72.853 Y62.547 E-0.22904
G1 E-0.04000 F2100.00000
G1 X90.287 Y98.587 F7200.000
G1 E0.80000 F2100.00000
G1 F1680
G1 X100.287 Y98.587 E0.30080
G1 X100.287 Y94.820 E0.11332
G1 X108.713 Y94.820 E0.25345
G1 X108.713 Y98.587 E0.11332
G1 X118.713 Y98.587 E0.30080
G1 X118.713 Y148.180 E1.49175
G1 X110.087 Y148.180 E0.25946
G1 X110.087 Y144.413 E0.11332
G1 X98.913 Y144.413 E0.33612
G1 X98.913 Y148.180 E0.11332
G1 X90.287 Y148.180 E0.25946
G1 X90.287 Y98.647 E1.48995
G1 F5760
G1 X92.481 Y98.634 E-0.76000
G1 E-0.04000 F2100.00000
G1 X109.090 Y98.210 F7200.000
G1 E0.80000 F2100.00000
G1 F1260
G1 X119.090 Y98.210 E0.30080
G1 X119.090 Y148.557 E1.51444
G1 X109.710 Y148.557 E0.28215
G1 X109.710 Y144.790 E0.11332
G1 X99.290 Y144.790 E0.31343
G1 X99.290 Y148.557 E0.11332
G1 X89.910 Y148.557 E0.28215
G1 X89.910 Y98.210 E1.51444
G1 X99.910 Y98.210 E0.30080
G1 X99.910 Y94.443 E0.11332
G1 X109.090 Y94.443 E0.27613
G1 X109.090 Y98.150 E0.11151
G1 X109.243 Y98.579 F7200.000
G1 F5760
G1 X111.284 Y98.163 E-0.76000
G1 E-0.04000 F2100.00000
G1 X108.600 Y95.356 F7200.000
G1 E0.80000 F2100.00000
G1 F1680
G1 X108.347 Y95.103 E0.01081
G1 X107.811 Y95.103 E0.01618
G1 X108.430 Y95.722 E0.02644
G1 X108.430 Y96.257 E0.01618
G1 X107.276 Y95.103 E0.04932
G1 X106.740 Y95.103 E0.01618
G1 X108.430 Y96.793 E0.07219
G1 X108.430 Y97.328 E0.01618
G1 X106.205 Y95.103 E0.09507
G1 X105.669 Y95.103 E0.01618
G1 X108.430 Y97.863 E0.11794
G1 X108.430 Y98.399 E0.01618
G1 X105.134 Y95.103 E0.14082
G1 X104.598 Y95.103 E0.01618
G1 X118.430 Y108.934 E0.59091
G1 X118.430 Y108.399 E0.01618
G1 X108.901 Y98.870 E0.40709
G1 X109.437 Y98.870 E0.01618
G1 X118.430 Y107.863 E0.38422
G1 X118.430 Y107.328 E0.01618
G1 X109.972 Y98.870 E0.36134
G1 X110.507 Y98.870 E0.01618
G1 X118.430 Y106.793 E0.33847
G1 X118.430 Y106.257 E0.01618
G1 X111.043 Y98.870 E0.31559
G1 X111.578 Y98.870 E0.01618
G1 X118.430 Y105.722 E0.29271
G1 X118.430 Y105.186 E0.01618
G1 X112.114 Y98.870 E0.26984
G1 X112.649 Y98.870 E0.01618
G1 X118.430 Y104.651 E0.24696
G1 X118.430 Y104.115 E0.01618
G1 X113.185 Y98.870 E0.22409
G1 X113.720 Y98.870 E0.01618
G1 X118.430 Y103.580 E0.20121
G1 X118.430 Y103.044 E0.01618
G1 X114.256 Y98.870 E0.17834
G1 X114.791 Y98.870 E0.01618
G1 X118.430 Y102.509 E0.15546
G1 X118.430 Y101.973 E0.01618
G1 X115.327 Y98.870 E0.13259
G1 X115.862 Y98.870 E0.01618
G1 X118.430 Y101.438 E0.10971
G1 X118.430 Y100.902 E0.01618
G1 X116.398 Y98.870 E0.08683
G1 X116.933 Y98.870 E0.01618
G1 X118.430 Y100.367 E0.06396
G1 X118.430 Y99.832 E0.01618
G1 X117.468 Y98.870 E0.04108
G1 X118.004 Y98.870 E0.01618
G1 X118.600 Y99.466 E0.02546
G1 F5760
G1 X118.004 Y98.870 E-0.29187
G1 F5760
G1 X117.468 Y98.870 E-0.18546
G1 F5760
G1 X118.046 Y99.447 E-0.28267
G1 E-0.04000 F2100.00000
G1 X118.600 Y109.639 F7200.000
G1 E0.80000 F2100.00000
G1 F1680
G1 X104.063 Y95.103 E0.62103
G1 X103.528 Y95.103 E0.01618
G1 X118.430 Y110.005 E0.63666
G1 X118.430 Y110.541 E0.01618
G1 X102.992 Y95.103 E0.65954
G1 X102.457 Y95.103 E0.01618
G1 X118.430 Y111.076 E0.68241
G1 X118.430 Y111.612 E0.01618
G1 X101.921 Y95.103 E0.70529
G1 X101.386 Y95.103 E0.01618
G1 X118.430 Y112.147 E0.72816
G1 X118.430 Y112.683 E0.01618
G1 X100.850 Y95.103 E0.75104
G1 X100.570 Y95.103 E0.00847
G1 X100.570 Y95.358 E0.00771
G1 X118.430 Y113.218 E0.76302
G1 X118.430 Y113.753 E0.01618
G1 X100.570 Y95.893 E0.76302
G1 X100.570 Y96.429 E0.01618
G1 X118.430 Y114.289 E0.76302
G1 X118.430 Y114.824 E0.01618
G1 X100.570 Y96.964 E0.76302
G1 X100.570 Y97.500 E0.01618
G1 X118.430 Y115.360 E0.76302
G1 X118.430 Y115.895 E0.01618
G1 X100.570 Y98.035 E0.76302
G1 X100.570 Y98.571 E0.01618
G1 X118.430 Y116.431 E0.76302
G1 X118.430 Y116.966 E0.01618
G1 X100.334 Y98.870 E0.77310
G1 X99.798 Y98.870 E0.01618
G1 X118.430 Y117.502 E0.79598
G1 X118.430 Y118.037 E0.01618
G1 X99.263 Y98.870 E0.81885
G1 X98.727 Y98.870 E0.01618
G1 X118.430 Y118.573 E0.84173
G1 X118.430 Y119.108 E0.01618
G1 X98.192 Y98.870 E0.86461
G1 X97.656 Y98.870 E0.01618
G1 X118.430 Y119.644 E0.88748
G1 X118.430 Y120.179 E0.01618
G1 X97.121 Y98.870 E0.91036
G1 X96.586 Y98.870 E0.01618
G1 X118.430 Y120.714 E0.93323
G1 X118.430 Y121.250 E0.01618
G1 X96.050 Y98.870 E0.95611
G1 X95.515 Y98.870 E0.01618
G1 X118.430 Y121.785 E0.97898
G1 X118.430 Y122.321 E0.01618
G1 X94.979 Y98.870 E1.00186
G1 X94.444 Y98.870 E0.01618
G1 X118.430 Y122.856 E1.02474
G1 X118.430 Y123.392 E0.01618
G1 X93.908 Y98.870 E1.04761
G1 X93.373 Y98.870 E0.01618
G1 X118.430 Y123.927 E1.07049
G1 X118.430 Y124.463 E0.01618
G1 X92.837 Y98.870 E1.09336
G1 X92.302 Y98.870 E0.01618
G1 X118.430 Y124.998 E1.11624
G1 X118.430 Y125.534 E0.01618
G1 X91.766 Y98.870 E1.13911
G1 X91.231 Y98.870 E0.01618
G1 X118.430 Y126.069 E1.16199
G1 X118.430 Y126.605 E0.01618
G1 X90.695 Y98.870 E1.18486
G1 X90.570 Y98.870 E0.00379
G1 X90.570 Y99.280 E0.01238
G1 X118.430 Y127.140 E1.19023
G1 X118.430 Y127.675 E0.01618
G1 X90.570 Y99.815 E1.19023
G1 X90.570 Y100.351 E0.01618
G1 X118.430 Y128.211 E1.19023
G1 X118.430 Y128.746 E0.01618
G1 X90.570 Y100.886 E1.19023
G1 X90.570 Y101.422 E0.01618
G1 X118.430 Y129.282 E1.19023
G1 X118.430 Y129.817 E0.01618
G1 X90.570 Y101.957 E1.19023
G1 X90.570 Y102.493 E0.01618
G1 X118.430 Y130.353 E1.19023
G1 X118.430 Y130.888 E0.01618
G1 X90.570 Y103.028 E1.19023
G1 X90.570 Y103.563 E0.01618
G1 X118.430 Y131.424 E1.19023
G1 X118.430 Y131.959 E0.01618
G1 X90.570 Y104.099 E1.19023
G1 X90.570 Y104.634 E0.01618
G1 X118.430 Y132.495 E1.19023
G1 X118.430 Y133.030 E0.01618
G1 X90.570 Y105.170 E1.19023
G1 X90.570 Y105.705 E0.01618
G1 X118.430 Y133.566 E1.19023
G1 X118.430 Y134.101 E0.01618
G1 X90.570 Y106.241 E1.19023
G1 X90.570 Y106.776 E0.01618
G1 X118.430 Y134.636 E1.19023
G1 X118.430 Y135.172 E0.01618
G1 X90.570 Y107.312 E1.19023
G1 X90.570 Y107.847 E0.01618
G1 X118.430 Y135.707 E1.19023
G1 X118.430 Y136.243 E0.01618
G1 X90.570 Y108.383 E1.19023
G1 X90.570 Y108.918 E0.01618
G1 X118.430 Y136.778 E1.19023
G1 X118.430 Y137.314 E0.01618
G1 X90.570 Y109.454 E1.19023
G1 X90.570 Y109.989 E0.01618
G1 X118.430 Y137.849 E1.19023
G1 X118.430 Y138.385 E0.01618
G1 X90.570 Y110.524 E1.19023
G1 X90.570 Y111.060 E0.01618
G1 X118.430 Y138.920 E1.19023
G1 X118.430 Y139.456 E0.01618
G1 X90.570 Y111.595 E1.19023
G1 X90.570 Y112.131 E0.01618
G1 X118.430 Y139.991 E1.19023
G1 X118.430 Y140.527 E0.01618
G1 X90.570 Y112.666 E1.19023
G1 X90.570 Y113.202 E0.01618
G1 X118.430 Y141.062 E1.19023
G1 X118.430 Y141.597 E0.01618
G1 X90.570 Y113.737 E1.19023
G1 X90.570 Y114.273 E0.01618
G1 X118.430 Y142.133 E1.19023
G1 X118.430 Y142.668 E0.01618
G1 X90.570 Y114.808 E1.19023
G1 X90.570 Y115.344 E0.01618
G1 X118.430 Y143.204 E1.19023
G1 X118.430 Y143.739 E0.01618
G1 X90.570 Y115.879 E1.19023
G1 X90.570 Y116.414 E0.01618
G1 X118.430 Y144.275 E1.19023
G1 X118.430 Y144.810 E0.01618
G1 X90.570 Y116.950 E1.19023
G1 X90.570 Y117.485 E0.01618
G1 X118.430 Y145.346 E1.19023
G1 X118.430 Y145.881 E0.01618
G1 X90.570 Y118.021 E1.19023
G1 X90.570 Y118.556 E0.01618
G1 X118.430 Y146.417 E1.19023
G1 X118.430 Y146.952 E0.01618
G1 X90.570 Y119.092 E1.19023
G1 X90.570 Y119.627 E0.01618
G1 X118.430 Y147.488 E1.19023
G1 X118.430 Y147.897 E0.01238
G1 X118.304 Y147.897 E0.00380
G1 X90.570 Y120.163 E1.18486
G1 X90.570 Y120.698 E0.01618
G1 X117.769 Y147.897 E1.16199
G1 X117.234 Y147.897 E0.01618
G1 X90.570 Y121.234 E1.13911
G1 X90.570 Y121.769 E0.01618
G1 X116.698 Y147.897 E1.11623
G1 X116.163 Y147.897 E0.01618
G1 X90.570 Y122.305 E1.09336
G1 X90.570 Y122.840 E0.01618
G1 X115.627 Y147.897 E1.07048
G1 X115.092 Y147.897 E0.01618
G1 X90.570 Y123.375 E1.04761
G1 X90.570 Y123.911 E0.01618
G1 X114.556 Y147.897 E1.02473
G1 X114.021 Y147.897 E0.01618
G1 X90.570 Y124.446 E1.00186
G1 X90.570 Y124.982 E0.01618
G1 X109.718 Y144.130 E0.81804
G1 X109.183 Y144.130 E0.01618
G1 X90.570 Y125.517 E0.79517
G1 X90.570 Y126.053 E0.01618
G1 X108.647 Y144.130 E0.77229
G1 X108.112 Y144.130 E0.01618
G1 X90.570 Y126.588 E0.74941
G1 X90.570 Y127.124 E0.01618
G1 X107.576 Y144.130 E0.72654
G1 X107.041 Y144.130 E0.01618
G1 X90.570 Y127.659 E0.70366
G1 X90.570 Y128.195 E0.01618
G1 X106.505 Y144.130 E0.68079
G1 X105.970 Y144.130 E0.01618
G1 X90.570 Y128.730 E0.65791
G1 X90.570 Y129.266 E0.01618
G1 X105.434 Y144.130 E0.63504
G1 X104.899 Y144.130 E0.01618
G1 X90.570 Y129.801 E0.61216
G1 X90.570 Y130.336 E0.01618
G1 X104.364 Y144.130 E0.58928
G1 X103.828 Y144.130 E0.01618
G1 X90.570 Y130.872 E0.56641
G1 X90.570 Y131.407 E0.01618
G1 X103.293 Y144.130 E0.54353
G1 X102.757 Y144.130 E0.01618
G1 X90.570 Y131.943 E0.52066
G1 X90.570 Y132.478 E0.01618
G1 X102.222 Y144.130 E0.49778
G1 X101.686 Y144.130 E0.01618
G1 X90.570 Y133.014 E0.47491
G1 X90.570 Y133.549 E0.01618
G1 X101.151 Y144.130 E0.45203
G1 X100.615 Y144.130 E0.01618
G1 X90.570 Y134.085 E0.42915
G1 X90.570 Y134.620 E0.01618
G1 X100.080 Y144.130 E0.40628
G1 X99.544 Y144.130 E0.01618
G1 X90.570 Y135.156 E0.38340
G1 X90.570 Y135.691 E0.01618
G1 X99.009 Y144.130 E0.36053
G1 X98.630 Y144.130 E0.01144
G1 X98.630 Y144.287 E0.00473
G1 X90.570 Y136.227 E0.34435
G1 X90.570 Y136.762 E0.01618
G1 X98.630 Y144.822 E0.34435
G1 X98.630 Y145.358 E0.01618
G1 X90.570 Y137.297 E0.34435
G1 X90.570 Y137.833 E0.01618
G1 X98.630 Y145.893 E0.34435
G1 X98.630 Y146.429 E0.01618
G1 X90.570 Y138.368 E0.34435
G1 X90.570 Y138.904 E0.01618
G1 X98.630 Y146.964 E0.34435
G1 X98.630 Y147.500 E0.01618
G1 X90.570 Y139.439 E0.34435
G1 X90.570 Y139.975 E0.01618
G1 X98.492 Y147.897 E0.33846
G1 X97.957 Y147.897 E0.01618
G1 X90.570 Y140.510 E0.31559
G1 X90.570 Y141.046 E0.01618
G1 X97.422 Y147.897 E0.29271
G1 X96.886 Y147.897 E0.01618
G1 X90.570 Y141.581 E0.26984
G1 X90.570 Y142.117 E0.01618
G1 X96.351 Y147.897 E0.24696
G1 X95.815 Y147.897 E0.01618
G1 X90.570 Y142.652 E0.22408
G1 X90.570 Y143.188 E0.01618
G1 X95.280 Y147.897 E0.20121
G1 X94.744 Y147.897 E0.01618
G1 X90.570 Y143.723 E0.17833
G1 X90.570 Y144.258 E0.01618
G1 X94.209 Y147.897 E0.15546
G1 X93.673 Y147.897 E0.01618
G1 X90.570 Y144.794 E0.13258
G1 X90.570 Y145.329 E0.01618
G1 X93.138 Y147.897 E0.10971
G1 X92.602 Y147.897 E0.01618
G1 X90.570 Y145.865 E0.08683
G1 X90.570 Y146.400 E0.01618
G1 X92.067 Y147.897 E0.06396
G1 X91.531 Y147.897 E0.01618
G1 X90.570 Y146.936 E0.04108
G1 X90.570 Y147.471 E0.01618
G1 X91.166 Y148.067 E0.02545
G1 F5760
G1 X90.570 Y147.471 E-0.29183
G1 F5760
G1 X90.570 Y146.936 E-0.18546
G1 F5760
G1 X91.147 Y147.513 E-0.28271
G1 E-0.04000 F2100.00000
G1 X110.978 Y148.067 F7200.000
G1 E0.80000 F2100.00000
G1 F1680
G1 X110.370 Y147.459 E0.02597
G1 X110.370 Y146.924 E0.01618
G1 X111.343 Y147.897 E0.04159
G1 X111.879 Y147.897 E0.01618
G1 X110.370 Y146.388 E0.06447
G1 X110.370 Y145.853 E0.01618
G1 X112.414 Y147.897 E0.08735
G1 X112.950 Y147.897 E0.01618
G1 X110.370 Y145.317 E0.11022
G1 X110.370 Y144.782 E0.01618
G1 X113.655 Y148.067 E0.14035
G1 F5760
G1 X112.103 Y146.515 E-0.76000
G1 E-0.04000 F2100.00000
G1 X108.713 Y84.180 F7200.000
G1 E0.80000 F2100.00000
G1 F1680
G1 X100.087 Y84.180 E0.25946
G1 X100.087 Y80.413 E0.11332
G1 X88.913 Y80.413 E0.33612
G1 X88.913 Y84.180 E0.11332
G1 X80.287 Y84.180 E0.25946
G1 X80.287 Y80.413 E0.11332
G1 X73.487 Y80.413 E0.20454
G1 X73.487 Y65.587 E0.44596
G1 X90.287 Y65.587 E0.50534
G1 X90.287 Y61.820 E0.11332
G1 X98.713 Y61.820 E0.25345
G1 X98.713 Y65.587 E0.11332
G1 X115.513 Y65.587 E0.50534
G1 X115.513 Y80.413 E0.44596
G1 X108.713 Y80.413 E0.20454
G1 X108.713 Y84.120 E0.11151
G1 F5760
G1 X106.519 Y84.135 E-0.76000
G1 E-0.04000 F2100.00000
G1 X99.090 Y65.210 F7200.000
G1 E0.80000 F2100.00000
G1 F1260
G1 X115.890 Y65.210 E0.50534
G1 X115.890 Y80.790 E0.46864
G1 X109.090 Y80.790 E0.20454
G1 X109.090 Y84.557 E0.11332
G1 X99.710 Y84.557 E0.28215
G1 X99.710 Y80.790 E0.11332
G1 X89.290 Y80.790 E0.31343
G1 X89.290 Y84.557 E0.11332
G1 X79.910 Y84.557 E0.28215
G1 X79.910 Y80.790 E0.11332
G1 X73.110 Y80.790 E0.20454
G1 X73.110 Y65.210 E0.46864
G1 X89.910 Y65.210 E0.50534
G1 X89.910 Y61.443 E0.11332
G1 X99.090 Y61.443 E0.27613
G1 X99.090 Y65.150 E0.11151
G1 X99.243 Y65.579 F7200.000
G1 F5760
G1 X101.284 Y65.158 E-0.76000
G1 E-0.04000 F2100.00000
G1 X97.955 Y61.933 F7200.000
G1 E0.80000 F2100.00000
G1 F1680
G1 X98.430 Y62.408 E0.02039
G1 X98.430 Y62.946 E0.01632
G1 X97.587 Y62.103 E0.03620
G1 X97.049 Y62.103 E0.01632
G1 X98.430 Y63.484 E0.05928
G1 X98.430 Y64.022 E0.01632
G1 X96.511 Y62.103 E0.08237
G1 X95.973 Y62.103 E0.01632
G1 X98.430 Y64.560 E0.10545
G1 X98.430 Y65.097 E0.01632
G1 X95.435 Y62.103 E0.12854
G1 X94.898 Y62.103 E0.01632
G1 X112.925 Y80.130 E0.77375
G1 X113.463 Y80.130 E0.01632
G1 X99.203 Y65.870 E0.61206
G1 X99.740 Y65.870 E0.01632
G1 X114.001 Y80.130 E0.61206
G1 X114.539 Y80.130 E0.01632
G1 X100.278 Y65.870 E0.61206
G1 X100.816 Y65.870 E0.01632
G1 X115.076 Y80.130 E0.61206
G1 X115.230 Y80.130 E0.00466
G1 X115.230 Y79.746 E0.01166
G1 X101.354 Y65.870 E0.59557
G1 X101.892 Y65.870 E0.01632
G1 X115.230 Y79.208 E0.57248
G1 X115.230 Y78.670 E0.01632
G1 X102.430 Y65.870 E0.54940
G1 X102.968 Y65.870 E0.01632
G1 X115.230 Y78.132 E0.52631
G1 X115.230 Y77.595 E0.01632
G1 X103.505 Y65.870 E0.50323
G1 X104.043 Y65.870 E0.01632
G1 X115.230 Y77.057 E0.48014
G1 X115.230 Y76.519 E0.01632
G1 X104.581 Y65.870 E0.45706
G1 X105.119 Y65.870 E0.01632
G1 X115.230 Y75.981 E0.43397
G1 X115.230 Y75.443 E0.01632
G1 X105.657 Y65.870 E0.41089
G1 X106.195 Y65.870 E0.01632
G1 X115.230 Y74.905 E0.38780
G1 X115.230 Y74.367 E0.01632
G1 X106.733 Y65.870 E0.36472
G1 X107.270 Y65.870 E0.01632
G1 X115.230 Y73.830 E0.34163
G1 X115.230 Y73.292 E0.01632
G1 X107.808 Y65.870 E0.31855
G1 X108.346 Y65.870 E0.01632
G1 X115.230 Y72.754 E0.29546
G1 X115.230 Y72.216 E0.01632
G1 X108.884 Y65.870 E0.27238
G1 X109.422 Y65.870 E0.01632
G1 X115.230 Y71.678 E0.24929
G1 X115.230 Y71.140 E0.01632
G1 X109.960 Y65.870 E0.22621
G1 X110.498 Y65.870 E0.01632
G1 X115.230 Y70.602 E0.20313
G1 X115.230 Y70.065 E0.01632
G1 X111.035 Y65.870 E0.18004
G1 X111.573 Y65.870 E0.01632
G1 X115.230 Y69.527 E0.15696
G1 X115.230 Y68.989 E0.01632
G1 X112.111 Y65.870 E0.13387
G1 X112.649 Y65.870 E0.01632
G1 X115.230 Y68.451 E0.11079
G1 X115.230 Y67.913 E0.01632
G1 X113.187 Y65.870 E0.08770
G1 X113.725 Y65.870 E0.01632
G1 X115.230 Y67.375 E0.06462
G1 X115.230 Y66.837 E0.01632
G1 X114.263 Y65.870 E0.04153
G1 X114.800 Y65.870 E0.01632
G1 X115.400 Y66.469 E0.02573
G1 F5760
G1 X114.800 Y65.870 E-0.29363
