; generated by Slic3r 1.36.2-prusa3d on 2017-09-08 at 08:11:01

; 

; external perimeters extrusion width = 0.45mm
; perimeters extrusion width = 0.45mm
; infill extrusion width = 0.45mm
; solid infill extrusion width = 0.45mm
; top infill extrusion width = 0.40mm
; first layer extrusion width = 0.42mm

M107
M115 U3.0.12 ; tell printer latest fw version
M83  ; extruder relative mode
M104 S230 ; set extruder temp
M140 S85 ; set bed temp
M190 S85 ; wait for bed temp
M109 S230 ; wait for extruder temp
G28 W ; home all without mesh bed level
G80 ; mesh bed leveling
G1 Y-3.0 F1000.0 ; go outside pritn area
G1 X60.0 E9.0  F1000.0 ; intro line
G1 X100.0 E12.5  F1000.0 ; intro line
; Filament gcode

G21 ; set units to millimeters
G90 ; use absolute coordinates
M83 ; use relative distances for extrusion
G1 E-0.80000 F2100.00000
G1 Z0.200 F7200.000
G1 X83.666 Y155.012 F7200.000
G1 E0.80000 F2100.00000
M204 S1000
G1 F2100
G1 X83.231 Y154.210 E0.02744
G1 X78.549 Y137.324 E0.52710
G1 X78.466 Y136.722 E0.01828
G1 X78.470 Y73.955 E1.88801
G1 X83.202 Y55.892 E0.56168
G1 X83.409 Y55.369 E0.01692
G1 X83.718 Y54.927 E0.01623
G1 X84.116 Y54.567 E0.01612
G1 X84.584 Y54.306 E0.01612
G1 X85.103 Y54.156 E0.01623
G1 X108.325 Y51.129 E0.70444
G1 X141.004 Y51.123 E0.98297
G1 X141.948 Y51.320 E0.02901
G1 X148.818 Y54.522 E0.22800
G1 X171.916 Y71.091 E0.85506
G1 X172.435 Y71.619 E0.02225
G1 X172.767 Y72.284 E0.02236
G1 X172.877 Y72.996 E0.02169
G1 X172.877 Y149.804 E2.31035
G1 X172.804 Y150.384 E0.01760
G1 X172.590 Y150.933 E0.01771
G1 X172.313 Y151.338 E0.01475
G1 X171.959 Y151.677 E0.01475
G1 X171.542 Y151.936 E0.01475
G1 X171.082 Y152.105 E0.01475
G1 X141.127 Y158.874 E0.92375
G1 X108.363 Y158.873 E0.98554
G1 X85.177 Y155.855 E0.70330
G1 X84.367 Y155.590 E0.02564
G1 X83.712 Y155.050 E0.02552
G1 F5760
G1 X83.231 Y154.210 E-0.33532
G1 F5760
G1 X82.904 Y153.029 E-0.42468
G1 E-0.04000 F2100.00000
G1 X120.913 Y150.087 F7200.000
G1 E0.80000 F2100.00000
G1 F840
G1 X120.913 Y145.913 E0.12556
G1 X128.587 Y145.913 E0.23084
G1 X128.587 Y150.087 E0.12556
G1 X120.973 Y150.087 E0.22903
G1 X121.290 Y149.710 F7200.000
G1 F840
G1 X121.290 Y146.290 E0.10287
G1 X128.210 Y146.290 E0.20815
G1 X128.210 Y149.710 E0.10287
G1 X121.350 Y149.710 E0.20635
G1 X120.895 Y149.771 F7200.000
G1 F5760
G1 X121.312 Y147.516 E-0.76000
G1 E-0.04000 F2100.00000
G1 X120.913 Y112.913 F7200.000
G1 E0.80000 F2100.00000
G1 F840
G1 X128.587 Y112.913 E0.23084
G1 X128.587 Y117.087 E0.12556
G1 X120.913 Y117.087 E0.23084
G1 X120.913 Y112.973 E0.12375
G1 X121.290 Y113.290 F7200.000
G1 F840
G1 X128.210 Y113.290 E0.20815
G1 X128.210 Y116.710 E0.10287
G1 X121.290 Y116.710 E0.20815
G1 X121.290 Y113.350 E0.10107
G1 X121.145 Y112.917 F7200.000
G1 F5760
G1 X123.484 Y113.331 E-0.76000
G1 E-0.04000 F2100.00000
G1 X120.913 Y110.087 F7200.000
G1 E0.80000 F2100.00000
G1 F1680
G1 X128.587 Y110.087 E0.23084
G1 X128.587 Y107.087 E0.09024
G1 X140.413 Y107.087 E0.35572
G1 X140.413 Y110.087 E0.09024
G1 X146.913 Y110.087 E0.19552
G1 X146.913 Y112.913 E0.08500
G1 X140.413 Y112.913 E0.19552
G1 X140.413 Y117.087 E0.12556
G1 X146.913 Y117.087 E0.19552
G1 X146.913 Y145.913 E0.86708
G1 X140.413 Y145.913 E0.19552
G1 X140.413 Y150.087 E0.12556
G1 X146.913 Y150.087 E0.19552
G1 X146.913 Y152.913 E0.08500
G1 X140.413 Y152.913 E0.19552
G1 X140.413 Y155.913 E0.09024
G1 X128.587 Y155.913 E0.35572
G1 X128.587 Y152.913 E0.09024
G1 X120.913 Y152.913 E0.23084
G1 X120.913 Y155.913 E0.09024
G1 X109.087 Y155.913 E0.35572
G1 X109.087 Y152.913 E0.09024
G1 X86.087 Y152.913 E0.69184
G1 X86.087 Y150.087 E0.08500
G1 X109.087 Y150.087 E0.69184
G1 X109.087 Y145.913 E0.12556
G1 X86.087 Y145.913 E0.69184
G1 X86.087 Y136.113 E0.29478
G1 X82.320 Y136.113 E0.11332
G1 X82.320 Y127.687 E0.25345
G1 X86.087 Y127.687 E0.11332
G1 X86.087 Y117.087 E0.31885
G1 X109.087 Y117.087 E0.69184
G1 X109.087 Y112.913 E0.12556
G1 X86.087 Y112.913 E0.69184
G1 X86.087 Y110.087 E0.08500
G1 X109.087 Y110.087 E0.69184
G1 X109.087 Y107.087 E0.09024
G1 X120.913 Y107.087 E0.35572
G1 X120.913 Y110.027 E0.08843
G1 X121.290 Y109.710 F7200.000
G1 F1260
G1 X128.210 Y109.710 E0.20815
G1 X128.210 Y106.710 E0.09024
G1 X140.790 Y106.710 E0.37840
G1 X140.790 Y109.710 E0.09024
G1 X147.290 Y109.710 E0.19552
G1 X147.290 Y113.290 E0.10769
G1 X140.790 Y113.290 E0.19552
G1 X140.790 Y116.710 E0.10287
G1 X147.290 Y116.710 E0.19552
G1 X147.290 Y146.290 E0.88976
G1 X140.790 Y146.290 E0.19552
G1 X140.790 Y149.710 E0.10287
G1 X147.290 Y149.710 E0.19552
G1 X147.290 Y153.290 E0.10769
G1 X140.790 Y153.290 E0.19552
G1 X140.790 Y156.290 E0.09024
G1 X128.210 Y156.290 E0.37840
G1 X128.210 Y153.290 E0.09024
G1 X121.290 Y153.290 E0.20815
G1 X121.290 Y156.290 E0.09024
G1 X108.710 Y156.290 E0.37840
G1 X108.710 Y153.290 E0.09024
G1 X85.710 Y153.290 E0.69184
G1 X85.710 Y149.710 E0.10769
G1 X108.710 Y149.710 E0.69184
G1 X108.710 Y146.290 E0.10287
G1 X85.710 Y146.290 E0.69184
G1 X85.710 Y136.490 E0.29478
G1 X81.943 Y136.490 E0.11332
G1 X81.943 Y127.310 E0.27613
G1 X85.710 Y127.310 E0.11332
G1 X85.710 Y116.710 E0.31885
G1 X108.710 Y116.710 E0.69184
G1 X108.710 Y113.290 E0.10287
G1 X85.710 Y113.290 E0.69184
G1 X85.710 Y109.710 E0.10769
G1 X108.710 Y109.710 E0.69184
G1 X108.710 Y106.710 E0.09024
G1 X121.290 Y106.710 E0.37840
G1 X121.290 Y109.650 E0.08843
G1 X121.462 Y110.071 F7200.000
G1 F5760
G1 X123.484 Y109.669 E-0.76000
G1 E-0.04000 F2100.00000
G1 X120.800 Y107.975 F7200.000
G1 E0.80000 F2100.00000
G1 F1680
G1 X120.195 Y107.370 E0.02582
G1 X119.660 Y107.370 E0.01615
G1 X120.630 Y108.340 E0.04142
G1 X120.630 Y108.875 E0.01615
G1 X119.125 Y107.370 E0.06426
G1 X118.590 Y107.370 E0.01615
G1 X120.630 Y109.410 E0.08710
G1 X120.630 Y109.945 E0.01615
G1 X118.055 Y107.370 E0.10995
G1 X117.520 Y107.370 E0.01615
G1 X122.780 Y112.630 E0.22457
G1 X122.245 Y112.630 E0.01615
G1 X116.985 Y107.370 E0.22457
G1 X116.449 Y107.370 E0.01615
G1 X121.710 Y112.630 E0.22457
G1 X121.175 Y112.630 E0.01615
G1 X115.914 Y107.370 E0.22457
G1 X115.379 Y107.370 E0.01615
G1 X120.639 Y112.630 E0.22457
G1 X120.630 Y113.156 E0.01587
G1 X114.844 Y107.370 E0.24701
G1 X114.309 Y107.370 E0.01615
G1 X120.630 Y113.691 E0.26986
G1 X120.630 Y114.226 E0.01615
G1 X113.774 Y107.370 E0.29270
G1 X113.239 Y107.370 E0.01615
G1 X120.630 Y114.761 E0.31555
G1 X120.630 Y115.296 E0.01615
G1 X112.704 Y107.370 E0.33839
G1 X112.169 Y107.370 E0.01615
G1 X120.630 Y115.831 E0.36124
G1 X120.630 Y116.367 E0.01615
G1 X111.633 Y107.370 E0.38408
G1 X111.098 Y107.370 E0.01615
G1 X120.630 Y116.902 E0.40692
G1 X120.630 Y117.370 E0.01414
G1 X121.098 Y117.370 E0.01414
G1 X146.630 Y142.902 E1.08999
G1 X146.630 Y142.367 E0.01615
G1 X121.633 Y117.370 E1.06715
G1 X122.169 Y117.370 E0.01615
G1 X146.630 Y141.831 E1.04430
G1 X146.630 Y141.296 E0.01615
G1 X122.704 Y117.370 E1.02146
G1 X123.239 Y117.370 E0.01615
G1 X146.630 Y140.761 E0.99861
G1 X146.630 Y140.226 E0.01615
G1 X123.774 Y117.370 E0.97577
G1 X124.309 Y117.370 E0.01615
G1 X146.630 Y139.691 E0.95292
G1 X146.630 Y139.156 E0.01615
G1 X124.844 Y117.370 E0.93008
G1 X125.379 Y117.370 E0.01615
G1 X146.630 Y138.621 E0.90724
G1 X146.630 Y138.086 E0.01615
G1 X125.914 Y117.370 E0.88439
G1 X126.449 Y117.370 E0.01615
G1 X146.630 Y137.551 E0.86155
G1 X146.630 Y137.015 E0.01615
G1 X126.985 Y117.370 E0.83870
G1 X127.520 Y117.370 E0.01615
G1 X146.630 Y136.480 E0.81586
G1 X146.630 Y135.945 E0.01615
G1 X128.055 Y117.370 E0.79301
G1 X128.590 Y117.370 E0.01615
G1 X146.630 Y135.410 E0.77017
G1 X146.630 Y134.875 E0.01615
G1 X128.870 Y117.115 E0.75821
G1 X128.870 Y116.580 E0.01615
G1 X146.630 Y134.340 E0.75821
G1 X146.630 Y133.805 E0.01615
G1 X128.870 Y116.045 E0.75821
G1 X128.870 Y115.510 E0.01615
G1 X146.630 Y133.270 E0.75821
G1 X146.630 Y132.735 E0.01615
G1 X128.870 Y114.974 E0.75821
G1 X128.870 Y114.439 E0.01615
G1 X146.630 Y132.200 E0.75821
G1 X146.630 Y131.664 E0.01615
G1 X128.870 Y113.904 E0.75821
G1 X128.870 Y113.369 E0.01615
G1 X146.630 Y131.129 E0.75821
G1 X146.630 Y130.594 E0.01615
G1 X126.406 Y110.370 E0.86341
G1 X126.941 Y110.370 E0.01615
G1 X146.630 Y130.059 E0.84057
G1 X146.630 Y129.524 E0.01615
G1 X127.476 Y110.370 E0.81772
G1 X128.011 Y110.370 E0.01615
G1 X146.630 Y128.989 E0.79488
G1 X146.630 Y128.454 E0.01615
G1 X128.546 Y110.370 E0.77203
G1 X128.870 Y110.370 E0.00977
G1 X128.870 Y110.158 E0.00638
G1 X146.630 Y127.919 E0.75821
G1 X146.630 Y127.384 E0.01615
G1 X128.870 Y109.623 E0.75821
G1 X128.870 Y109.088 E0.01615
G1 X146.630 Y126.849 E0.75821
G1 X146.630 Y126.313 E0.01615
G1 X128.870 Y108.553 E0.75821
G1 X128.870 Y108.018 E0.01615
G1 X146.630 Y125.778 E0.75821
G1 X146.630 Y125.243 E0.01615
G1 X128.870 Y107.483 E0.75821
G1 X128.870 Y107.370 E0.00341
G1 X129.292 Y107.370 E0.01274
G1 X146.630 Y124.708 E0.74020
G1 X146.630 Y124.173 E0.01615
G1 X129.827 Y107.370 E0.71735
G1 X130.362 Y107.370 E0.01615
G1 X146.800 Y123.808 E0.70175
G1 F5760
G1 X145.248 Y122.256 E-0.76000
G1 E-0.04000 F2100.00000
G1 X146.800 Y117.922 F7200.000
G1 E0.80000 F2100.00000
G1 F1680
G1 X146.248 Y117.370 E0.02355
G1 X145.713 Y117.370 E0.01615
G1 X146.630 Y118.287 E0.03915
G1 X146.630 Y118.822 E0.01615
G1 X145.178 Y117.370 E0.06200
G1 X144.643 Y117.370 E0.01615
G1 X146.630 Y119.357 E0.08484
G1 X146.630 Y119.892 E0.01615
G1 X144.108 Y117.370 E0.10768
G1 X143.573 Y117.370 E0.01615
G1 X146.630 Y120.427 E0.13053
G1 X146.630 Y120.962 E0.01615
G1 X143.038 Y117.370 E0.15337
G1 X142.502 Y117.370 E0.01615
G1 X146.630 Y121.498 E0.17622
G1 X146.630 Y122.033 E0.01615
G1 X141.967 Y117.370 E0.19906
G1 X141.432 Y117.370 E0.01615
G1 X146.630 Y122.568 E0.22191
G1 X146.630 Y123.103 E0.01615
G1 X140.727 Y117.200 E0.25199
G1 X140.300 Y116.773 F7200.000
G1 F1680
G1 X130.897 Y107.370 E0.40141
G1 X131.432 Y107.370 E0.01615
G1 X140.130 Y116.068 E0.37133
G1 X140.130 Y115.533 E0.01615
G1 X131.967 Y107.370 E0.34848
G1 X132.502 Y107.370 E0.01615
G1 X140.130 Y114.998 E0.32564
G1 X140.130 Y114.462 E0.01615
G1 X133.038 Y107.370 E0.30279
G1 X133.573 Y107.370 E0.01615
G1 X140.130 Y113.927 E0.27995
G1 X140.130 Y113.392 E0.01615
G1 X134.108 Y107.370 E0.25710
G1 X134.643 Y107.370 E0.01615
G1 X140.130 Y112.857 E0.23426
G1 X140.130 Y112.630 E0.00685
G1 X140.438 Y112.630 E0.00930
G1 X135.178 Y107.370 E0.22457
G1 X135.713 Y107.370 E0.01615
G1 X140.973 Y112.630 E0.22457
G1 X141.508 Y112.630 E0.01615
G1 X136.248 Y107.370 E0.22457
G1 X136.783 Y107.370 E0.01615
G1 X142.044 Y112.630 E0.22457
G1 X142.579 Y112.630 E0.01615
G1 X137.318 Y107.370 E0.22457
G1 X137.853 Y107.370 E0.01615
G1 X140.130 Y109.647 E0.09719
G1 X140.130 Y109.111 E0.01615
G1 X138.389 Y107.370 E0.07435
G1 X138.924 Y107.370 E0.01615
G1 X140.130 Y108.576 E0.05151
G1 X140.130 Y108.041 E0.01615
G1 X139.459 Y107.370 E0.02866
G1 X139.994 Y107.370 E0.01615
G1 X140.300 Y107.676 E0.01306
G1 F5760
G1 X139.994 Y107.370 E-0.14986
G1 F5760
G1 X139.459 Y107.370 E-0.18533
G1 F5760
G1 X140.130 Y108.041 E-0.32884
G1 F5760
G1 X140.130 Y108.318 E-0.09597
G1 E-0.04000 F2100.00000
G1 X140.684 Y110.200 F7200.000
G1 E0.80000 F2100.00000
G1 F1680
G1 X143.114 Y112.630 E0.10374
G1 X143.649 Y112.630 E0.01615
G1 X141.389 Y110.370 E0.09649
G1 X141.924 Y110.370 E0.01615
G1 X144.184 Y112.630 E0.09649
G1 X144.719 Y112.630 E0.01615
G1 X142.459 Y110.370 E0.09649
G1 X142.994 Y110.370 E0.01615
G1 X145.254 Y112.630 E0.09649
G1 X145.789 Y112.630 E0.01615
G1 X143.529 Y110.370 E0.09649
G1 X144.064 Y110.370 E0.01615
G1 X146.324 Y112.630 E0.09649
G1 X146.630 Y112.630 E0.00923
G1 X146.630 Y112.401 E0.00692
G1 X144.599 Y110.370 E0.08670
G1 X145.134 Y110.370 E0.01615
G1 X146.630 Y111.866 E0.06386
G1 X146.630 Y111.331 E0.01615
G1 X145.669 Y110.370 E0.04102
G1 X146.204 Y110.370 E0.01615
G1 X146.800 Y110.965 E0.02542
G1 F5760
G1 X146.204 Y110.370 E-0.29160
G1 F5760
G1 X145.669 Y110.370 E-0.18533
G1 F5760
G1 X146.247 Y110.948 E-0.28306
G1 E-0.04000 F2100.00000
G1 X128.301 Y112.800 F7200.000
G1 E0.80000 F2100.00000
G1 F1680
G1 X125.871 Y110.370 E0.10374
G1 X125.336 Y110.370 E0.01615
G1 X127.596 Y112.630 E0.09649
G1 X127.061 Y112.630 E0.01615
G1 X124.800 Y110.370 E0.09649
G1 X124.265 Y110.370 E0.01615
G1 X126.526 Y112.630 E0.09649
G1 X125.990 Y112.630 E0.01615
G1 X123.730 Y110.370 E0.09649
G1 X123.195 Y110.370 E0.01615
G1 X125.455 Y112.630 E0.09649
G1 X124.920 Y112.630 E0.01615
G1 X122.660 Y110.370 E0.09649
G1 X122.125 Y110.370 E0.01615
G1 X124.385 Y112.630 E0.09649
G1 X123.850 Y112.630 E0.01615
G1 X121.590 Y110.370 E0.09649
G1 X121.055 Y110.370 E0.01615
G1 X123.485 Y112.800 E0.10374
G1 F5760
G1 X121.933 Y111.248 E-0.76000
G1 E-0.04000 F2100.00000
G1 X109.200 Y112.963 F7200.000
G1 E0.80000 F2100.00000
G1 F1680
G1 X141.867 Y145.630 E1.39461
G1 X141.332 Y145.630 E0.01615
G1 X109.370 Y113.668 E1.36452
G1 X109.370 Y114.203 E0.01615
G1 X140.797 Y145.630 E1.34167
G1 X140.262 Y145.630 E0.01615
G1 X109.370 Y114.738 E1.31883
G1 X109.370 Y115.273 E0.01615
G1 X140.130 Y146.033 E1.31320
G1 X140.130 Y146.569 E0.01615
G1 X109.370 Y115.808 E1.31320
G1 X109.370 Y116.343 E0.01615
G1 X140.130 Y147.104 E1.31320
G1 X140.130 Y147.639 E0.01615
G1 X109.370 Y116.878 E1.31320
G1 X109.370 Y117.370 E0.01483
G1 X109.326 Y117.370 E0.00132
G1 X140.130 Y148.174 E1.31507
G1 X140.130 Y148.709 E0.01615
G1 X108.791 Y117.370 E1.33791
G1 X108.256 Y117.370 E0.01615
G1 X140.130 Y149.244 E1.36076
G1 X140.130 Y149.779 E0.01615
G1 X107.721 Y117.370 E1.38360
G1 X107.186 Y117.370 E0.01615
G1 X142.446 Y152.630 E1.50532
G1 X142.981 Y152.630 E0.01615
G1 X140.721 Y150.370 E0.09649
G1 X141.256 Y150.370 E0.01615
G1 X143.516 Y152.630 E0.09649
G1 X144.051 Y152.630 E0.01615
G1 X141.791 Y150.370 E0.09649
G1 X142.326 Y150.370 E0.01615
G1 X144.586 Y152.630 E0.09649
G1 X145.122 Y152.630 E0.01615
G1 X142.861 Y150.370 E0.09649
G1 X143.396 Y150.370 E0.01615
G1 X145.657 Y152.630 E0.09649
G1 X146.192 Y152.630 E0.01615
G1 X143.931 Y150.370 E0.09649
G1 X144.467 Y150.370 E0.01615
G1 X146.630 Y152.533 E0.09237
G1 X146.630 Y151.998 E0.01615
G1 X145.002 Y150.370 E0.06952
G1 X145.537 Y150.370 E0.01615
G1 X146.630 Y151.463 E0.04668
G1 X146.630 Y150.928 E0.01615
G1 X146.072 Y150.370 E0.02383
G1 X146.607 Y150.370 E0.01615
G1 X146.800 Y150.563 E0.00823
G1 F5760
G1 X146.607 Y150.370 E-0.09446
G1 F5760
G1 X146.072 Y150.370 E-0.18533
G1 F5760
G1 X146.630 Y150.928 E-0.27345
G1 F5760
G1 X146.630 Y151.463 E-0.18533
G1 F5760
G1 X146.586 Y151.420 E-0.02142
G1 E-0.04000 F2100.00000
G1 X142.081 Y152.800 F7200.000
G1 E0.80000 F2100.00000
G1 F1680
G1 X106.651 Y117.370 E1.51256
G1 X106.116 Y117.370 E0.01615
G1 X141.376 Y152.630 E1.50532
G1 X140.841 Y152.630 E0.01615
G1 X105.580 Y117.370 E1.50532
G1 X105.045 Y117.370 E0.01615
G1 X140.306 Y152.630 E1.50532
G1 X140.130 Y152.630 E0.00530
G1 X140.130 Y152.990 E0.01086
G1 X104.510 Y117.370 E1.52067
G1 X103.975 Y117.370 E0.01615
G1 X140.130 Y153.525 E1.54351
G1 X140.130 Y154.060 E0.01615
G1 X103.440 Y117.370 E1.56636
G1 X102.905 Y117.370 E0.01615
G1 X140.130 Y154.595 E1.58920
G1 X140.130 Y155.130 E0.01615
G1 X102.370 Y117.370 E1.61205
G1 X101.835 Y117.370 E0.01615
G1 X140.095 Y155.630 E1.63339
G1 X139.560 Y155.630 E0.01615
G1 X101.300 Y117.370 E1.63339
G1 X100.765 Y117.370 E0.01615
G1 X139.025 Y155.630 E1.63339
G1 X138.490 Y155.630 E0.01615
G1 X128.870 Y146.010 E0.41069
G1 X128.870 Y146.545 E0.01615
G1 X137.955 Y155.630 E0.38784
G1 X137.419 Y155.630 E0.01615
G1 X128.870 Y147.081 E0.36500
G1 X128.870 Y147.616 E0.01615
G1 X136.884 Y155.630 E0.34215
G1 X136.349 Y155.630 E0.01615
G1 X128.870 Y148.151 E0.31931
G1 X128.870 Y148.686 E0.01615
G1 X135.814 Y155.630 E0.29646
G1 X135.279 Y155.630 E0.01615
G1 X128.870 Y149.221 E0.27362
G1 X128.870 Y149.756 E0.01615
G1 X134.744 Y155.630 E0.25078
G1 X134.209 Y155.630 E0.01615
G1 X128.870 Y150.291 E0.22793
G1 X128.870 Y150.370 E0.00238
G1 X128.414 Y150.370 E0.01378
G1 X133.674 Y155.630 E0.22457
G1 X133.139 Y155.630 E0.01615
G1 X127.878 Y150.370 E0.22457
G1 X127.343 Y150.370 E0.01615
G1 X132.604 Y155.630 E0.22457
G1 X132.068 Y155.630 E0.01615
G1 X126.808 Y150.370 E0.22457
G1 X126.273 Y150.370 E0.01615
G1 X131.533 Y155.630 E0.22457
G1 X130.998 Y155.630 E0.01615
G1 X128.870 Y153.502 E0.09086
G1 X128.870 Y154.037 E0.01615
G1 X130.463 Y155.630 E0.06802
