; generated by Slic3r 1.36.2-prusa3d on 2017-08-30 at 17:55:08

; 

; external perimeters extrusion width = 0.45mm
; perimeters extrusion width = 0.45mm
; infill extrusion width = 0.45mm
; solid infill extrusion width = 0.45mm
; top infill extrusion width = 0.45mm
; first layer extrusion width = 0.42mm

M107
M115 U3.0.12 ; tell printer latest fw version
M83  ; extruder relative mode
M104 S215 ; set extruder temp
M140 S55 ; set bed temp
M190 S55 ; wait for bed temp
M109 S215 ; wait for extruder temp
G28 W ; home all without mesh bed level
G80 ; mesh bed leveling
G1 Y-3.0 F1000.0 ; go outside pritn area
G1 X60.0 E9.0  F1000.0 ; intro line
G1 X100.0 E12.5  F1000.0 ; intro line
; Filament gcode

G21 ; set units to millimeters
G90 ; use absolute coordinates
M83 ; use relative distances for extrusion
G1 E-0.80000 F2100.00000
G1 Z0.200 F7200.000
G1 X111.322 Y105.993 F7200.000
G1 E0.80000 F2100.00000
M204 S1000
G1 F2100
G1 X111.251 Y104.913 E0.03257
G1 X111.368 Y104.020 E0.02709
G1 X111.599 Y103.268 E0.02365
G1 X111.955 Y102.541 E0.02437
G1 X112.396 Y101.913 E0.02307
G1 X126.618 Y85.994 E0.64211
G1 X127.346 Y85.356 E0.02911
G1 X131.852 Y82.176 E0.16591
G1 X132.560 Y81.857 E0.02335
G1 X133.329 Y81.748 E0.02335
G1 X134.058 Y81.848 E0.02213
G1 X135.826 Y82.438 E0.05606
G1 X136.485 Y82.752 E0.02197
G1 X137.081 Y83.165 E0.02182
G1 X137.712 Y83.793 E0.02678
G1 X138.173 Y84.467 E0.02456
G1 X138.530 Y85.284 E0.02680
G1 X138.721 Y86.150 E0.02669
G1 X138.747 Y123.936 E1.13660
G1 X138.538 Y125.083 E0.03506
G1 X138.048 Y126.131 E0.03481
G1 X137.301 Y127.032 E0.03519
G1 X136.421 Y127.673 E0.03276
G1 X135.594 Y128.033 E0.02712
G1 X134.675 Y128.227 E0.02825
G1 X130.865 Y128.245 E0.11461
G1 X130.007 Y128.118 E0.02607
G1 X129.269 Y127.867 E0.02346
G1 X128.506 Y127.441 E0.02629
G1 X127.895 Y126.933 E0.02390
G1 X113.607 Y110.955 E0.64474
G1 X113.051 Y110.116 E0.03029
G1 X111.601 Y106.984 E0.10381
G1 X111.338 Y106.051 E0.02918
G1 X111.702 Y105.950 F7200.000
G1 F2100
G1 X111.634 Y104.813 E0.03425
G1 X111.744 Y104.064 E0.02278
G1 X111.962 Y103.374 E0.02177
G1 X112.287 Y102.719 E0.02198
G1 X112.697 Y102.140 E0.02134
G1 X126.895 Y86.250 E0.64098
G1 X127.570 Y85.659 E0.02698
G1 X132.043 Y82.502 E0.16469
G1 X132.657 Y82.221 E0.02033
G1 X133.330 Y82.126 E0.02044
G1 X133.970 Y82.214 E0.01942
G1 X135.695 Y82.791 E0.05473
G1 X136.296 Y83.079 E0.02005
G1 X136.841 Y83.455 E0.01991
G1 X137.421 Y84.033 E0.02465
G1 X137.845 Y84.653 E0.02256
G1 X138.174 Y85.408 E0.02479
G1 X138.349 Y86.214 E0.02480
G1 X138.371 Y123.917 E1.13411
G1 X138.174 Y124.983 E0.03260
G1 X137.709 Y125.963 E0.03262
G1 X137.008 Y126.789 E0.03259
G1 X136.129 Y127.402 E0.03223
G1 X135.345 Y127.714 E0.02539
G1 X134.600 Y127.855 E0.02280
G1 X130.883 Y127.869 E0.11180
G1 X130.094 Y127.751 E0.02400
G1 X129.416 Y127.520 E0.02155
G1 X128.714 Y127.126 E0.02421
G1 X128.154 Y126.659 E0.02194
G1 X113.891 Y110.707 E0.64366
G1 X113.385 Y109.942 E0.02758
G1 X111.948 Y106.834 E0.10302
G1 X111.719 Y106.007 E0.02579
G1 F5760
G1 X111.634 Y104.813 E-0.41470
G1 F5760
G1 X111.744 Y104.064 E-0.26233
G1 F5760
G1 X111.816 Y103.835 E-0.08297
G1 E-0.04000 F2100.00000
G1 X129.286 Y106.992 F7200.000
G1 E0.80000 F2100.00000
G1 F840
G1 X129.640 Y107.150 E0.01168
G1 X129.913 Y107.208 E0.00837
G1 X129.913 Y108.118 E0.02736
G1 X129.967 Y108.409 E0.00889
G1 X130.126 Y108.721 E0.01053
G1 X130.308 Y108.923 E0.00819
G1 X130.552 Y109.090 E0.00889
G1 X130.791 Y109.182 E0.00772
G1 X131.022 Y109.219 E0.00702
G1 X134.238 Y109.220 E0.09674
G1 X134.500 Y109.185 E0.00796
G1 X134.747 Y109.090 E0.00795
G1 X134.997 Y108.918 E0.00913
G1 X135.199 Y108.682 E0.00936
G1 X135.333 Y108.401 E0.00936
G1 X135.386 Y108.118 E0.00867
G1 X135.382 Y102.109 E0.18075
G1 X135.403 Y102.223 E0.00350
G1 X135.410 Y108.081 E0.17620
G1 X135.368 Y108.346 E0.00806
G1 X135.277 Y108.582 E0.00761
G1 X135.135 Y108.800 E0.00784
G1 X135.005 Y108.937 E0.00568
G1 X134.812 Y109.078 E0.00719
G1 X134.641 Y109.159 E0.00568
G1 X134.381 Y109.229 E0.00811
G1 X134.177 Y109.245 E0.00617
G1 X131.052 Y109.243 E0.09398
G1 X130.790 Y109.202 E0.00797
G1 X130.550 Y109.111 E0.00773
G1 X130.396 Y109.018 E0.00541
G1 X130.247 Y108.894 E0.00584
G1 X130.063 Y108.659 E0.00897
G1 X129.311 Y107.047 E0.05351
G1 F5760
G1 X129.640 Y107.150 E-0.11959
G1 F5760
G1 X129.913 Y107.208 E-0.09640
G1 F5760
G1 X129.913 Y108.118 E-0.31508
G1 F5760
G1 X129.967 Y108.409 E-0.10236
G1 F5760
G1 X130.126 Y108.721 E-0.12128
G1 F5760
G1 X130.136 Y108.732 E-0.00530
G1 E-0.04000 F2100.00000
G1 X133.913 Y101.011 F7200.000
G1 E0.80000 F2100.00000
G1 F840
G1 X133.913 Y100.982 E0.00087
G1 X134.552 Y101.195 E0.02025
G1 X134.809 Y101.313 E0.00850
G1 X133.970 Y101.030 E0.02663
G1 X133.536 Y101.282 F7200.000
G1 F1050
G1 X133.536 Y100.459 E0.02475
G1 X134.679 Y100.840 E0.03626
G1 X134.854 Y100.908 E0.00563
G1 X135.073 Y101.028 E0.00752
G1 X135.269 Y101.180 E0.00746
G1 X135.439 Y101.361 E0.00746
G1 X135.578 Y101.566 E0.00746
G1 X135.685 Y101.791 E0.00751
G1 X135.735 Y101.945 E0.00484
G1 X135.780 Y102.188 E0.00746
G1 X135.787 Y108.110 E0.17813
G1 X135.734 Y108.444 E0.01015
G1 X135.615 Y108.754 E0.00999
G1 X135.433 Y109.035 E0.01008
G1 X135.262 Y109.215 E0.00747
G1 X134.997 Y109.408 E0.00986
G1 X134.772 Y109.515 E0.00747
G1 X134.445 Y109.602 E0.01019
G1 X134.191 Y109.622 E0.00766
G1 X131.023 Y109.620 E0.09530
G1 X130.694 Y109.569 E0.01002
G1 X130.385 Y109.452 E0.00994
G1 X130.176 Y109.326 E0.00732
G1 X129.986 Y109.167 E0.00745
G1 X129.878 Y109.050 E0.00481
G1 X129.736 Y108.849 E0.00740
G1 X128.363 Y105.908 E0.09761
G1 X128.243 Y105.491 E0.01306
G1 X128.211 Y105.063 E0.01290
G1 X128.267 Y104.638 E0.01290
G1 X128.410 Y104.231 E0.01298
G1 X128.568 Y103.953 E0.00960
G1 X128.768 Y103.701 E0.00969
G1 X129.004 Y103.483 E0.00969
G1 X129.272 Y103.303 E0.00969
G1 X129.563 Y103.167 E0.00969
G1 X129.873 Y103.077 E0.00969
G1 X130.289 Y103.034 E0.01260
G1 X130.289 Y103.375 E0.01024
G1 X130.114 Y103.379 E0.00529
G1 X129.758 Y103.455 E0.01095
G1 X129.423 Y103.604 E0.01103
G1 X129.126 Y103.819 E0.01103
G1 X128.881 Y104.092 E0.01103
G1 X128.698 Y104.409 E0.01103
G1 X128.584 Y104.758 E0.01103
G1 X128.546 Y105.122 E0.01103
G1 X128.584 Y105.487 E0.01103
G1 X128.698 Y105.835 E0.01103
G1 X128.881 Y106.153 E0.01103
G1 X129.126 Y106.425 E0.01103
G1 X129.423 Y106.641 E0.01103
G1 X129.758 Y106.790 E0.01103
G1 X130.114 Y106.865 E0.01095
G1 X130.289 Y106.870 E0.00529
G1 X130.290 Y108.083 E0.03650
G1 X130.328 Y108.286 E0.00621
G1 X130.439 Y108.505 E0.00739
G1 X130.558 Y108.637 E0.00535
G1 X130.729 Y108.754 E0.00621
G1 X130.889 Y108.816 E0.00519
G1 X131.051 Y108.842 E0.00493
G1 X134.213 Y108.842 E0.09510
G1 X134.407 Y108.817 E0.00587
G1 X134.570 Y108.754 E0.00527
G1 X134.743 Y108.636 E0.00629
G1 X134.880 Y108.475 E0.00637
G1 X134.971 Y108.283 E0.00638
G1 X135.009 Y108.083 E0.00613
G1 X135.004 Y102.108 E0.17972
G1 X134.899 Y101.852 E0.00834
G1 X134.689 Y101.671 E0.00833
G1 X133.593 Y101.301 E0.03482
G1 X133.780 Y100.965 F7200.000
G1 F5760
G1 X133.536 Y100.459 E-0.29228
G1 F5760
G1 X134.679 Y100.840 E-0.41751
G1 F5760
G1 X134.815 Y100.892 E-0.05021
G1 E-0.04000 F2100.00000
G1 X134.970 Y101.414 F7200.000
G1 E0.80000 F2100.00000
G1 F1680
G1 X135.169 Y101.608 E0.00701
G1 X135.256 Y101.749 E0.00420
G1 X135.512 Y101.870 E0.00715
G1 F5760
G1 X135.256 Y101.749 E-0.09811
G1 F5760
G1 X135.169 Y101.608 E-0.05758
G1 F5760
G1 X134.970 Y101.414 E-0.09617
G1 E-0.54814 F2100.00000
G1 X129.141 Y106.697 F7200.000
G1 E0.80000 F2100.00000
G1 F1680
G1 X128.940 Y106.576 E0.00053
G1 X128.829 Y106.409 E0.00045
G1 F5760
G1 X128.940 Y106.576 E-0.06936
G1 F5760
G1 X129.141 Y106.697 E-0.08132
G1 E-0.64931 F2100.00000
G1 X121.403 Y102.223 F7200.000
G1 E0.80000 F2100.00000
G1 F840
G1 X121.410 Y108.081 E0.17620
G1 X121.368 Y108.346 E0.00806
G1 X121.278 Y108.582 E0.00761
G1 X121.136 Y108.800 E0.00784
G1 X120.912 Y109.013 E0.00928
G1 X120.642 Y109.159 E0.00925
G1 X120.382 Y109.229 E0.00811
G1 X120.177 Y109.245 E0.00617
G1 X117.053 Y109.243 E0.09398
G1 X116.791 Y109.202 E0.00797
G1 X116.551 Y109.111 E0.00773
G1 X116.397 Y109.018 E0.00541
G1 X116.248 Y108.894 E0.00584
G1 X116.064 Y108.659 E0.00897
G1 X115.286 Y106.992 E0.05531
G1 X115.641 Y107.150 E0.01168
G1 X115.913 Y107.208 E0.00837
G1 X115.914 Y108.118 E0.02736
G1 X115.968 Y108.409 E0.00889
G1 X116.127 Y108.721 E0.01053
G1 X116.309 Y108.923 E0.00819
G1 X116.552 Y109.090 E0.00889
G1 X116.792 Y109.182 E0.00772
G1 X117.022 Y109.219 E0.00702
G1 X120.238 Y109.220 E0.09674
G1 X120.501 Y109.185 E0.00796
G1 X120.748 Y109.090 E0.00795
G1 X120.998 Y108.918 E0.00913
G1 X121.200 Y108.682 E0.00936
G1 X121.334 Y108.401 E0.00936
G1 X121.386 Y108.118 E0.00867
G1 X121.382 Y102.109 E0.18075
G1 X121.392 Y102.164 E0.00169
G1 F5760
G1 X121.399 Y104.358 E-0.76000
G1 E-0.04000 F2100.00000
G1 X120.809 Y101.313 F7200.000
G1 E0.80000 F2100.00000
G1 F840
G1 X119.914 Y101.011 E0.02843
G1 X119.914 Y100.982 E0.00087
G1 X120.552 Y101.195 E0.02025
G1 X120.757 Y101.284 E0.00670
G1 F5760
G1 X119.914 Y101.011 E-0.30693
G1 F5760
G1 X119.914 Y100.982 E-0.01000
G1 F5760
G1 X120.552 Y101.195 E-0.23322
G1 F5760
G1 X120.757 Y101.284 E-0.07718
G1 E-0.17267 F2100.00000
G1 X119.536 Y100.459 F7200.000
G1 E0.80000 F2100.00000
G1 F1050
G1 X120.680 Y100.840 E0.03626
G1 X120.855 Y100.908 E0.00563
G1 X121.074 Y101.028 E0.00752
G1 X121.269 Y101.180 E0.00746
G1 X121.439 Y101.361 E0.00746
G1 X121.579 Y101.566 E0.00746
G1 X121.686 Y101.791 E0.00751
G1 X121.735 Y101.945 E0.00484
G1 X121.780 Y102.188 E0.00746
G1 X121.788 Y108.110 E0.17813
G1 X121.735 Y108.444 E0.01015
G1 X121.616 Y108.754 E0.00999
G1 X121.433 Y109.035 E0.01008
G1 X121.262 Y109.215 E0.00747
G1 X120.997 Y109.408 E0.00986
G1 X120.773 Y109.515 E0.00747
G1 X120.446 Y109.602 E0.01019
G1 X120.192 Y109.622 E0.00766
G1 X117.023 Y109.620 E0.09530
G1 X116.694 Y109.569 E0.01002
G1 X116.385 Y109.452 E0.00994
G1 X116.177 Y109.326 E0.00732
G1 X115.987 Y109.167 E0.00745
G1 X115.879 Y109.050 E0.00481
G1 X115.737 Y108.849 E0.00740
G1 X114.364 Y105.908 E0.09761
G1 X114.244 Y105.491 E0.01306
G1 X114.212 Y105.063 E0.01290
G1 X114.268 Y104.638 E0.01290
G1 X114.411 Y104.231 E0.01298
G1 X114.568 Y103.953 E0.00960
G1 X114.768 Y103.701 E0.00969
G1 X115.005 Y103.483 E0.00969
G1 X115.272 Y103.303 E0.00969
G1 X115.564 Y103.167 E0.00969
G1 X115.873 Y103.077 E0.00969
G1 X116.290 Y103.034 E0.01260
G1 X116.290 Y103.375 E0.01024
G1 X116.114 Y103.379 E0.00529
G1 X115.758 Y103.455 E0.01095
G1 X115.423 Y103.604 E0.01103
G1 X115.127 Y103.819 E0.01103
G1 X114.881 Y104.092 E0.01103
G1 X114.698 Y104.409 E0.01103
G1 X114.585 Y104.758 E0.01103
G1 X114.547 Y105.122 E0.01103
G1 X114.585 Y105.487 E0.01103
G1 X114.698 Y105.835 E0.01103
G1 X114.881 Y106.153 E0.01103
G1 X115.127 Y106.425 E0.01103
G1 X115.423 Y106.641 E0.01103
G1 X115.758 Y106.790 E0.01103
G1 X116.114 Y106.865 E0.01095
G1 X116.290 Y106.870 E0.00529
G1 X116.291 Y108.083 E0.03650
G1 X116.328 Y108.286 E0.00621
G1 X116.440 Y108.505 E0.00739
G1 X116.559 Y108.637 E0.00535
G1 X116.729 Y108.754 E0.00621
G1 X116.890 Y108.816 E0.00519
G1 X117.052 Y108.842 E0.00493
G1 X120.214 Y108.842 E0.09510
G1 X120.407 Y108.817 E0.00587
G1 X120.571 Y108.754 E0.00527
G1 X120.743 Y108.636 E0.00629
G1 X120.881 Y108.475 E0.00637
G1 X120.972 Y108.283 E0.00638
G1 X121.009 Y108.083 E0.00613
G1 X121.005 Y102.108 E0.17972
G1 X120.900 Y101.852 E0.00834
G1 X120.690 Y101.671 E0.00833
G1 X119.536 Y101.282 E0.03662
G1 X119.536 Y100.519 E0.02294
G1 X119.890 Y100.645 F7200.000
G1 F5760
G1 X120.680 Y100.840 E-0.41141
G1 F5760
G1 X120.855 Y100.908 E-0.06481
G1 F5760
G1 X121.074 Y101.028 E-0.08664
G1 F5760
G1 X121.269 Y101.180 E-0.08586
G1 F5760
G1 X121.439 Y101.361 E-0.08586
G1 F5760
G1 X121.481 Y101.422 E-0.02543
G1 E-0.04000 F2100.00000
G1 X120.971 Y101.414 F7200.000
G1 E0.80000 F2100.00000
G1 F1680
G1 X121.170 Y101.608 E0.00701
G1 X121.257 Y101.749 E0.00420
G1 X121.513 Y101.870 E0.00715
G1 F5760
G1 X121.257 Y101.749 E-0.09811
G1 F5760
G1 X121.170 Y101.608 E-0.05758
G1 F5760
G1 X120.971 Y101.414 E-0.09617
G1 E-0.54814 F2100.00000
G1 X115.141 Y106.697 F7200.000
G1 E0.80000 F2100.00000
G1 F1680
G1 X114.940 Y106.576 E0.00053
G1 X114.830 Y106.409 E0.00045
G1 F5760
G1 X114.940 Y106.576 E-0.06936
G1 F5760
G1 X115.141 Y106.697 E-0.08132
G1 E-0.64931 F2100.00000
G1 X129.286 Y122.657 F7200.000
G1 E0.80000 F2100.00000
G1 F840
G1 X129.640 Y122.815 E0.01168
G1 X129.913 Y122.873 E0.00837
G1 X129.913 Y123.783 E0.02736
G1 X129.967 Y124.073 E0.00889
G1 X130.126 Y124.385 E0.01053
G1 X130.308 Y124.588 E0.00819
G1 X130.552 Y124.755 E0.00889
G1 X130.791 Y124.847 E0.00772
G1 X131.022 Y124.884 E0.00702
G1 X134.238 Y124.884 E0.09674
G1 X134.500 Y124.850 E0.00796
G1 X134.747 Y124.755 E0.00795
G1 X134.997 Y124.583 E0.00913
G1 X135.199 Y124.347 E0.00936
G1 X135.333 Y124.066 E0.00936
G1 X135.386 Y123.783 E0.00867
G1 X135.382 Y117.774 E0.18075
G1 X135.403 Y117.888 E0.00350
G1 X135.410 Y123.746 E0.17620
G1 X135.368 Y124.010 E0.00806
G1 X135.277 Y124.247 E0.00761
G1 X135.135 Y124.465 E0.00784
G1 X135.005 Y124.602 E0.00568
G1 X134.812 Y124.743 E0.00719
G1 X134.641 Y124.824 E0.00568
G1 X134.381 Y124.894 E0.00811
G1 X134.177 Y124.910 E0.00617
G1 X131.052 Y124.908 E0.09398
G1 X130.790 Y124.867 E0.00797
G1 X130.550 Y124.776 E0.00773
G1 X130.396 Y124.683 E0.00541
G1 X130.247 Y124.559 E0.00584
G1 X130.063 Y124.324 E0.00897
G1 X129.311 Y122.712 E0.05351
G1 F5760
G1 X129.640 Y122.815 E-0.11959
G1 F5760
G1 X129.913 Y122.873 E-0.09640
G1 F5760
G1 X129.913 Y123.783 E-0.31508
G1 F5760
G1 X129.967 Y124.073 E-0.10236
G1 F5760
G1 X130.126 Y124.385 E-0.12128
G1 F5760
G1 X130.136 Y124.397 E-0.00530
G1 E-0.04000 F2100.00000
G1 X133.913 Y116.676 F7200.000
G1 E0.80000 F2100.00000
G1 F840
G1 X133.913 Y116.647 E0.00087
G1 X134.552 Y116.860 E0.02025
G1 X134.809 Y116.978 E0.00850
G1 X133.970 Y116.695 E0.02663
G1 X133.536 Y116.947 F7200.000
G1 F1050
G1 X133.536 Y116.124 E0.02475
G1 X134.679 Y116.505 E0.03626
G1 X134.854 Y116.572 E0.00563
G1 X135.073 Y116.693 E0.00752
G1 X135.269 Y116.845 E0.00746
G1 X135.439 Y117.026 E0.00746
G1 X135.578 Y117.231 E0.00746
G1 X135.685 Y117.456 E0.00751
G1 X135.735 Y117.609 E0.00484
G1 X135.780 Y117.853 E0.00746
G1 X135.787 Y123.775 E0.17813
G1 X135.734 Y124.109 E0.01015
G1 X135.615 Y124.419 E0.00999
G1 X135.433 Y124.700 E0.01008
G1 X135.262 Y124.880 E0.00747
G1 X134.997 Y125.073 E0.00986
G1 X134.772 Y125.180 E0.00747
G1 X134.445 Y125.267 E0.01019
G1 X134.191 Y125.287 E0.00766
G1 X131.023 Y125.285 E0.09530
G1 X130.694 Y125.234 E0.01002
G1 X130.385 Y125.117 E0.00994
G1 X130.176 Y124.991 E0.00732
G1 X129.986 Y124.832 E0.00745
G1 X129.878 Y124.715 E0.00481
G1 X129.736 Y124.514 E0.00740
G1 X128.363 Y121.573 E0.09761
G1 X128.243 Y121.156 E0.01306
G1 X128.211 Y120.728 E0.01290
G1 X128.267 Y120.303 E0.01290
G1 X128.410 Y119.896 E0.01298
G1 X128.568 Y119.618 E0.00960
G1 X128.768 Y119.366 E0.00969
G1 X129.004 Y119.147 E0.00969
G1 X129.272 Y118.968 E0.00969
G1 X129.563 Y118.832 E0.00969
G1 X129.873 Y118.742 E0.00969
G1 X130.289 Y118.699 E0.01260
G1 X130.289 Y119.040 E0.01024
G1 X130.114 Y119.044 E0.00529
G1 X129.758 Y119.120 E0.01095
G1 X129.423 Y119.269 E0.01103
G1 X129.126 Y119.484 E0.01103
G1 X128.881 Y119.756 E0.01103
G1 X128.698 Y120.074 E0.01103
G1 X128.584 Y120.423 E0.01103
G1 X128.546 Y120.787 E0.01103
G1 X128.584 Y121.152 E0.01103
G1 X128.698 Y121.500 E0.01103
G1 X128.881 Y121.818 E0.01103
G1 X129.126 Y122.090 E0.01103
G1 X129.423 Y122.306 E0.01103
G1 X129.758 Y122.455 E0.01103
G1 X130.114 Y122.530 E0.01095
G1 X130.289 Y122.535 E0.00529
G1 X130.290 Y123.748 E0.03650
G1 X130.328 Y123.951 E0.00621
G1 X130.439 Y124.170 E0.00739
G1 X130.558 Y124.302 E0.00535
G1 X130.729 Y124.419 E0.00621
G1 X130.889 Y124.481 E0.00519
G1 X131.051 Y124.507 E0.00493
G1 X134.213 Y124.507 E0.09510
G1 X134.407 Y124.482 E0.00587
G1 X134.570 Y124.419 E0.00527
G1 X134.743 Y124.301 E0.00629
G1 X134.880 Y124.140 E0.00637
G1 X134.971 Y123.948 E0.00638
G1 X135.009 Y123.748 E0.00613
G1 X135.004 Y117.773 E0.17972
G1 X134.899 Y117.517 E0.00834
G1 X134.689 Y117.336 E0.00833
G1 X133.593 Y116.966 E0.03482
G1 X133.780 Y116.630 F7200.000
G1 F5760
G1 X133.536 Y116.124 E-0.29228
G1 F5760
