; generated by Slic3r 1.36.2-prusa3d on 2017-08-29 at 13:46:11

; 

; external perimeters extrusion width = 0.45mm
; perimeters extrusion width = 0.45mm
; infill extrusion width = 0.45mm
; solid infill extrusion width = 0.45mm
; top infill extrusion width = 0.45mm
; first layer extrusion width = 0.42mm

M107
M115 U3.0.12 ; tell printer latest fw version
M83  ; extruder relative mode
M104 S215 ; set extruder temp
M140 S55 ; set bed temp
M190 S55 ; wait for bed temp
M109 S215 ; wait for extruder temp
G28 W ; home all without mesh bed level
G80 ; mesh bed leveling
G1 Y-3.0 F1000.0 ; go outside pritn area
G1 X60.0 E9.0  F1000.0 ; intro line
G1 X100.0 E12.5  F1000.0 ; intro line
; Filament gcode

G21 ; set units to millimeters
G90 ; use absolute coordinates
M83 ; use relative distances for extrusion
G1 E-0.80000 F2100.00000
G1 Z0.200 F7200.000
G1 X120.311 Y99.972 F7200.000
G1 E0.80000 F2100.00000
M204 S1000
G1 F900
G1 X120.724 Y99.533 E0.01812
G1 X121.295 Y99.125 E0.02111
G1 X124.498 Y97.402 E0.10943
G1 X125.297 Y97.134 E0.02533
G1 X126.125 Y97.043 E0.02505
G1 X126.746 Y97.099 E0.01878
G1 X127.377 Y97.272 E0.01969
G1 X127.939 Y97.549 E0.01884
G1 X128.448 Y97.932 E0.01916
G1 X129.593 Y99.349 E0.05481
G1 X130.600 Y101.148 E0.06201
G1 X131.273 Y103.042 E0.06044
G1 X131.596 Y104.764 E0.05271
G1 X131.656 Y106.785 E0.06080
G1 X131.373 Y108.807 E0.06142
G1 X130.946 Y110.259 E0.04552
G1 X130.501 Y111.129 E0.02939
G1 X129.767 Y111.956 E0.03326
G1 X128.832 Y112.563 E0.03354
G1 X128.062 Y112.836 E0.02457
G1 X127.263 Y112.952 E0.02430
G1 X123.484 Y112.955 E0.11367
G1 X122.712 Y112.865 E0.02338
G1 X121.819 Y112.565 E0.02833
G1 X121.030 Y112.080 E0.02787
G1 X120.354 Y111.413 E0.02855
G1 X119.845 Y110.602 E0.02880
G1 X119.600 Y109.950 E0.02094
G1 X118.416 Y105.590 E0.13592
G1 X118.327 Y104.737 E0.02580
G1 X118.417 Y103.881 E0.02586
G1 X118.707 Y103.008 E0.02769
G1 X119.989 Y100.468 E0.08559
G1 X120.278 Y100.022 E0.01597
G1 X120.975 Y99.814 F7200.000
G1 F900
G1 X121.482 Y99.452 E0.01874
G1 X124.623 Y97.760 E0.10730
G1 X125.361 Y97.506 E0.02350
G1 X126.126 Y97.421 E0.02314
G1 X126.738 Y97.481 E0.01851
G1 X127.283 Y97.641 E0.01709
G1 X127.816 Y97.917 E0.01804
G1 X128.265 Y98.278 E0.01734
G1 X129.479 Y99.863 E0.06006
G1 X130.398 Y101.630 E0.05989
G1 X130.930 Y103.222 E0.05049
G1 X131.256 Y105.153 E0.05891
G1 X131.276 Y106.809 E0.04981
G1 X131.001 Y108.744 E0.05881
G1 X130.595 Y110.123 E0.04323
G1 X130.188 Y110.918 E0.02688
G1 X129.512 Y111.678 E0.03058
G1 X128.642 Y112.235 E0.03111
G1 X127.953 Y112.475 E0.02192
G1 X127.227 Y112.576 E0.02206
G1 X123.490 Y112.578 E0.11239
G1 X122.775 Y112.493 E0.02169
G1 X121.955 Y112.212 E0.02606
G1 X121.220 Y111.749 E0.02614
G1 X120.628 Y111.151 E0.02530
G1 X120.170 Y110.408 E0.02626
G1 X118.784 Y105.510 E0.15312
G1 X118.704 Y104.717 E0.02397
G1 X118.796 Y103.912 E0.02438
G1 X119.056 Y103.152 E0.02415
G1 X120.324 Y100.641 E0.08461
G1 X120.938 Y99.861 E0.02986
G1 X121.224 Y100.097 F7200.000
G1 F900
G1 X121.670 Y99.779 E0.01649
G1 X124.777 Y98.104 E0.10615
G1 X125.440 Y97.875 E0.02111
G1 X126.124 Y97.798 E0.02070
G1 X126.649 Y97.847 E0.01588
G1 X127.166 Y98.000 E0.01622
G1 X127.643 Y98.255 E0.01625
G1 X128.044 Y98.590 E0.01573
G1 X129.177 Y100.091 E0.05657
G1 X130.063 Y101.807 E0.05809
G1 X130.636 Y103.613 E0.05700
G1 X130.882 Y105.201 E0.04831
G1 X130.900 Y106.799 E0.04807
G1 X130.628 Y108.682 E0.05724
G1 X130.241 Y109.991 E0.04105
G1 X129.871 Y110.715 E0.02445
G1 X129.225 Y111.426 E0.02891
G1 X128.423 Y111.920 E0.02833
G1 X127.835 Y112.115 E0.01862
G1 X127.190 Y112.200 E0.01959
G1 X123.493 Y112.201 E0.11119
G1 X122.799 Y112.112 E0.02105
G1 X122.087 Y111.857 E0.02274
G1 X121.422 Y111.428 E0.02382
G1 X120.879 Y110.859 E0.02364
G1 X120.484 Y110.187 E0.02344
G1 X119.153 Y105.430 E0.14859
G1 X119.081 Y104.712 E0.02172
G1 X119.170 Y103.971 E0.02244
G1 X119.401 Y103.305 E0.02120
G1 X120.655 Y100.822 E0.08368
G1 X121.187 Y100.145 E0.02590
G1 F5760
G1 X121.670 Y99.779 E-0.20984
G1 F5760
G1 X123.068 Y99.025 E-0.55016
G1 E-0.04000 F2100.00000
G1 X122.452 Y106.277 F7200.000
G1 E0.80000 F2100.00000
G1 F840
G1 X122.663 Y106.372 E0.00695
G1 X123.226 Y106.936 E0.02397
G1 X123.237 Y108.029 E0.03290
G1 X123.354 Y108.465 E0.01357
G1 X123.566 Y108.849 E0.01319
G1 X123.783 Y109.098 E0.00995
G1 X123.956 Y109.238 E0.00668
G1 X123.615 Y109.238 E0.01026
G1 X123.454 Y109.216 E0.00489
G1 X123.305 Y109.132 E0.00514
G1 X123.191 Y108.968 E0.00601
G1 X122.468 Y106.335 E0.08213
G1 F5760
G1 X122.663 Y106.372 E-0.06867
G1 F5760
G1 X123.226 Y106.936 E-0.27600
G1 F5760
G1 X123.237 Y108.029 E-0.37885
G1 F5760
G1 X123.264 Y108.131 E-0.03648
G1 E-0.04000 F2100.00000
G1 X122.807 Y103.134 F7200.000
G1 E0.80000 F2100.00000
G1 F840
G1 X123.172 Y102.413 E0.02431
G1 X123.224 Y102.413 E0.00157
G1 X123.224 Y102.717 E0.00916
G1 X122.850 Y103.092 E0.01592
G1 F5760
G1 X123.172 Y102.413 E-0.26020
G1 F5760
G1 X123.224 Y102.413 E-0.01805
G1 F5760
G1 X123.224 Y102.717 E-0.10546
G1 F5760
G1 X122.850 Y103.092 E-0.18328
G1 E-0.23302 F2100.00000
G1 X126.131 Y101.406 F7200.000
G1 E0.80000 F2100.00000
G1 F840
G1 X126.082 Y100.856 E0.01658
G1 X126.528 Y101.458 E0.02253
G1 X126.443 Y101.427 E0.00272
G1 X126.191 Y101.405 E0.00762
G1 X125.787 Y101.803 F7200.000
G1 F900
G1 X125.685 Y100.621 E0.03566
G1 X125.726 Y100.555 E0.00234
G1 X125.841 Y100.467 E0.00436
G1 X125.997 Y100.403 E0.00508
G1 X126.176 Y100.394 E0.00538
G1 X126.467 Y100.729 E0.01337
G1 X126.820 Y101.213 E0.01802
G1 X127.289 Y101.986 E0.02719
G1 X127.554 Y102.522 E0.01800
G1 X127.783 Y103.078 E0.01806
G1 X127.973 Y103.647 E0.01806
G1 X128.123 Y104.228 E0.01806
G1 X128.234 Y104.818 E0.01806
G1 X128.303 Y105.409 E0.01789
G1 X128.330 Y106.316 E0.02730
G1 X128.297 Y106.914 E0.01800
G1 X128.223 Y107.509 E0.01806
G1 X128.108 Y108.099 E0.01806
G1 X127.953 Y108.679 E0.01806
G1 X127.796 Y109.137 E0.01458
G1 X127.679 Y109.329 E0.00676
G1 X127.481 Y109.500 E0.00788
G1 X127.234 Y109.598 E0.00799
G1 X127.061 Y109.615 E0.00522
G1 X123.589 Y109.615 E0.10444
G1 X123.357 Y109.583 E0.00704
G1 X123.212 Y109.526 E0.00471
G1 X123.054 Y109.418 E0.00574
G1 X122.928 Y109.277 E0.00568
G1 X122.838 Y109.108 E0.00574
G1 X121.699 Y104.957 E0.12948
G1 X121.671 Y104.793 E0.00501
G1 X121.681 Y104.609 E0.00553
G1 X121.747 Y104.397 E0.00669
G1 X122.927 Y102.062 E0.07868
G1 X122.955 Y102.035 E0.00118
G1 X123.599 Y102.036 E0.01937
G1 X123.601 Y102.874 E0.02518
G1 X122.885 Y103.589 E0.03044
G1 X122.754 Y103.639 E0.00422
G1 X122.572 Y103.743 E0.00631
G1 X122.416 Y103.868 E0.00602
G1 X122.273 Y104.024 E0.00636
G1 X122.131 Y104.254 E0.00812
G1 X122.038 Y104.510 E0.00818
G1 X122.001 Y104.780 E0.00821
G1 X122.020 Y105.056 E0.00832
G1 X122.129 Y105.392 E0.01062
G1 X122.224 Y105.557 E0.00575
G1 X122.366 Y105.734 E0.00683
G1 X122.614 Y105.936 E0.00960
G1 X122.881 Y106.057 E0.00881
G1 X123.602 Y106.778 E0.03068
G1 X123.614 Y107.978 E0.03610
G1 X123.706 Y108.323 E0.01074
G1 X123.877 Y108.631 E0.01060
G1 X124.046 Y108.826 E0.00777
G1 X124.244 Y108.986 E0.00766
G1 X124.469 Y109.111 E0.00772
G1 X124.757 Y109.205 E0.00913
G1 X125.051 Y109.235 E0.00887
G1 X126.441 Y109.229 E0.04184
G1 X126.685 Y109.182 E0.00747
G1 X126.882 Y109.113 E0.00626
G1 X127.209 Y108.914 E0.01152
G1 X127.361 Y108.772 E0.00626
G1 X127.513 Y108.579 E0.00737
G1 X127.612 Y108.403 E0.00610
G1 X127.699 Y108.174 E0.00736
G1 X127.828 Y107.566 E0.01870
G1 X127.907 Y107.001 E0.01716
G1 X127.947 Y106.432 E0.01715
G1 X127.948 Y105.862 E0.01715
G1 X127.911 Y105.293 E0.01715
G1 X127.835 Y104.728 E0.01715
G1 X127.720 Y104.169 E0.01715
G1 X127.568 Y103.620 E0.01715
G1 X127.378 Y103.082 E0.01715
G1 X127.153 Y102.559 E0.01712
G1 X126.993 Y102.240 E0.01075
G1 X126.850 Y102.059 E0.00695
G1 X126.636 Y101.898 E0.00803
G1 X126.361 Y101.799 E0.00881
G1 X126.163 Y101.781 E0.00598
G1 X125.847 Y101.799 E0.00951
G1 X125.966 Y101.445 F7200.000
G1 X126.674 Y101.578 F7200.000
G1 F900
G1 X126.850 Y101.746 E0.00218
G1 F900
G1 X126.998 Y101.908 E0.00056
G1 F5760
G1 X126.850 Y101.746 E-0.07599
G1 E-0.72401 F2100.00000
G1 X126.120 Y100.607 F7200.000
G1 E0.80000 F2100.00000
G1 F900
G1 X125.880 Y100.708 E0.00035
G1 F5760
G1 X126.120 Y100.607 E-0.09013
G1 E-0.70987 F2100.00000
G1 X122.680 Y103.274 F7200.000
G1 E0.80000 F2100.00000
G1 F900
G1 X122.356 Y103.643 E0.00152
G1 F5760
G1 X122.680 Y103.274 E-0.17002
G1 E-0.62998 F2100.00000
G1 X122.139 Y105.794 F7200.000
G1 E0.80000 F2100.00000
G1 F900
G1 X122.204 Y105.907 E0.00040
G1 X122.371 Y106.010 E0.00060
G1 F5760
G1 X122.204 Y105.907 E-0.06775
G1 F5760
G1 X122.139 Y105.794 E-0.04523
G1 E-0.68702 F2100.00000
G1 X122.931 Y106.907 F7200.000
G1 E0.80000 F2100.00000
G1 F900
G1 X122.961 Y107.124 E0.00213
G1 F900
G1 X123.022 Y107.557 E0.00123
G1 F5760
G1 X122.961 Y107.124 E-0.15160
G1 E-0.64840 F2100.00000
G1 X124.357 Y109.291 F7200.000
G1 E0.80000 F2100.00000
G1 F900
G1 X124.507 Y109.375 E0.00026
G1 X124.697 Y109.405 E0.00029
G1 F5760
G1 X124.507 Y109.375 E-0.06671
G1 F5760
G1 X124.357 Y109.291 E-0.05946
G1 E-0.67382 F2100.00000
G1 X126.652 Y109.404 F7200.000
G1 E0.80000 F2100.00000
G1 F900
G1 X126.866 Y109.374 E0.00085
G1 F900
G1 X127.537 Y109.200 E0.00693
G1 X127.568 Y108.954 F7200.000
G1 F900
G1 X127.321 Y109.369 E0.00484
G1 X126.876 Y109.427 F7200.000
G1 F900
G1 X127.244 Y109.264 E0.00638
G1 X127.380 Y109.181 E0.00253
G1 X127.717 Y108.784 E0.00826
G1 X127.701 Y108.709 F7200.000
G1 F900
G1 X127.568 Y108.954 E0.00157
G1 X127.701 Y108.709 F7200.000
G1 F900
G1 X127.767 Y108.557 E0.00002
M106 S255
G1 F5760
G1 X127.701 Y108.709 E-0.05736
G1 E-0.74264 F2100.00000
G1 Z0.300 F7200.000
M104 S210 ; set temperature
G1 X130.501 Y111.129 F7200.000
G1 E0.80000 F2100.00000
G1 F900
G1 X129.767 Y111.956 E0.01797
G1 X128.832 Y112.563 E0.01812
G1 X128.062 Y112.836 E0.01327
G1 X127.263 Y112.952 E0.01313
G1 X123.484 Y112.955 E0.06141
G1 X122.712 Y112.865 E0.01263
G1 X121.819 Y112.565 E0.01530
G1 X121.030 Y112.080 E0.01506
G1 X120.354 Y111.413 E0.01543
G1 X119.845 Y110.602 E0.01556
G1 X119.600 Y109.950 E0.01132
G1 X118.416 Y105.590 E0.07343
G1 X118.327 Y104.737 E0.01394
G1 X118.417 Y103.881 E0.01397
G1 X118.707 Y103.008 E0.01496
G1 X119.989 Y100.468 E0.04624
G1 X120.311 Y99.972 E0.00960
G1 X120.724 Y99.533 E0.00979
G1 X121.295 Y99.125 E0.01140
G1 X124.498 Y97.402 E0.05912
G1 X125.297 Y97.134 E0.01368
G1 X126.125 Y97.043 E0.01353
G1 X126.746 Y97.099 E0.01014
G1 X127.377 Y97.272 E0.01064
G1 X127.939 Y97.549 E0.01018
G1 X128.448 Y97.932 E0.01035
G1 X129.593 Y99.349 E0.02961
G1 X130.600 Y101.148 E0.03350
G1 X131.273 Y103.042 E0.03265
G1 X131.596 Y104.764 E0.02848
G1 X131.656 Y106.785 E0.03285
G1 X131.373 Y108.807 E0.03318
G1 X130.946 Y110.259 E0.02459
G1 X130.529 Y111.075 E0.01490
G1 F5760
G1 X129.767 Y111.956 E-0.40313
G1 F5760
G1 X128.903 Y112.517 E-0.35687
G1 E-0.04000 F2100.00000
G1 X123.768 Y109.172 F7200.000
G1 E0.80000 F2100.00000
M204 S800
G1 F900
G1 X123.619 Y109.172 E0.00261
G1 X123.421 Y109.132 E0.00354
G1 X123.294 Y109.021 E0.00294
G1 X123.253 Y108.943 E0.00154
G1 X122.519 Y106.269 E0.04852
G1 X122.564 Y106.293 E0.00088
G1 X123.160 Y106.889 E0.01476
G1 X123.170 Y108.038 E0.02011
G1 X123.292 Y108.490 E0.00819
G1 X123.512 Y108.887 E0.00794
G1 X123.724 Y109.132 E0.00567
M204 S1000
G1 F5760
G1 X123.619 Y109.172 E-0.03884
G1 F5760
G1 X123.421 Y109.132 E-0.07004
G1 F5760
G1 X123.294 Y109.021 E-0.05828
G1 F5760
G1 X123.253 Y108.943 E-0.03047
G1 F5760
G1 X122.823 Y107.378 E-0.56238
G1 E-0.04000 F2100.00000
G1 X122.978 Y102.944 F7200.000
G1 E0.80000 F2100.00000
M204 S800
G1 F900
G1 X123.158 Y102.589 E0.00696
G1 X123.158 Y102.764 E0.00307
G1 X123.021 Y102.901 E0.00339
M204 S1000
G1 F5760
G1 X123.158 Y102.589 E-0.11818
G1 F5760
G1 X123.158 Y102.764 E-0.06080
G1 F5760
G1 X123.021 Y102.901 E-0.06709
G1 E-0.55393 F2100.00000
G1 X126.191 Y101.339 F7200.000
G1 E0.80000 F2100.00000
M204 S800
G1 F900
G1 X126.168 Y101.072 E0.00469
G1 X126.375 Y101.355 E0.00613
G1 X126.251 Y101.344 E0.00217
M204 S1000
G1 X125.801 Y101.787 F7200.000
M204 S800
G1 F900
G1 X125.699 Y100.627 E0.02038
G1 X125.737 Y100.566 E0.00126
G1 X125.848 Y100.480 E0.00245
G1 X126.001 Y100.418 E0.00289
G1 X126.171 Y100.408 E0.00298
G1 X126.455 Y100.739 E0.00763
G1 X126.808 Y101.221 E0.01046
G1 X127.276 Y101.993 E0.01579
G1 X127.541 Y102.529 E0.01045
G1 X127.769 Y103.083 E0.01049
G1 X127.959 Y103.651 E0.01049
G1 X128.109 Y104.231 E0.01049
G1 X128.219 Y104.821 E0.01049
G1 X128.287 Y105.404 E0.01029
G1 X128.315 Y106.316 E0.01596
G1 X128.282 Y106.912 E0.01045
G1 X128.208 Y107.507 E0.01049
G1 X128.093 Y108.095 E0.01049
G1 X127.938 Y108.674 E0.01049
G1 X127.783 Y109.131 E0.00844
G1 X127.667 Y109.320 E0.00387
G1 X127.473 Y109.488 E0.00449
G1 X127.231 Y109.583 E0.00455
G1 X127.060 Y109.600 E0.00300
G1 X123.590 Y109.600 E0.06072
G1 X123.361 Y109.569 E0.00404
G1 X123.219 Y109.512 E0.00268
G1 X123.064 Y109.406 E0.00328
G1 X122.941 Y109.268 E0.00324
G1 X122.852 Y109.103 E0.00328
G1 X121.714 Y104.954 E0.07528
G1 X121.686 Y104.792 E0.00287
G1 X121.695 Y104.612 E0.00316
G1 X121.761 Y104.403 E0.00384
G1 X122.961 Y102.050 E0.04621
G1 X123.583 Y102.051 E0.01088
G1 X123.586 Y102.942 E0.01558
G1 X122.819 Y103.709 E0.01898
G1 X122.584 Y103.837 E0.00469
G1 X122.344 Y104.071 E0.00586
G1 X122.207 Y104.291 E0.00453
G1 X122.121 Y104.530 E0.00446
G1 X122.086 Y104.783 E0.00446
G1 X122.104 Y105.041 E0.00454
G1 X122.208 Y105.363 E0.00592
G1 X122.398 Y105.645 E0.00594
G1 X122.619 Y105.838 E0.00514
G1 X122.820 Y105.943 E0.00398
G1 X123.587 Y106.710 E0.01897
G1 X123.599 Y107.980 E0.02222
G1 X123.692 Y108.328 E0.00631
G1 X123.864 Y108.640 E0.00623
G1 X124.036 Y108.837 E0.00457
G1 X124.236 Y108.999 E0.00450
G1 X124.463 Y109.125 E0.00454
G1 X124.754 Y109.219 E0.00537
G1 X125.050 Y109.250 E0.00520
G1 X126.441 Y109.244 E0.02434
G1 X126.644 Y109.209 E0.00361
G1 X126.886 Y109.127 E0.00447
G1 X127.221 Y108.924 E0.00685
G1 X127.403 Y108.748 E0.00444
G1 X127.526 Y108.586 E0.00355
G1 X127.626 Y108.409 E0.00355
G1 X127.713 Y108.178 E0.00432
G1 X127.843 Y107.568 E0.01091
G1 X127.922 Y107.002 E0.01000
G1 X127.962 Y106.432 E0.00999
G1 X127.963 Y105.861 E0.00999
G1 X127.926 Y105.291 E0.00999
G1 X127.849 Y104.725 E0.00999
G1 X127.735 Y104.166 E0.00999
G1 X127.582 Y103.615 E0.00999
G1 X127.392 Y103.077 E0.00999
G1 X127.167 Y102.553 E0.00998
G1 X127.005 Y102.232 E0.00629
G1 X126.859 Y102.046 E0.00414
G1 X126.617 Y101.871 E0.00523
G1 X126.362 Y101.784 E0.00471
G1 X126.163 Y101.766 E0.00350
G1 X125.861 Y101.783 E0.00530
M204 S1000
G1 X125.980 Y101.429 F7200.000
G1 X126.598 Y101.613 F7200.000
G1 F900
G1 X126.835 Y101.679 E0.00069
G1 F5760
G1 X126.598 Y101.613 E-0.08518
G1 E-0.71482 F2100.00000
G1 X123.372 Y102.341 F7200.000
G1 E0.80000 F2100.00000
G1 F900
G1 X123.061 Y102.304 E0.00139
G1 X122.852 Y103.117 F7200.000
G1 F900
G1 X122.458 Y103.661 E0.00789
G1 X122.377 Y103.708 F7200.000
G1 F900
G1 X122.863 Y103.125 E0.00158
G1 F5760
G1 X122.377 Y103.708 E-0.26280
G1 E-0.53720 F2100.00000
G1 X122.174 Y105.736 F7200.000
G1 E0.80000 F2100.00000
G1 F900
G1 X122.216 Y105.824 E0.00021
G1 X122.331 Y105.902 E0.00030
G1 F5760
G1 X122.216 Y105.824 E-0.04807
G1 F5760
G1 X122.174 Y105.736 E-0.03365
G1 E-0.71828 F2100.00000
G1 X126.928 Y109.363 F7200.000
G1 E0.80000 F2100.00000
G1 F900
G1 X127.465 Y109.220 E0.00157
G1 X127.367 Y109.300 F7200.000
G1 F900
G1 X127.632 Y108.839 E0.00095
G1 X127.646 Y108.867 F7200.000
G1 F900
G1 X127.380 Y109.181 E0.00236
G1 X127.244 Y109.264 E0.00092
G1 X126.968 Y109.386 E0.00173
G1 F5760
G1 X127.244 Y109.264 E-0.10453
G1 F5760
G1 X127.380 Y109.181 E-0.05523
G1 F5760
G1 X127.646 Y108.867 E-0.14255
G1 E-0.49770 F2100.00000
G1 Z0.400 F7200.000
G1 X129.767 Y111.956 F7200.000
G1 E0.80000 F2100.00000
G1 F900
G1 X128.832 Y112.563 E0.01812
G1 X128.062 Y112.836 E0.01327
G1 X127.263 Y112.952 E0.01313
G1 X123.484 Y112.955 E0.06141
G1 X122.712 Y112.865 E0.01263
G1 X121.819 Y112.565 E0.01530
G1 X121.030 Y112.080 E0.01506
G1 X120.354 Y111.413 E0.01543
G1 X119.845 Y110.602 E0.01556
G1 X119.600 Y109.950 E0.01132
G1 X118.416 Y105.590 E0.07343
G1 X118.327 Y104.737 E0.01394
G1 X118.417 Y103.881 E0.01397
G1 X118.707 Y103.008 E0.01496
G1 X119.989 Y100.468 E0.04624
