; generated by Slic3r 1.36.2-prusa3d on 2017-08-29 at 14:11:37

; 

; external perimeters extrusion width = 0.45mm
; perimeters extrusion width = 0.45mm
; infill extrusion width = 0.50mm
; solid infill extrusion width = 0.45mm
; top infill extrusion width = 0.45mm
; first layer extrusion width = 0.42mm

M107
M115 U3.0.12 ; tell printer latest fw version
M83  ; extruder relative mode
M104 S215 ; set extruder temp
M140 S55 ; set bed temp
M190 S55 ; wait for bed temp
M109 S215 ; wait for extruder temp
G28 W ; home all without mesh bed level
G80 ; mesh bed leveling
G1 Y-3.0 F1000.0 ; go outside pritn area
G1 X60.0 E9.0  F1000.0 ; intro line
G1 X100.0 E12.5  F1000.0 ; intro line
; Filament gcode

G21 ; set units to millimeters
G90 ; use absolute coordinates
M83 ; use relative distances for extrusion
G1 E-0.80000 F2100.00000
G1 Z0.200 F10800.000
G1 X119.133 Y101.639 F10800.000
G1 E0.80000 F2100.00000
M204 S500
G1 F900
G1 X119.763 Y101.001 E0.02698
G1 X124.710 Y97.486 E0.18252
G1 X125.490 Y97.150 E0.02556
G1 X126.332 Y97.036 E0.02556
G1 X127.275 Y97.183 E0.02869
G1 X128.970 Y97.754 E0.05381
G1 X129.709 Y98.111 E0.02470
G1 X130.316 Y98.535 E0.02226
G1 X130.842 Y99.032 E0.02177
G1 X131.304 Y99.623 E0.02256
G1 X131.634 Y100.200 E0.02000
G1 X131.972 Y101.114 E0.02931
G1 X132.125 Y102.119 E0.03056
G1 X132.131 Y108.076 E0.17920
G1 X132.029 Y109.028 E0.02881
G1 X131.676 Y110.100 E0.03394
G1 X131.033 Y111.134 E0.03662
G1 X130.156 Y111.979 E0.03663
G1 X129.169 Y112.553 E0.03434
G1 X128.296 Y112.840 E0.02764
G1 X127.454 Y112.957 E0.02560
G1 X124.034 Y112.963 E0.10285
G1 X123.109 Y112.863 E0.02800
G1 X122.129 Y112.553 E0.03092
G1 X121.237 Y112.048 E0.03083
G1 X120.472 Y111.372 E0.03070
G1 X119.853 Y110.539 E0.03124
G1 X118.363 Y107.386 E0.10490
G1 X118.084 Y106.637 E0.02401
G1 X117.872 Y105.317 E0.04022
G1 X117.969 Y104.085 E0.03718
G1 X118.242 Y103.143 E0.02951
G1 X118.622 Y102.363 E0.02610
G1 X119.098 Y101.688 E0.02484
G1 X119.406 Y101.911 F10800.000
G1 F900
G1 X119.460 Y101.837 E0.00277
G1 X120.114 Y101.199 E0.02749
G1 X124.894 Y97.815 E0.17617
G1 X125.584 Y97.515 E0.02262
G1 X126.329 Y97.413 E0.02262
G1 X127.172 Y97.547 E0.02567
G1 X128.835 Y98.106 E0.05276
G1 X129.539 Y98.449 E0.02358
G1 X130.094 Y98.840 E0.02042
G1 X130.594 Y99.320 E0.02083
G1 X131.019 Y99.876 E0.02106
G1 X131.346 Y100.472 E0.02045
G1 X131.639 Y101.341 E0.02757
G1 X131.749 Y102.158 E0.02480
G1 X131.754 Y108.069 E0.17781
G1 X131.657 Y108.969 E0.02721
G1 X131.287 Y110.040 E0.03408
G1 X130.711 Y110.932 E0.03194
G1 X129.888 Y111.709 E0.03405
G1 X128.903 Y112.256 E0.03388
G1 X128.165 Y112.483 E0.02323
G1 X127.409 Y112.582 E0.02293
G1 X124.038 Y112.586 E0.10139
G1 X123.164 Y112.489 E0.02646
G1 X122.268 Y112.202 E0.02831
G1 X121.442 Y111.731 E0.02860
G1 X120.738 Y111.104 E0.02835
G1 X120.159 Y110.314 E0.02947
G1 X118.704 Y107.225 E0.10272
G1 X118.440 Y106.512 E0.02285
G1 X118.247 Y105.258 E0.03816
G1 X118.366 Y104.028 E0.03716
G1 X118.616 Y103.223 E0.02538
G1 X118.985 Y102.491 E0.02465
G1 X119.370 Y101.960 E0.01974
G1 F8640
G1 X119.460 Y101.837 E-0.03511
G1 F8640
G1 X120.114 Y101.199 E-0.21100
G1 F8640
G1 X121.931 Y99.913 E-0.51388
G1 E-0.04000 F2100.00000
G1 X118.624 Y105.243 F10800.000
G1 E0.80000 F2100.00000
G1 F900
G1 X118.738 Y104.091 E0.03483
G1 X118.969 Y103.356 E0.02315
G1 X119.309 Y102.683 E0.02270
G1 X119.745 Y102.084 E0.02227
G1 X120.355 Y101.489 E0.02566
G1 X125.075 Y98.146 E0.17396
G1 X125.680 Y97.880 E0.01987
G1 X126.330 Y97.790 E0.01976
G1 X127.061 Y97.907 E0.02225
G1 X128.696 Y98.456 E0.05189
G1 X129.347 Y98.774 E0.02177
G1 X130.321 Y99.580 E0.03805
G1 X131.017 Y100.660 E0.03863
G1 X131.275 Y101.440 E0.02471
G1 X131.373 Y102.184 E0.02256
G1 X131.377 Y108.063 E0.17685
G1 X131.284 Y108.907 E0.02553
G1 X130.944 Y109.884 E0.03113
G1 X130.412 Y110.702 E0.02933
G1 X129.652 Y111.414 E0.03133
G1 X128.727 Y111.920 E0.03174
G1 X128.069 Y112.118 E0.02065
G1 X127.379 Y112.205 E0.02093
G1 X124.050 Y112.209 E0.10013
G1 X123.229 Y112.118 E0.02485
G1 X122.408 Y111.852 E0.02596
G1 X121.637 Y111.406 E0.02681
G1 X120.928 Y110.750 E0.02902
G1 X120.435 Y110.036 E0.02611
G1 X118.804 Y106.411 E0.11958
G1 X118.633 Y105.302 E0.03374
G1 F8640
G1 X118.738 Y104.091 E-0.28082
G1 F8640
G1 X118.969 Y103.356 E-0.17775
G1 F8640
G1 X119.309 Y102.683 E-0.17423
G1 F8640
G1 X119.633 Y102.237 E-0.12721
G1 E-0.04000 F2100.00000
G1 X122.286 Y106.992 F10800.000
G1 E0.80000 F2100.00000
G1 F630
G1 X122.641 Y107.150 E0.01168
G1 X122.913 Y107.208 E0.00837
G1 X122.913 Y108.118 E0.02736
G1 X122.967 Y108.409 E0.00889
G1 X123.126 Y108.721 E0.01053
G1 X123.308 Y108.923 E0.00819
G1 X123.552 Y109.090 E0.00889
G1 X123.792 Y109.182 E0.00772
G1 X124.022 Y109.219 E0.00702
G1 X127.238 Y109.220 E0.09674
G1 X127.500 Y109.185 E0.00796
G1 X127.747 Y109.090 E0.00795
G1 X127.997 Y108.918 E0.00913
G1 X128.199 Y108.682 E0.00936
G1 X128.333 Y108.401 E0.00936
G1 X128.386 Y108.118 E0.00867
G1 X128.382 Y102.109 E0.18075
G1 X128.403 Y102.223 E0.00350
G1 X128.410 Y108.081 E0.17620
G1 X128.368 Y108.346 E0.00806
G1 X128.278 Y108.582 E0.00761
G1 X128.136 Y108.800 E0.00784
G1 X128.005 Y108.937 E0.00568
G1 X127.812 Y109.078 E0.00719
G1 X127.642 Y109.159 E0.00568
G1 X127.381 Y109.229 E0.00811
G1 X127.177 Y109.245 E0.00617
G1 X124.053 Y109.243 E0.09398
G1 X123.791 Y109.202 E0.00797
G1 X123.550 Y109.111 E0.00773
G1 X123.396 Y109.018 E0.00541
G1 X123.247 Y108.894 E0.00584
G1 X123.064 Y108.659 E0.00897
G1 X122.311 Y107.047 E0.05351
G1 F8640
G1 X122.641 Y107.150 E-0.07973
G1 F8640
G1 X122.913 Y107.208 E-0.06427
G1 F8640
G1 X122.913 Y108.118 E-0.21005
G1 F8640
G1 X122.967 Y108.409 E-0.06824
G1 F8640
G1 X123.126 Y108.721 E-0.08085
G1 F8640
G1 X123.308 Y108.923 E-0.06285
G1 F8640
G1 X123.552 Y109.090 E-0.06826
G1 F8640
G1 X123.792 Y109.182 E-0.05926
G1 F8640
G1 X124.022 Y109.219 E-0.05386
G1 F8640
G1 X124.077 Y109.219 E-0.01264
G1 E-0.04000 F2100.00000
G1 X126.913 Y101.011 F10800.000
G1 E0.80000 F2100.00000
G1 F630
G1 X126.913 Y100.982 E0.00087
G1 X127.552 Y101.195 E0.02025
G1 X127.809 Y101.313 E0.00850
G1 X126.970 Y101.030 E0.02663
G1 X126.536 Y101.282 F10800.000
G1 F840
G1 X126.536 Y100.459 E0.02475
G1 X127.680 Y100.840 E0.03626
G1 X127.854 Y100.908 E0.00563
G1 X128.073 Y101.028 E0.00752
G1 X128.269 Y101.180 E0.00746
G1 X128.439 Y101.361 E0.00746
G1 X128.579 Y101.566 E0.00746
G1 X128.685 Y101.791 E0.00751
G1 X128.735 Y101.945 E0.00484
G1 X128.780 Y102.188 E0.00746
G1 X128.787 Y108.110 E0.17813
G1 X128.734 Y108.444 E0.01015
G1 X128.615 Y108.754 E0.00999
G1 X128.433 Y109.035 E0.01008
G1 X128.262 Y109.215 E0.00747
G1 X127.997 Y109.408 E0.00986
G1 X127.773 Y109.515 E0.00747
G1 X127.446 Y109.602 E0.01019
G1 X127.192 Y109.622 E0.00766
G1 X124.023 Y109.620 E0.09530
G1 X123.694 Y109.569 E0.01002
G1 X123.385 Y109.452 E0.00994
G1 X123.177 Y109.326 E0.00732
G1 X122.987 Y109.167 E0.00745
G1 X122.878 Y109.050 E0.00481
G1 X122.736 Y108.849 E0.00740
G1 X121.364 Y105.908 E0.09761
G1 X121.244 Y105.491 E0.01306
G1 X121.212 Y105.063 E0.01290
G1 X121.268 Y104.638 E0.01290
G1 X121.410 Y104.231 E0.01298
G1 X121.568 Y103.953 E0.00960
G1 X121.768 Y103.701 E0.00969
G1 X122.005 Y103.483 E0.00969
G1 X122.272 Y103.303 E0.00969
G1 X122.564 Y103.167 E0.00969
G1 X122.873 Y103.077 E0.00969
G1 X123.290 Y103.034 E0.01260
G1 X123.290 Y103.375 E0.01024
G1 X123.114 Y103.379 E0.00529
G1 X122.758 Y103.455 E0.01095
G1 X122.423 Y103.604 E0.01103
G1 X122.126 Y103.819 E0.01103
G1 X121.881 Y104.092 E0.01103
G1 X121.698 Y104.409 E0.01103
G1 X121.585 Y104.758 E0.01103
G1 X121.546 Y105.122 E0.01103
G1 X121.585 Y105.487 E0.01103
G1 X121.698 Y105.835 E0.01103
G1 X121.881 Y106.153 E0.01103
G1 X122.126 Y106.425 E0.01103
G1 X122.423 Y106.641 E0.01103
G1 X122.758 Y106.790 E0.01103
G1 X123.114 Y106.865 E0.01095
G1 X123.290 Y106.870 E0.00529
G1 X123.291 Y108.083 E0.03650
G1 X123.328 Y108.286 E0.00621
G1 X123.440 Y108.505 E0.00739
G1 X123.559 Y108.637 E0.00535
G1 X123.729 Y108.754 E0.00621
G1 X123.890 Y108.816 E0.00519
G1 X124.052 Y108.842 E0.00493
G1 X127.213 Y108.842 E0.09510
G1 X127.407 Y108.817 E0.00587
G1 X127.571 Y108.754 E0.00527
G1 X127.743 Y108.636 E0.00629
G1 X127.881 Y108.475 E0.00637
G1 X127.972 Y108.283 E0.00638
G1 X128.009 Y108.083 E0.00613
G1 X128.005 Y102.108 E0.17972
G1 X127.899 Y101.852 E0.00834
G1 X127.690 Y101.671 E0.00833
G1 X126.593 Y101.301 E0.03482
G1 X126.780 Y100.965 F10800.000
G1 F8640
G1 X126.536 Y100.459 E-0.19485
G1 F8640
G1 X127.680 Y100.840 E-0.27834
G1 F8640
G1 X127.854 Y100.908 E-0.04320
G1 F8640
G1 X128.073 Y101.028 E-0.05776
G1 F8640
G1 X128.269 Y101.180 E-0.05724
G1 F8640
G1 X128.439 Y101.361 E-0.05724
G1 F8640
G1 X128.579 Y101.566 E-0.05725
G1 F8640
G1 X128.605 Y101.621 E-0.01412
G1 E-0.04000 F2100.00000
G1 X127.970 Y101.414 F10800.000
G1 E0.80000 F2100.00000
G1 F840
G1 X128.170 Y101.608 E0.00701
G1 X128.257 Y101.749 E0.00420
G1 X128.513 Y101.870 E0.00715
G1 F8640
G1 X128.257 Y101.749 E-0.06541
G1 F8640
G1 X128.170 Y101.608 E-0.03839
G1 F8640
G1 X127.970 Y101.414 E-0.06412
G1 E-0.63209 F2100.00000
G1 X122.141 Y106.697 F10800.000
G1 E0.80000 F2100.00000
G1 F840
G1 X121.940 Y106.576 E0.00053
G1 X121.829 Y106.409 E0.00045
M106 S255
G1 F8640
G1 X121.940 Y106.576 E-0.04624
G1 F8640
G1 X122.141 Y106.697 E-0.05422
G1 E-0.69954 F2100.00000
G1 Z0.250 F10800.000
M104 S210 ; set temperature
G1 X117.872 Y105.317 F10800.000
G1 E0.80000 F2100.00000
G1 F900
G1 X117.969 Y104.085 E0.01042
G1 X118.242 Y103.143 E0.00827
G1 X118.622 Y102.363 E0.00731
G1 X119.133 Y101.639 E0.00747
G1 X119.763 Y101.001 E0.00756
G1 X124.710 Y97.486 E0.05114
G1 X125.490 Y97.150 E0.00716
G1 X126.332 Y97.036 E0.00716
G1 X127.275 Y97.183 E0.00804
G1 X128.970 Y97.754 E0.01508
G1 X129.709 Y98.111 E0.00692
G1 X130.316 Y98.535 E0.00624
G1 X130.842 Y99.032 E0.00610
G1 X131.304 Y99.623 E0.00632
G1 X131.634 Y100.200 E0.00560
G1 X131.972 Y101.114 E0.00821
G1 X132.125 Y102.119 E0.00856
G1 X132.131 Y108.076 E0.05021
G1 X132.029 Y109.028 E0.00807
G1 X131.676 Y110.100 E0.00951
G1 X131.033 Y111.134 E0.01026
G1 X130.156 Y111.979 E0.01026
G1 X129.169 Y112.553 E0.00962
G1 X128.296 Y112.840 E0.00774
G1 X127.454 Y112.957 E0.00717
G1 X124.034 Y112.963 E0.02882
G1 X123.109 Y112.863 E0.00784
G1 X122.129 Y112.553 E0.00866
G1 X121.237 Y112.048 E0.00864
G1 X120.472 Y111.372 E0.00860
G1 X119.853 Y110.539 E0.00875
G1 X118.363 Y107.386 E0.02939
G1 X118.084 Y106.637 E0.00673
G1 X117.882 Y105.376 E0.01076
G1 F8640
G1 X117.969 Y104.085 E-0.29888
G1 F8640
G1 X118.242 Y103.143 E-0.22652
G1 F8640
G1 X118.622 Y102.363 E-0.20033
G1 F8640
G1 X118.708 Y102.241 E-0.03427
G1 E-0.04000 F2100.00000
G1 X122.397 Y107.048 F10800.000
G1 E0.80000 F2100.00000
M204 S300
G1 F900
G1 X122.639 Y107.156 E0.00240
G1 X122.836 Y107.197 E0.00182
G1 X122.836 Y107.989 E0.00716
G1 X122.422 Y107.102 E0.00886
M204 S500
G1 F8640
G1 X122.639 Y107.156 E-0.05153
G1 F8640
G1 X122.836 Y107.197 E-0.04645
G1 F8640
G1 X122.836 Y107.989 E-0.18277
G1 F8640
G1 X122.422 Y107.102 E-0.22596
G1 E-0.29330 F2100.00000
G1 X123.197 Y103.050 F10800.000
G1 E0.80000 F2100.00000
M204 S300
G1 F900
G1 X123.275 Y103.049 E0.00070
G1 X123.275 Y103.432 E0.00347
G1 X123.120 Y103.436 E0.00140
G1 X122.775 Y103.509 E0.00319
G1 X122.452 Y103.653 E0.00321
G1 X122.165 Y103.862 E0.00321
G1 X121.927 Y104.125 E0.00321
G1 X121.750 Y104.432 E0.00321
G1 X121.640 Y104.770 E0.00321
G1 X121.603 Y105.122 E0.00321
G1 X121.640 Y105.475 E0.00321
G1 X121.750 Y105.812 E0.00321
G1 X121.927 Y106.119 E0.00321
G1 X122.165 Y106.383 E0.00321
G1 X122.452 Y106.591 E0.00321
G1 X122.775 Y106.736 E0.00321
G1 X123.120 Y106.809 E0.00319
G1 X123.275 Y106.812 E0.00140
G1 X123.276 Y108.085 E0.01152
G1 X123.314 Y108.291 E0.00190
G1 X123.427 Y108.514 E0.00226
G1 X123.549 Y108.649 E0.00164
G1 X123.722 Y108.768 E0.00190
G1 X123.886 Y108.831 E0.00159
G1 X124.051 Y108.857 E0.00151
G1 X127.214 Y108.857 E0.02864
G1 X127.411 Y108.832 E0.00179
G1 X127.578 Y108.768 E0.00162
G1 X127.753 Y108.647 E0.00193
G1 X127.893 Y108.483 E0.00195
G1 X127.986 Y108.288 E0.00195
G1 X128.024 Y108.084 E0.00187
G1 X128.020 Y102.105 E0.05412
G1 X127.912 Y101.843 E0.00257
G1 X127.697 Y101.658 E0.00256
G1 X126.551 Y101.271 E0.01095
G1 X126.551 Y100.480 E0.00716
G1 X127.848 Y100.921 E0.01240
G1 X128.068 Y101.042 E0.00227
G1 X128.195 Y101.136 E0.00143
G1 X128.376 Y101.310 E0.00228
G1 X128.475 Y101.433 E0.00143
G1 X128.604 Y101.645 E0.00225
G1 X128.698 Y101.872 E0.00222
G1 X128.755 Y102.111 E0.00222
G1 X128.775 Y102.365 E0.00230
G1 X128.775 Y108.021 E0.05119
G1 X128.738 Y108.366 E0.00314
G1 X128.698 Y108.516 E0.00141
G1 X128.604 Y108.744 E0.00224
G1 X128.421 Y109.025 E0.00303
G1 X128.253 Y109.203 E0.00221
G1 X128.125 Y109.306 E0.00149
G1 X127.989 Y109.395 E0.00146
G1 X127.769 Y109.500 E0.00221
G1 X127.443 Y109.588 E0.00306
G1 X127.191 Y109.607 E0.00229
G1 X124.024 Y109.605 E0.02866
G1 X123.698 Y109.554 E0.00299
G1 X123.392 Y109.438 E0.00296
G1 X123.185 Y109.314 E0.00218
G1 X122.890 Y109.040 E0.00364
G1 X122.749 Y108.841 E0.00221
G1 X121.378 Y105.903 E0.02935
G1 X121.258 Y105.489 E0.00391
G1 X121.227 Y105.064 E0.00385
G1 X121.282 Y104.642 E0.00385
G1 X121.424 Y104.237 E0.00388
G1 X121.580 Y103.962 E0.00287
G1 X121.779 Y103.711 E0.00289
G1 X122.014 Y103.494 E0.00289
G1 X122.279 Y103.316 E0.00289
G1 X122.569 Y103.181 E0.00289
G1 X122.876 Y103.092 E0.00289
G1 X123.138 Y103.058 E0.00239
M204 S500
G1 X123.241 Y103.114 F10800.000
G1 F8640
G1 X123.275 Y103.049 E-0.03173
G1 F8640
G1 X123.275 Y103.432 E-0.08839
G1 F8640
G1 X123.120 Y103.436 E-0.03576
G1 F8640
G1 X122.775 Y103.509 E-0.08129
G1 F8640
G1 X122.452 Y103.653 E-0.08189
G1 F8640
G1 X122.165 Y103.862 E-0.08189
G1 F8640
G1 X121.927 Y104.125 E-0.08189
G1 F8640
G1 X121.750 Y104.432 E-0.08189
G1 F8640
G1 X121.640 Y104.770 E-0.08189
G1 F8640
G1 X121.603 Y105.122 E-0.08188
G1 F8640
G1 X121.618 Y105.258 E-0.03151
G1 E-0.04000 F2100.00000
G1 X121.903 Y106.455 F10800.000
G1 E0.80000 F2100.00000
G1 F900
G1 X121.982 Y106.574 E0.00021
G1 X122.141 Y106.667 E0.00027
G1 F8640
G1 X121.982 Y106.574 E-0.04234
G1 F8640
G1 X121.903 Y106.455 E-0.03298
G1 E-0.72468 F2100.00000
G1 X122.891 Y108.202 F10800.000
G1 E0.80000 F2100.00000
G1 F900
G1 X122.968 Y108.431 E0.00151
G1 X123.076 Y108.652 E0.00153
G1 X123.290 Y108.917 E0.00213
G1 X123.555 Y109.102 E0.00202
G1 X123.793 Y109.192 E0.00160
G1 X124.009 Y109.226 E0.00137
G1 X127.249 Y109.229 E0.02026
G1 X127.485 Y109.194 E0.00149
G1 X127.638 Y109.146 E0.00101
G1 X127.806 Y109.066 E0.00116
G1 X128.017 Y108.911 E0.00164
G1 X128.192 Y108.700 E0.00171
G1 X128.269 Y108.569 E0.00095
G1 X128.345 Y108.396 E0.00118
G1 X128.394 Y108.104 E0.00185
G1 X128.389 Y102.169 E0.03712
G1 F900
G1 X128.356 Y101.983 E0.00094
G1 X128.178 Y101.615 E0.00202
G1 F900
G1 X127.963 Y101.412 E0.00184
G1 X127.852 Y101.332 E0.00085
G1 X127.526 Y101.202 E0.00219
G1 X126.771 Y100.949 E0.00497
G1 F8640
G1 X127.526 Y101.202 E-0.18389
G1 F8640
G1 X127.852 Y101.332 E-0.08120
G1 F8640
G1 X127.963 Y101.412 E-0.03142
G1 F8640
G1 X128.178 Y101.615 E-0.06826
G1 E-0.43523 F2100.00000
G1 Z0.300 F10800.000
G1 X126.332 Y97.036 F10800.000
G1 E0.80000 F2100.00000
G1 F900
G1 X127.275 Y97.183 E0.00804
G1 X128.970 Y97.754 E0.01508
G1 X129.709 Y98.111 E0.00692
G1 X130.316 Y98.535 E0.00624
G1 X130.842 Y99.032 E0.00610
G1 X131.304 Y99.623 E0.00632
G1 X131.634 Y100.200 E0.00560
G1 X131.972 Y101.114 E0.00821
G1 X132.125 Y102.119 E0.00856
G1 X132.131 Y108.076 E0.05021
G1 X132.029 Y109.028 E0.00807
G1 X131.676 Y110.100 E0.00951
G1 X131.033 Y111.134 E0.01026
G1 X130.156 Y111.979 E0.01026
G1 X129.169 Y112.553 E0.00962
G1 X128.296 Y112.840 E0.00774
G1 X127.454 Y112.957 E0.00717
G1 X124.034 Y112.963 E0.02882
G1 X123.109 Y112.863 E0.00784
G1 X122.129 Y112.553 E0.00866
G1 X121.237 Y112.048 E0.00864
G1 X120.472 Y111.372 E0.00860
G1 X119.853 Y110.539 E0.00875
G1 X118.363 Y107.386 E0.02939
G1 X118.084 Y106.637 E0.00673
G1 X117.872 Y105.317 E0.01127
G1 X117.969 Y104.085 E0.01042
G1 X118.242 Y103.143 E0.00827
G1 X118.622 Y102.363 E0.00731
G1 X119.133 Y101.639 E0.00747
G1 X119.763 Y101.001 E0.00756
G1 X124.710 Y97.486 E0.05114
G1 X125.490 Y97.150 E0.00716
G1 X126.273 Y97.044 E0.00666
G1 F8640
G1 X127.275 Y97.183 E-0.23352
G1 F8640
