; generated by Slic3r 1.36.2-prusa3d on 2017-09-14 at 17:19:53

; 

; external perimeters extrusion width = 0.45mm
; perimeters extrusion width = 0.45mm
; infill extrusion width = 0.45mm
; solid infill extrusion width = 0.45mm
; top infill extrusion width = 0.45mm
; first layer extrusion width = 0.42mm

M107
M115 U3.0.12 ; tell printer latest fw version
M83  ; extruder relative mode
M104 S215 ; set extruder temp
M140 S55 ; set bed temp
M190 S55 ; wait for bed temp
M109 S215 ; wait for extruder temp
G28 W ; home all without mesh bed level
G80 ; mesh bed leveling
G1 Y-3.0 F1000.0 ; go outside pritn area
G1 X60.0 E9.0  F1000.0 ; intro line
G1 X100.0 E12.5  F1000.0 ; intro line
; Filament gcode

G21 ; set units to millimeters
G90 ; use absolute coordinates
M83 ; use relative distances for extrusion
G1 E-0.80000 F2100.00000
G1 Z0.200 F7200.000
G1 X84.152 Y86.782 F7200.000
G1 E0.80000 F2100.00000
M204 S1000
G1 F2100
G1 X84.998 Y86.625 E0.02587
G1 X165.002 Y86.623 E2.40651
G1 X165.883 Y86.794 E0.02699
G1 X166.638 Y87.279 E0.02699
G1 X176.713 Y97.354 E0.42859
G1 X177.054 Y97.806 E0.01703
G1 X177.279 Y98.325 E0.01703
G1 X177.377 Y98.990 E0.02021
G1 X177.373 Y121.137 E0.66618
G1 X177.237 Y121.803 E0.02044
G1 X176.919 Y122.403 E0.02044
G1 X176.444 Y122.889 E0.02044
G1 X175.847 Y123.221 E0.02055
G1 X175.005 Y123.377 E0.02575
G1 X74.970 Y123.377 E3.00905
G1 X74.269 Y123.262 E0.02135
G1 X73.637 Y122.948 E0.02123
G1 X73.125 Y122.462 E0.02123
G1 X72.779 Y121.847 E0.02123
G1 X72.623 Y121.005 E0.02575
G1 X72.623 Y98.991 E0.66219
G1 X72.739 Y98.268 E0.02202
G1 X72.971 Y97.764 E0.01669
G1 X73.313 Y97.327 E0.01669
G1 X83.343 Y87.300 E0.42660
G1 X84.102 Y86.814 E0.02710
G1 F5760
G1 X84.998 Y86.625 E-0.31718
G1 F5760
G1 X86.276 Y86.625 E-0.44282
G1 E-0.04000 F2100.00000
G1 X140.982 Y89.712 F7200.000
G1 E0.80000 F2100.00000
G1 F1680
G1 X162.188 Y89.712 E0.63787
G1 X162.188 Y110.652 E0.62988
G1 X161.406 Y110.691 E0.02355
G1 X159.407 Y110.592 E0.06019
G1 X157.427 Y110.299 E0.06021
G1 X155.485 Y109.812 E0.06022
G1 X153.601 Y109.138 E0.06020
G1 X151.792 Y108.282 E0.06020
G1 X150.075 Y107.254 E0.06019
G1 X148.468 Y106.061 E0.06020
G1 X146.985 Y104.717 E0.06021
G1 X145.641 Y103.234 E0.06021
G1 X144.448 Y101.627 E0.06020
G1 X143.420 Y99.910 E0.06019
G1 X142.564 Y98.101 E0.06020
G1 X141.890 Y96.217 E0.06020
G1 X141.403 Y94.275 E0.06022
G1 X141.110 Y92.295 E0.06021
G1 X140.985 Y89.772 E0.07598
G1 X141.379 Y90.089 F7200.000
G1 F1050
G1 X161.811 Y90.089 E0.61461
G1 X161.811 Y110.293 E0.60774
G1 X161.406 Y110.313 E0.01220
G1 X159.444 Y110.216 E0.05908
G1 X157.501 Y109.928 E0.05909
G1 X155.595 Y109.451 E0.05910
G1 X153.746 Y108.789 E0.05909
G1 X151.970 Y107.949 E0.05908
G1 X150.285 Y106.940 E0.05908
G1 X148.708 Y105.769 E0.05909
G1 X147.252 Y104.450 E0.05910
G1 X145.933 Y102.994 E0.05910
G1 X144.762 Y101.417 E0.05909
G1 X143.753 Y99.732 E0.05908
G1 X142.913 Y97.956 E0.05908
G1 X142.251 Y96.107 E0.05909
G1 X141.774 Y94.201 E0.05910
G1 X141.486 Y92.258 E0.05909
G1 X141.381 Y90.149 E0.06351
G1 X141.366 Y89.689 F7200.000
G1 F5760
G1 X143.576 Y90.142 E-0.76000
G1 E-0.04000 F2100.00000
G1 X112.562 Y107.038 F7200.000
G1 E0.80000 F2100.00000
G1 F840
G1 X112.562 Y111.167 E0.12421
G1 X110.980 Y111.012 E0.04783
G1 X110.404 Y110.837 E0.01809
G1 X109.874 Y110.554 E0.01808
G1 X109.407 Y110.172 E0.01815
G1 X109.025 Y109.705 E0.01815
G1 X108.742 Y109.175 E0.01808
G1 X108.567 Y108.600 E0.01806
G1 X108.410 Y107.038 E0.04724
G1 X112.502 Y107.038 E0.12308
G1 X112.185 Y107.415 F7200.000
G1 F840
G1 X112.185 Y110.751 E0.10036
G1 X111.054 Y110.641 E0.03419
G1 X110.549 Y110.487 E0.01586
G1 X110.084 Y110.239 E0.01586
G1 X109.675 Y109.904 E0.01590
G1 X109.340 Y109.495 E0.01590
G1 X109.092 Y109.030 E0.01586
G1 X108.939 Y108.526 E0.01584
G1 X108.827 Y107.415 E0.03359
G1 X112.125 Y107.415 E0.09920
G1 X111.808 Y107.792 F7200.000
G1 F840
G1 X111.808 Y110.336 E0.07651
G1 X111.128 Y110.269 E0.02056
G1 X110.694 Y110.137 E0.01363
G1 X110.294 Y109.924 E0.01364
G1 X109.943 Y109.636 E0.01365
G1 X109.655 Y109.285 E0.01365
G1 X109.442 Y108.885 E0.01364
G1 X109.310 Y108.451 E0.01362
G1 X109.244 Y107.792 E0.01994
G1 X111.748 Y107.792 E0.07532
G1 X112.207 Y107.758 F7200.000
G1 F5760
G1 X111.800 Y109.986 E-0.76000
G1 E-0.04000 F2100.00000
G1 X115.484 Y104.187 F7200.000
G1 E0.80000 F2100.00000
G1 F840
G1 X122.463 Y104.187 E0.20993
G1 X122.463 Y111.118 E0.20850
G1 X120.871 Y111.040 E0.04796
G1 X120.296 Y110.954 E0.01747
G1 X119.733 Y110.813 E0.01748
G1 X119.187 Y110.617 E0.01743
G1 X118.662 Y110.370 E0.01746
G1 X118.162 Y110.070 E0.01752
G1 X117.697 Y109.724 E0.01744
G1 X117.265 Y109.335 E0.01749
G1 X116.876 Y108.903 E0.01749
G1 X116.530 Y108.438 E0.01744
G1 X116.230 Y107.938 E0.01752
G1 X115.983 Y107.413 E0.01746
G1 X115.787 Y106.867 E0.01743
G1 X115.646 Y106.304 E0.01748
G1 X115.560 Y105.729 E0.01747
G1 X115.487 Y104.247 E0.04465
G1 X115.880 Y104.564 F7200.000
G1 F840
G1 X122.086 Y104.564 E0.18667
G1 X122.086 Y110.722 E0.18524
G1 X120.908 Y110.664 E0.03548
G1 X120.370 Y110.583 E0.01636
G1 X119.842 Y110.451 E0.01637
G1 X119.331 Y110.268 E0.01633
G1 X118.839 Y110.037 E0.01635
G1 X118.372 Y109.757 E0.01639
G1 X117.936 Y109.432 E0.01634
G1 X117.532 Y109.068 E0.01637
G1 X117.168 Y108.664 E0.01637
G1 X116.843 Y108.228 E0.01634
G1 X116.563 Y107.761 E0.01639
G1 X116.332 Y107.269 E0.01635
G1 X116.149 Y106.758 E0.01633
G1 X116.017 Y106.230 E0.01637
G1 X115.936 Y105.692 E0.01636
G1 X115.883 Y104.624 E0.03217
G1 X116.277 Y104.941 F7200.000
G1 F840
G1 X121.709 Y104.941 E0.16341
G1 X121.709 Y110.326 E0.16198
G1 X120.945 Y110.288 E0.02300
G1 X120.444 Y110.213 E0.01525
G1 X119.952 Y110.090 E0.01525
G1 X119.476 Y109.919 E0.01522
G1 X119.017 Y109.704 E0.01524
G1 X118.582 Y109.443 E0.01526
G1 X118.176 Y109.141 E0.01523
G1 X117.799 Y108.801 E0.01525
G1 X117.459 Y108.424 E0.01525
G1 X117.157 Y108.018 E0.01523
G1 X116.896 Y107.583 E0.01526
G1 X116.681 Y107.124 E0.01524
G1 X116.510 Y106.648 E0.01522
G1 X116.387 Y106.156 E0.01525
G1 X116.312 Y105.655 E0.01525
G1 X116.279 Y105.001 E0.01969
G1 X116.264 Y104.541 F7200.000
G1 F5760
G1 X118.474 Y104.977 E-0.76000
G1 E-0.04000 F2100.00000
G1 X125.485 Y99.237 F7200.000
G1 E0.80000 F2100.00000
G1 F1680
G1 X137.463 Y99.237 E0.36030
G1 X137.463 Y111.102 E0.35691
G1 X135.341 Y111.016 E0.06388
G1 X134.283 Y110.859 E0.03220
G1 X133.248 Y110.600 E0.03208
G1 X132.244 Y110.241 E0.03208
G1 X131.279 Y109.784 E0.03211
G1 X130.363 Y109.235 E0.03210
G1 X129.508 Y108.600 E0.03205
G1 X128.716 Y107.885 E0.03210
G1 X128.001 Y107.093 E0.03210
G1 X127.366 Y106.238 E0.03205
G1 X126.817 Y105.322 E0.03210
G1 X126.360 Y104.357 E0.03211
G1 X126.001 Y103.353 E0.03208
G1 X125.742 Y102.318 E0.03208
G1 X125.585 Y101.264 E0.03207
G1 X125.488 Y99.297 E0.05925
G1 X125.881 Y99.614 F7200.000
G1 F840
G1 X137.086 Y99.614 E0.33704
G1 X137.086 Y110.710 E0.33376
G1 X135.377 Y110.640 E0.05146
G1 X134.356 Y110.488 E0.03103
G1 X133.358 Y110.239 E0.03097
G1 X132.388 Y109.892 E0.03097
G1 X131.457 Y109.451 E0.03099
G1 X130.573 Y108.922 E0.03099
G1 X129.747 Y108.308 E0.03094
G1 X128.983 Y107.618 E0.03098
G1 X128.293 Y106.854 E0.03098
G1 X127.679 Y106.028 E0.03094
G1 X127.150 Y105.144 E0.03099
G1 X126.709 Y104.213 E0.03099
G1 X126.362 Y103.243 E0.03097
G1 X126.113 Y102.245 E0.03097
G1 X125.961 Y101.227 E0.03096
G1 X125.884 Y99.674 E0.04677
G1 X126.278 Y99.991 F7200.000
G1 F840
G1 X136.709 Y99.991 E0.31378
G1 X136.709 Y110.317 E0.31060
G1 X135.412 Y110.264 E0.03904
G1 X134.430 Y110.118 E0.02987
G1 X133.467 Y109.877 E0.02986
G1 X132.533 Y109.543 E0.02985
G1 X131.635 Y109.118 E0.02987
G1 X130.783 Y108.608 E0.02987
G1 X129.987 Y108.017 E0.02984
G1 X129.250 Y107.351 E0.02986
G1 X128.584 Y106.614 E0.02986
G1 X127.993 Y105.818 E0.02984
G1 X127.483 Y104.966 E0.02987
G1 X127.058 Y104.068 E0.02987
G1 X126.724 Y103.134 E0.02985
G1 X126.483 Y102.171 E0.02986
G1 X126.337 Y101.190 E0.02984
G1 X126.280 Y100.051 E0.03430
G1 X126.265 Y99.591 F7200.000
G1 F5760
G1 X128.475 Y100.038 E-0.76000
G1 E-0.04000 F2100.00000
G1 X85.966 Y99.966 F7200.000
G1 E0.80000 F2100.00000
G1 F1680
G1 X85.966 Y89.966 E0.30080
G1 X86.034 Y89.966 E0.00204
G1 X86.034 Y91.966 E0.06016
G1 X88.962 Y91.966 E0.08808
G1 X88.962 Y89.966 E0.06016
G1 X89.034 Y89.966 E0.00216
G1 X89.034 Y91.966 E0.06016
G1 X92.962 Y91.966 E0.11816
G1 X92.962 Y89.966 E0.06016
G1 X93.034 Y89.966 E0.00216
G1 X93.034 Y91.966 E0.06016
G1 X99.963 Y91.966 E0.20843
G1 X99.963 Y89.966 E0.06016
G1 X100.035 Y89.966 E0.00216
G1 X100.035 Y91.966 E0.06016
G1 X111.964 Y91.966 E0.35883
G1 X111.964 Y89.966 E0.06016
G1 X112.036 Y89.966 E0.00216
G1 X112.036 Y91.966 E0.06016
G1 X138.966 Y91.966 E0.81006
G1 X138.966 Y89.964 E0.06022
G1 X140.617 Y89.964 E0.04966
G1 X140.734 Y92.332 E0.07130
G1 X141.033 Y94.348 E0.06132
G1 X141.528 Y96.326 E0.06133
G1 X142.215 Y98.245 E0.06132
G1 X143.087 Y100.088 E0.06131
G1 X144.134 Y101.836 E0.06131
G1 X145.349 Y103.474 E0.06132
G1 X146.718 Y104.984 E0.06132
G1 X148.228 Y106.353 E0.06132
G1 X149.866 Y107.568 E0.06132
G1 X151.614 Y108.615 E0.06131
G1 X153.457 Y109.487 E0.06131
G1 X155.376 Y110.174 E0.06132
G1 X157.354 Y110.669 E0.06133
G1 X159.370 Y110.968 E0.06132
G1 X161.406 Y111.068 E0.06131
G1 X162.565 Y111.011 E0.03491
G1 X162.565 Y89.964 E0.63309
G1 X164.080 Y89.964 E0.04556
G1 X164.242 Y91.136 E0.03559
G1 X164.504 Y92.184 E0.03249
G1 X164.867 Y93.198 E0.03239
G1 X165.328 Y94.170 E0.03236
G1 X165.880 Y95.093 E0.03236
G1 X166.522 Y95.958 E0.03240
G1 X167.244 Y96.756 E0.03237
G1 X168.042 Y97.478 E0.03237
G1 X168.907 Y98.120 E0.03240
G1 X169.830 Y98.672 E0.03236
G1 X170.802 Y99.133 E0.03236
G1 X171.816 Y99.496 E0.03239
G1 X172.861 Y99.757 E0.03240
G1 X174.036 Y99.920 E0.03568
G1 X174.036 Y120.036 E0.60508
G1 X75.964 Y120.036 E2.94998
G1 X75.964 Y99.966 E0.60369
G1 X85.906 Y99.966 E0.29905
G1 X85.589 Y99.589 F7200.000
G1 F1680
G1 X85.589 Y89.589 E0.30080
G1 X86.411 Y89.589 E0.02472
G1 X86.411 Y91.589 E0.06016
G1 X88.585 Y91.589 E0.06540
G1 X88.585 Y89.589 E0.06016
G1 X89.411 Y89.589 E0.02484
G1 X89.411 Y91.589 E0.06016
G1 X92.585 Y91.589 E0.09548
G1 X92.585 Y89.589 E0.06016
G1 X93.411 Y89.589 E0.02484
G1 X93.411 Y91.589 E0.06016
G1 X99.586 Y91.589 E0.18575
G1 X99.586 Y89.589 E0.06016
G1 X100.412 Y89.589 E0.02484
G1 X100.412 Y91.589 E0.06016
G1 X111.587 Y91.589 E0.33615
G1 X111.587 Y89.589 E0.06016
G1 X112.413 Y89.589 E0.02484
G1 X112.413 Y91.589 E0.06016
G1 X138.589 Y91.589 E0.78737
G1 X138.589 Y89.587 E0.06022
G1 X164.439 Y89.587 E0.77756
G1 X164.458 Y89.970 E0.01154
G1 X164.613 Y91.064 E0.03322
G1 X164.865 Y92.075 E0.03134
G1 X165.216 Y93.053 E0.03127
G1 X165.661 Y93.992 E0.03125
G1 X166.194 Y94.883 E0.03125
G1 X166.814 Y95.719 E0.03129
G1 X167.511 Y96.489 E0.03125
G1 X168.281 Y97.186 E0.03125
G1 X169.117 Y97.806 E0.03129
G1 X170.008 Y98.339 E0.03125
G1 X170.947 Y98.784 E0.03125
G1 X171.925 Y99.135 E0.03127
G1 X172.935 Y99.387 E0.03129
G1 X173.962 Y99.539 E0.03126
G1 X174.413 Y99.561 E0.01357
G1 X174.413 Y120.413 E0.62722
G1 X75.587 Y120.413 E2.97267
G1 X75.587 Y99.589 E0.62638
G1 X85.529 Y99.589 E0.29905
G1 X85.212 Y99.212 F7200.000
G1 F1050
G1 X85.212 Y89.212 E0.30080
G1 X86.788 Y89.212 E0.04741
G1 X86.788 Y91.212 E0.06016
G1 X88.208 Y91.212 E0.04271
G1 X88.208 Y89.212 E0.06016
G1 X89.788 Y89.212 E0.04753
G1 X89.788 Y91.212 E0.06016
G1 X92.208 Y91.212 E0.07279
G1 X92.208 Y89.212 E0.06016
G1 X93.788 Y89.212 E0.04753
G1 X93.788 Y91.212 E0.06016
G1 X99.209 Y91.212 E0.16306
G1 X99.209 Y89.212 E0.06016
G1 X100.789 Y89.212 E0.04753
G1 X100.789 Y91.212 E0.06016
G1 X111.210 Y91.212 E0.31346
G1 X111.210 Y89.212 E0.06016
G1 X112.790 Y89.212 E0.04753
G1 X112.790 Y91.212 E0.06016
G1 X138.212 Y91.212 E0.76469
G1 X138.212 Y89.210 E0.06022
G1 X164.798 Y89.210 E0.79970
G1 X164.834 Y89.935 E0.02182
G1 X164.984 Y90.991 E0.03210
G1 X165.227 Y91.965 E0.03019
G1 X165.565 Y92.909 E0.03015
G1 X165.994 Y93.814 E0.03014
G1 X166.508 Y94.674 E0.03014
G1 X167.105 Y95.479 E0.03017
G1 X167.778 Y96.222 E0.03014
G1 X168.521 Y96.895 E0.03014
G1 X169.326 Y97.492 E0.03017
G1 X170.186 Y98.006 E0.03014
G1 X171.091 Y98.435 E0.03014
G1 X172.035 Y98.773 E0.03015
G1 X173.008 Y99.016 E0.03017
G1 X173.999 Y99.163 E0.03015
G1 X174.790 Y99.202 E0.02381
G1 X174.790 Y120.790 E0.64936
G1 X75.210 Y120.790 E2.99535
G1 X75.210 Y99.212 E0.64906
G1 X85.152 Y99.212 E0.29905
G1 X85.584 Y99.064 F7200.000
G1 F5760
G1 X85.165 Y97.018 E-0.76000
G1 E-0.04000 F2100.00000
G1 X97.735 Y92.079 F7200.000
G1 E0.80000 F2100.00000
G1 F1680
G1 X112.411 Y106.755 E0.62709
G1 X111.875 Y106.755 E0.01618
G1 X97.369 Y92.249 E0.61984
G1 X96.834 Y92.249 E0.01618
G1 X111.340 Y106.755 E0.61984
G1 X110.804 Y106.755 E0.01618
G1 X96.298 Y92.249 E0.61984
G1 X95.763 Y92.249 E0.01618
G1 X110.269 Y106.755 E0.61984
G1 X109.733 Y106.755 E0.01618
G1 X95.227 Y92.249 E0.61984
G1 X94.691 Y92.249 E0.01618
G1 X109.198 Y106.755 E0.61984
G1 X108.662 Y106.755 E0.01618
G1 X94.156 Y92.249 E0.61984
G1 X93.620 Y92.249 E0.01618
G1 X108.126 Y106.755 E0.61984
G1 X108.098 Y106.755 E0.00086
G1 X108.154 Y107.319 E0.01711
G1 X93.085 Y92.249 E0.64392
G1 X92.549 Y92.249 E0.01618
G1 X108.214 Y107.914 E0.66935
G1 X108.274 Y108.509 E0.01807
G1 X92.014 Y92.249 E0.69478
G1 X91.478 Y92.249 E0.01618
G1 X108.465 Y109.236 E0.72584
G1 F5760
G1 X106.913 Y107.684 E-0.76000
G1 E-0.04000 F2100.00000
G1 X110.343 Y111.114 F7200.000
G1 E0.80000 F2100.00000
G1 F1680
G1 X118.982 Y119.753 E0.36914
G1 X119.518 Y119.753 E0.01618
G1 X111.070 Y111.305 E0.36097
G1 X111.664 Y111.363 E0.01802
G1 X120.053 Y119.753 E0.35849
G1 X120.589 Y119.753 E0.01618
G1 X112.257 Y111.421 E0.35600
G1 X112.845 Y111.474 E0.01782
G1 X121.124 Y119.753 E0.35378
G1 X121.660 Y119.753 E0.01618
G1 X112.845 Y110.938 E0.37666
G1 X112.845 Y110.402 E0.01618
G1 X122.196 Y119.753 E0.39955
G1 X122.731 Y119.753 E0.01618
G1 X112.845 Y109.867 E0.42243
G1 X112.845 Y109.331 E0.01618
G1 X123.267 Y119.753 E0.44531
G1 X123.802 Y119.753 E0.01618
G1 X112.845 Y108.796 E0.46820
G1 X112.845 Y108.260 E0.01618
G1 X124.338 Y119.753 E0.49108
G1 X124.873 Y119.753 E0.01618
G1 X112.845 Y107.725 E0.51397
G1 X112.845 Y107.189 E0.01618
G1 X125.409 Y119.753 E0.53685
G1 X125.944 Y119.753 E0.01618
G1 X98.440 Y92.249 E1.17523
G1 X98.976 Y92.249 E0.01618
G1 X126.480 Y119.753 E1.17523
G1 X127.016 Y119.753 E0.01618
G1 X99.511 Y92.249 E1.17523
G1 X100.047 Y92.249 E0.01618
G1 X116.146 Y108.348 E0.68791
G1 X115.957 Y107.623 F7200.000
G1 F1680
G1 X100.583 Y92.249 E0.65694
G1 X101.118 Y92.249 E0.01618
G1 X115.416 Y106.546 E0.61092
G1 X115.369 Y106.359 E0.00583
G1 X115.299 Y105.894 E0.01420
G1 X101.654 Y92.249 E0.58306
G1 X102.189 Y92.249 E0.01618
G1 X115.257 Y105.317 E0.55837
G1 X115.229 Y104.753 E0.01704
G1 X102.725 Y92.249 E0.53430
G1 X103.260 Y92.249 E0.01618
G1 X115.201 Y104.190 E0.51023
G1 X115.187 Y103.904 E0.00864
G1 X115.451 Y103.904 E0.00797
G1 X103.796 Y92.249 E0.49802
G1 X104.331 Y92.249 E0.01618
G1 X115.987 Y103.904 E0.49802
G1 X116.522 Y103.904 E0.01618
G1 X104.867 Y92.249 E0.49802
G1 X105.403 Y92.249 E0.01618
G1 X117.058 Y103.904 E0.49802
G1 X117.593 Y103.904 E0.01618
G1 X105.938 Y92.249 E0.49802
G1 X106.474 Y92.249 E0.01618
G1 X118.129 Y103.904 E0.49802
G1 X118.664 Y103.904 E0.01618
G1 X107.009 Y92.249 E0.49802
G1 X107.545 Y92.249 E0.01618
G1 X119.200 Y103.904 E0.49802
G1 X119.735 Y103.904 E0.01618
G1 X108.080 Y92.249 E0.49802
G1 X108.616 Y92.249 E0.01618
G1 X120.271 Y103.904 E0.49802
G1 X120.807 Y103.904 E0.01618
G1 X109.151 Y92.249 E0.49802
G1 X109.687 Y92.249 E0.01618
G1 X121.342 Y103.904 E0.49802
G1 X121.878 Y103.904 E0.01618
G1 X110.223 Y92.249 E0.49802
G1 X110.758 Y92.249 E0.01618
G1 X138.262 Y119.753 E1.17523
G1 X138.798 Y119.753 E0.01618
G1 X111.294 Y92.249 E1.17523
G1 X111.829 Y92.249 E0.01618
G1 X139.333 Y119.753 E1.17523
G1 X139.869 Y119.753 E0.01618
G1 X112.365 Y92.249 E1.17523
G1 X112.900 Y92.249 E0.01618
G1 X140.574 Y119.923 E1.18248
G1 F5760
G1 X139.023 Y118.371 E-0.76000
G1 E-0.04000 F2100.00000
G1 X137.896 Y119.923 F7200.000
G1 E0.80000 F2100.00000
G1 F1680
G1 X122.746 Y104.772 E0.64737
G1 X122.746 Y105.308 E0.01618
G1 X137.191 Y119.753 E0.61724
G1 X136.656 Y119.753 E0.01618
G1 X122.746 Y105.843 E0.59435
