; generated by Slic3r 1.36.2-prusa3d on 2017-09-05 at 14:38:22

; 

; external perimeters extrusion width = 0.60mm
; perimeters extrusion width = 0.43mm
; infill extrusion width = 0.70mm
; solid infill extrusion width = 0.70mm
; top infill extrusion width = 0.43mm
; first layer extrusion width = 0.42mm

M107
M115 U3.0.12 ; tell printer latest fw version
M83  ; extruder relative mode
M104 S230 ; set extruder temp
M140 S85 ; set bed temp
M190 S85 ; wait for bed temp
M109 S230 ; wait for extruder temp
G28 W ; home all without mesh bed level
G80 ; mesh bed leveling
G1 Y-3.0 F1000.0 ; go outside pritn area
G1 X60.0 E9.0  F1000.0 ; intro line
G1 X100.0 E12.5  F1000.0 ; intro line
; Filament gcode

G21 ; set units to millimeters
G90 ; use absolute coordinates
M83 ; use relative distances for extrusion
G1 E-0.80000 F2100.00000
G1 Z0.200 F7200.000
G1 X96.082 Y90.727 F7200.000
G1 E0.80000 F2100.00000
M204 S1000
G1 F2100
G1 X97.478 Y89.913 E0.04862
G1 X98.379 Y89.533 E0.02940
G1 X99.992 Y89.098 E0.05025
G1 X114.166 Y86.590 E0.43298
G1 X152.676 Y86.584 E1.15837
G1 X153.734 Y86.740 E0.03217
G1 X154.340 Y86.939 E0.01919
G1 X155.049 Y87.299 E0.02393
G1 X156.101 Y88.167 E0.04102
G1 X156.542 Y88.725 E0.02140
G1 X156.892 Y89.335 E0.02114
G1 X161.815 Y102.899 E0.43406
G1 X162.233 Y104.493 E0.04956
G1 X162.376 Y106.246 E0.05290
G1 X162.329 Y107.133 E0.02674
G1 X162.068 Y108.624 E0.04553
G1 X161.464 Y110.327 E0.05434
G1 X156.373 Y119.155 E0.30654
G1 X155.292 Y120.462 E0.05102
G1 X154.517 Y121.171 E0.03160
G1 X153.179 Y122.098 E0.04895
G1 X151.621 Y122.822 E0.05167
G1 X149.990 Y123.261 E0.05082
G1 X148.297 Y123.416 E0.05112
G1 X101.713 Y123.416 E1.40124
G1 X99.941 Y123.248 E0.05354
G1 X98.354 Y122.813 E0.04951
G1 X96.805 Y122.089 E0.05143
G1 X95.413 Y121.114 E0.05112
G1 X94.210 Y119.918 E0.05103
G1 X93.210 Y118.502 E0.05213
G1 X88.914 Y111.061 E0.25847
G1 X88.207 Y109.521 E0.05096
G1 X87.756 Y107.787 E0.05390
G1 X87.653 Y106.928 E0.02600
G1 X87.654 Y105.415 E0.04553
G1 X87.955 Y103.638 E0.05421
G1 X88.573 Y101.953 E0.05399
G1 X93.222 Y93.833 E0.28145
G1 X94.150 Y92.510 E0.04860
G1 X94.845 Y91.756 E0.03086
G1 X96.036 Y90.766 E0.04657
G1 F5760
G1 X97.478 Y89.913 E-0.58030
G1 F5760
G1 X97.956 Y89.711 E-0.17970
G1 E-0.04000 F2100.00000
G1 X154.798 Y114.663 F7200.000
G1 E0.80000 F2100.00000
G1 F840
G1 X154.442 Y115.786 E0.03542
G1 X154.231 Y116.300 E0.01673
G1 X153.793 Y117.155 E0.02888
G1 X152.932 Y117.011 E0.02625
G1 X152.520 Y116.988 E0.01243
G1 X152.106 Y117.008 E0.01244
G1 X151.697 Y117.071 E0.01246
G1 X151.298 Y117.177 E0.01241
G1 X150.913 Y117.324 E0.01241
G1 X150.544 Y117.512 E0.01246
G1 X150.197 Y117.737 E0.01244
G1 X149.876 Y117.998 E0.01243
G1 X149.585 Y118.291 E0.01244
G1 X149.326 Y118.613 E0.01242
G1 X149.103 Y118.960 E0.01243
G1 X148.917 Y119.330 E0.01244
G1 X148.610 Y120.147 E0.02624
G1 X147.651 Y120.099 E0.02888
G1 X147.099 Y120.025 E0.01675
G1 X145.949 Y119.771 E0.03542
G1 X146.338 Y118.570 E0.03798
G1 X146.595 Y117.979 E0.01940
G1 X146.909 Y117.415 E0.01941
G1 X147.277 Y116.885 E0.01941
G1 X147.694 Y116.394 E0.01938
G1 X148.159 Y115.945 E0.01943
G1 X148.664 Y115.544 E0.01940
G1 X149.206 Y115.195 E0.01940
G1 X149.780 Y114.900 E0.01942
G1 X150.380 Y114.662 E0.01941
G1 X151.000 Y114.486 E0.01940
G1 X151.634 Y114.369 E0.01939
G1 X152.257 Y114.317 E0.01878
G1 X152.922 Y114.325 E0.02002
G1 X153.563 Y114.399 E0.01941
G1 X154.739 Y114.651 E0.03618
G1 X154.313 Y114.945 F7200.000
G1 F840
G1 X154.088 Y115.657 E0.02246
G1 X153.888 Y116.142 E0.01578
G1 X153.583 Y116.737 E0.02012
G1 X152.974 Y116.636 E0.01858
G1 X152.521 Y116.610 E0.01364
G1 X152.068 Y116.632 E0.01364
G1 X151.620 Y116.702 E0.01365
G1 X151.182 Y116.817 E0.01361
G1 X150.759 Y116.979 E0.01363
G1 X150.355 Y117.185 E0.01365
G1 X149.975 Y117.432 E0.01364
G1 X149.623 Y117.718 E0.01363
G1 X149.304 Y118.039 E0.01363
G1 X149.020 Y118.392 E0.01362
G1 X148.775 Y118.773 E0.01363
G1 X148.571 Y119.178 E0.01364
G1 X148.354 Y119.756 E0.01857
G1 X147.686 Y119.723 E0.02012
G1 X147.165 Y119.653 E0.01580
G1 X146.436 Y119.492 E0.02246
G1 X146.691 Y118.704 E0.02494
G1 X146.934 Y118.146 E0.01829
G1 X147.230 Y117.615 E0.01829
G1 X147.576 Y117.115 E0.01830
G1 X147.970 Y116.652 E0.01827
G1 X148.407 Y116.229 E0.01832
G1 X148.884 Y115.851 E0.01828
G1 X149.395 Y115.522 E0.01829
G1 X149.936 Y115.244 E0.01831
G1 X150.501 Y115.020 E0.01829
G1 X151.086 Y114.853 E0.01829
G1 X151.684 Y114.744 E0.01829
G1 X152.270 Y114.695 E0.01768
G1 X152.898 Y114.702 E0.01890
G1 X153.502 Y114.772 E0.01828
G1 X154.254 Y114.932 E0.02314
G1 X154.699 Y115.048 F7200.000
G1 F5760
G1 X154.088 Y115.657 E-0.25744
G1 F5760
G1 X153.888 Y116.142 E-0.18172
G1 F5760
G1 X153.583 Y116.737 E-0.23168
G1 F5760
G1 X153.329 Y116.695 E-0.08916
G1 E-0.04000 F2100.00000
G1 X152.609 Y117.285 F7200.000
G1 E0.80000 F2100.00000
G1 F840
G1 X152.984 Y118.148 E0.02830
G1 X152.306 Y118.730 E0.02690
G1 X151.806 Y119.085 E0.01843
G1 X151.275 Y119.391 E0.01845
G1 X150.718 Y119.647 E0.01842
G1 X149.875 Y119.943 E0.02690
G1 X149.315 Y119.187 E0.02829
G1 X149.767 Y118.575 E0.02286
G1 X150.109 Y118.224 E0.01476
G1 X150.497 Y117.923 E0.01477
G1 X150.922 Y117.677 E0.01476
G1 X151.378 Y117.491 E0.01482
G1 X151.854 Y117.370 E0.01478
G1 X152.549 Y117.292 E0.02102
G1 X152.374 Y117.691 F7200.000
G1 F840
G1 X152.527 Y118.043 E0.01155
G1 X152.073 Y118.433 E0.01800
G1 X151.602 Y118.767 E0.01737
G1 X151.101 Y119.056 E0.01739
G1 X150.577 Y119.297 E0.01737
G1 X150.012 Y119.495 E0.01800
G1 X149.784 Y119.187 E0.01154
G1 X150.055 Y118.820 E0.01371
G1 X150.361 Y118.506 E0.01319
G1 X150.708 Y118.236 E0.01323
G1 X151.088 Y118.016 E0.01321
G1 X151.496 Y117.850 E0.01325
G1 X151.922 Y117.742 E0.01322
G1 X152.314 Y117.698 E0.01187
G1 X152.737 Y117.565 F7200.000
G1 F5760
G1 X152.527 Y118.043 E-0.14048
G1 F5760
G1 X152.073 Y118.433 E-0.20722
G1 F5760
G1 X151.602 Y118.767 E-0.20005
G1 F5760
G1 X151.101 Y119.056 E-0.20028
G1 F5760
G1 X151.070 Y119.070 E-0.01196
G1 E-0.04000 F2100.00000
G1 X151.449 Y114.051 F7200.000
G1 E0.80000 F2100.00000
G1 F840
G1 X150.625 Y114.247 E0.02545
G1 X150.087 Y114.423 E0.01703
G1 X149.564 Y114.642 E0.01706
G1 X149.062 Y114.903 E0.01702
G1 X148.254 Y115.411 E0.02871
G1 X147.291 Y114.821 E0.03396
G1 X146.631 Y114.486 E0.02228
G1 X146.660 Y113.349 E0.03419
G1 X146.622 Y112.608 E0.02233
G1 X147.600 Y112.078 E0.03345
G1 X148.253 Y111.657 E0.02339
G1 X149.009 Y112.144 E0.02703
G1 X149.523 Y112.416 E0.01750
G1 X150.058 Y112.644 E0.01749
G1 X150.611 Y112.827 E0.01751
G1 X151.486 Y113.036 E0.02708
G1 X151.485 Y114.020 E0.02959
G1 X151.109 Y113.744 F7200.000
G1 F840
G1 X150.523 Y113.883 E0.01810
G1 X149.955 Y114.069 E0.01796
G1 X149.404 Y114.300 E0.01798
G1 X148.874 Y114.575 E0.01795
G1 X148.251 Y114.967 E0.02214
G1 X147.475 Y114.491 E0.02738
G1 X147.014 Y114.257 E0.01557
G1 X147.037 Y113.345 E0.02746
G1 X147.011 Y112.826 E0.01561
G1 X147.792 Y112.403 E0.02673
G1 X148.253 Y112.106 E0.01651
G1 X148.818 Y112.470 E0.02021
G1 X149.361 Y112.756 E0.01845
G1 X149.924 Y112.997 E0.01844
G1 X150.507 Y113.190 E0.01847
G1 X151.109 Y113.334 E0.01860
G1 X151.109 Y113.684 E0.01054
G1 X151.276 Y114.108 F7200.000
G1 F5760
G1 X150.523 Y113.883 E-0.21423
G1 F5760
G1 X149.955 Y114.069 E-0.20684
G1 F5760
G1 X149.404 Y114.300 E-0.20706
G1 F5760
G1 X149.066 Y114.476 E-0.13188
G1 E-0.04000 F2100.00000
G1 X147.994 Y115.568 F7200.000
G1 E0.80000 F2100.00000
G1 F840
G1 X147.175 Y116.492 E0.03711
G1 X146.891 Y116.860 E0.01402
G1 X146.338 Y117.683 E0.02979
G1 X145.465 Y117.272 E0.02903
G1 X145.059 Y117.134 E0.01291
G1 X144.640 Y117.040 E0.01291
G1 X144.213 Y116.994 E0.01291
G1 X143.783 Y116.994 E0.01294
G1 X143.357 Y117.041 E0.01291
G1 X142.938 Y117.135 E0.01291
G1 X142.530 Y117.274 E0.01294
G1 X142.142 Y117.457 E0.01291
G1 X141.776 Y117.681 E0.01290
G1 X141.438 Y117.944 E0.01291
G1 X141.129 Y118.243 E0.01294
G1 X140.855 Y118.573 E0.01290
G1 X140.619 Y118.933 E0.01292
G1 X140.423 Y119.315 E0.01293
G1 X140.109 Y120.146 E0.02673
G1 X139.151 Y120.099 E0.02884
G1 X138.599 Y120.025 E0.01675
G1 X137.449 Y119.771 E0.03542
G1 X137.836 Y118.577 E0.03777
G1 X138.090 Y117.991 E0.01921
G1 X138.399 Y117.432 E0.01921
G1 X138.760 Y116.906 E0.01920
G1 X139.172 Y116.417 E0.01923
G1 X139.629 Y115.971 E0.01920
G1 X140.126 Y115.572 E0.01919
G1 X140.661 Y115.221 E0.01923
G1 X141.226 Y114.925 E0.01920
G1 X141.817 Y114.684 E0.01918
G1 X142.430 Y114.502 E0.01923
G1 X143.055 Y114.380 E0.01917
G1 X143.671 Y114.321 E0.01860
G1 X144.330 Y114.320 E0.01982
G1 X144.967 Y114.384 E0.01925
G1 X145.592 Y114.508 E0.01917
G1 X146.203 Y114.691 E0.01921
G1 X146.794 Y114.934 E0.01922
G1 X147.941 Y115.540 E0.03901
G1 X147.393 Y115.677 F7200.000
G1 F840
G1 X146.885 Y116.251 E0.02306
G1 X146.584 Y116.640 E0.01478
G1 X146.206 Y117.204 E0.02043
G1 X145.606 Y116.922 E0.01993
G1 X145.161 Y116.770 E0.01415
G1 X144.702 Y116.668 E0.01416
G1 X144.234 Y116.617 E0.01416
G1 X143.763 Y116.617 E0.01417
G1 X143.295 Y116.668 E0.01416
G1 X142.835 Y116.771 E0.01416
G1 X142.389 Y116.924 E0.01419
G1 X141.963 Y117.124 E0.01416
G1 X141.562 Y117.370 E0.01415
G1 X141.190 Y117.659 E0.01416
G1 X140.851 Y117.987 E0.01418
G1 X140.551 Y118.349 E0.01415
G1 X140.293 Y118.743 E0.01416
G1 X140.078 Y119.162 E0.01417
G1 X139.853 Y119.756 E0.01911
G1 X139.186 Y119.723 E0.02010
G1 X138.665 Y119.653 E0.01580
G1 X137.936 Y119.492 E0.02246
G1 X138.189 Y118.710 E0.02474
G1 X138.428 Y118.157 E0.01811
G1 X138.720 Y117.630 E0.01812
G1 X139.061 Y117.135 E0.01809
G1 X139.449 Y116.674 E0.01812
G1 X139.880 Y116.254 E0.01810
G1 X140.348 Y115.877 E0.01809
G1 X140.852 Y115.547 E0.01813
G1 X141.385 Y115.267 E0.01810
G1 X141.942 Y115.041 E0.01808
G1 X142.520 Y114.869 E0.01813
G1 X143.110 Y114.754 E0.01808
G1 X143.689 Y114.698 E0.01752
G1 X144.311 Y114.697 E0.01871
G1 X144.911 Y114.757 E0.01813
G1 X145.501 Y114.874 E0.01808
G1 X146.077 Y115.047 E0.01810
G1 X146.634 Y115.276 E0.01811
G1 X147.340 Y115.649 E0.02403
G1 X147.716 Y115.914 F7200.000
G1 F5760
G1 X146.885 Y116.251 E-0.26138
G1 F5760
G1 X146.584 Y116.640 E-0.17019
G1 F5760
G1 X146.206 Y117.204 E-0.23523
G1 F5760
G1 X145.962 Y117.089 E-0.09319
G1 E-0.04000 F2100.00000
G1 X146.191 Y117.983 F7200.000
G1 E0.80000 F2100.00000
G1 F840
G1 X145.630 Y119.659 E0.05315
G1 X144.565 Y118.999 E0.03769
G1 X143.999 Y118.565 E0.02147
G1 X143.806 Y118.730 E0.00764
G1 X143.306 Y119.085 E0.01843
G1 X142.775 Y119.391 E0.01845
G1 X142.218 Y119.647 E0.01842
G1 X141.375 Y119.943 E0.02690
G1 X140.815 Y119.187 E0.02829
G1 X141.267 Y118.575 E0.02286
G1 X141.609 Y118.224 E0.01476
G1 X141.997 Y117.923 E0.01477
G1 X142.422 Y117.677 E0.01476
G1 X142.880 Y117.490 E0.01486
G1 X143.369 Y117.368 E0.01518
G1 X143.874 Y117.311 E0.01529
G1 X143.885 Y117.287 E0.00079
G1 X144.109 Y117.285 E0.00673
G1 X144.120 Y117.312 E0.00087
G1 X144.576 Y117.358 E0.01379
G1 X144.985 Y117.449 E0.01261
G1 X145.381 Y117.588 E0.01263
G1 X146.137 Y117.957 E0.02529
G1 X145.729 Y118.177 F7200.000
G1 F840
G1 X145.424 Y119.087 E0.02887
G1 X144.776 Y118.686 E0.02291
G1 X144.370 Y118.387 E0.01518
G1 X144.000 Y118.066 E0.01472
G1 X143.573 Y118.433 E0.01691
G1 X143.102 Y118.767 E0.01737
G1 X142.601 Y119.056 E0.01739
G1 X142.077 Y119.297 E0.01737
G1 X141.512 Y119.495 E0.01800
G1 X141.284 Y119.187 E0.01154
G1 X141.555 Y118.820 E0.01371
G1 X141.861 Y118.506 E0.01319
G1 X142.208 Y118.236 E0.01323
G1 X142.588 Y118.016 E0.01321
G1 X142.997 Y117.850 E0.01326
G1 X143.436 Y117.740 E0.01363
G1 X143.874 Y117.691 E0.01325
G1 X143.998 Y117.975 E0.00933
G1 X144.121 Y117.691 E0.00933
G1 X144.516 Y117.731 E0.01193
G1 X144.882 Y117.813 E0.01128
G1 X145.236 Y117.937 E0.01129
G1 X145.675 Y118.151 E0.01468
G1 X146.104 Y118.314 F7200.000
G1 F5760
G1 X145.424 Y119.087 E-0.33580
G1 F5760
G1 X144.776 Y118.686 E-0.26383
G1 F5760
G1 X144.403 Y118.412 E-0.16037
G1 E-0.04000 F2100.00000
G1 X143.376 Y113.975 F7200.000
G1 E0.80000 F2100.00000
G1 F840
G1 X142.360 Y114.185 E0.03120
G1 X141.882 Y114.320 E0.01495
G1 X140.485 Y114.826 E0.04469
G1 X139.361 Y115.775 E0.04425
G1 X139.005 Y116.122 E0.01497
G1 X138.316 Y116.897 E0.03119
G1 X137.524 Y116.354 E0.02889
G1 X137.166 Y116.029 E0.01452
G1 X136.856 Y115.661 E0.01448
G1 X136.598 Y115.255 E0.01447
G1 X136.396 Y114.816 E0.01453
G1 X136.256 Y114.354 E0.01452
G1 X136.178 Y113.880 E0.01444
G1 X136.164 Y113.398 E0.01451
G1 X136.215 Y112.918 E0.01452
G1 X136.330 Y112.450 E0.01449
G1 X136.507 Y112.002 E0.01450
G1 X136.742 Y111.582 E0.01445
G1 X137.031 Y111.196 E0.01454
G1 X137.370 Y110.854 E0.01448
G1 X137.751 Y110.558 E0.01451
G1 X138.169 Y110.318 E0.01450
G1 X138.614 Y110.135 E0.01448
G1 X139.080 Y110.013 E0.01448
G1 X139.545 Y109.957 E0.01408
G1 X140.039 Y109.962 E0.01488
G1 X140.518 Y110.033 E0.01455
G1 X140.981 Y110.168 E0.01452
G1 X141.421 Y110.363 E0.01447
G1 X141.831 Y110.616 E0.01449
G1 X142.204 Y110.921 E0.01450
G1 X142.534 Y111.274 E0.01453
G1 X142.811 Y111.667 E0.01448
G1 X143.034 Y112.094 E0.01448
G1 X143.198 Y112.546 E0.01448
G1 X143.300 Y113.017 E0.01450
G1 X143.372 Y113.916 E0.02710
G1 X142.974 Y113.673 F7200.000
G1 F840
G1 X142.271 Y113.818 E0.02160
G1 X141.766 Y113.961 E0.01577
G1 X140.922 Y114.267 E0.02702
G1 X141.035 Y113.647 E0.01895
G1 X141.032 Y113.404 E0.00730
G1 X140.983 Y113.164 E0.00737
G1 X140.891 Y112.939 E0.00732
G1 X140.758 Y112.735 E0.00733
G1 X140.588 Y112.559 E0.00734
G1 X140.388 Y112.419 E0.00734
G1 X140.167 Y112.319 E0.00732
G1 X139.930 Y112.262 E0.00732
G1 X139.685 Y112.252 E0.00736
G1 X139.444 Y112.286 E0.00734
G1 X139.214 Y112.367 E0.00734
G1 X139.002 Y112.488 E0.00733
G1 X138.819 Y112.648 E0.00732
G1 X138.667 Y112.839 E0.00735
G1 X138.555 Y113.056 E0.00734
G1 X138.485 Y113.290 E0.00733
G1 X138.461 Y113.532 E0.00733
G1 X138.482 Y113.775 E0.00734
G1 X138.550 Y114.010 E0.00734
G1 X138.660 Y114.227 E0.00734
G1 X138.809 Y114.420 E0.00731
G1 X138.992 Y114.581 E0.00734
G1 X139.202 Y114.705 E0.00732
G1 X139.793 Y114.918 E0.01889
G1 X139.108 Y115.496 E0.02695
G1 X138.732 Y115.861 E0.01578
G1 X138.255 Y116.398 E0.02160
G1 X137.758 Y116.057 E0.01811
G1 X137.438 Y115.767 E0.01299
G1 X137.161 Y115.437 E0.01295
G1 X136.930 Y115.074 E0.01296
G1 X136.749 Y114.682 E0.01299
G1 X136.624 Y114.269 E0.01299
G1 X136.555 Y113.844 E0.01294
G1 X136.542 Y113.413 E0.01298
G1 X136.588 Y112.984 E0.01299
G1 X136.690 Y112.565 E0.01296
G1 X136.849 Y112.164 E0.01298
G1 X137.059 Y111.788 E0.01294
G1 X137.318 Y111.443 E0.01300
G1 X137.620 Y111.136 E0.01295
G1 X137.962 Y110.872 E0.01298
G1 X138.335 Y110.657 E0.01297
G1 X138.734 Y110.493 E0.01297
G1 X139.151 Y110.384 E0.01295
G1 X139.565 Y110.334 E0.01256
G1 X140.010 Y110.339 E0.01337
G1 X140.437 Y110.402 E0.01300
G1 X140.851 Y110.523 E0.01298
G1 X141.245 Y110.698 E0.01295
G1 X141.612 Y110.923 E0.01296
G1 X141.946 Y111.196 E0.01297
G1 X142.240 Y111.512 E0.01299
G1 X142.489 Y111.864 E0.01296
G1 X142.689 Y112.246 E0.01297
G1 X142.835 Y112.651 E0.01295
G1 X142.926 Y113.072 E0.01297
G1 X142.969 Y113.613 E0.01633
G1 X143.046 Y114.067 F7200.000
G1 F5760
G1 X142.271 Y113.818 E-0.25208
G1 F5760
G1 X141.766 Y113.961 E-0.18158
G1 F5760
G1 X140.922 Y114.267 E-0.31111
G1 F5760
G1 X140.930 Y114.224 E-0.01524
G1 E-0.04000 F2100.00000
G1 X146.365 Y114.331 F7200.000
G1 E0.80000 F2100.00000
G1 F1680
G1 X145.156 Y114.085 E0.03711
G1 X144.694 Y114.022 E0.01403
G1 X143.706 Y113.956 E0.02977
G1 X143.623 Y112.987 E0.02926
G1 X143.538 Y112.559 E0.01311
G1 X143.405 Y112.144 E0.01312
G1 X143.227 Y111.745 E0.01315
G1 X143.005 Y111.369 E0.01312
G1 X142.743 Y111.019 E0.01314
G1 X142.444 Y110.702 E0.01311
G1 X142.112 Y110.420 E0.01311
G1 X141.750 Y110.177 E0.01313
G1 X141.363 Y109.975 E0.01313
G1 X140.956 Y109.817 E0.01313
G1 X140.534 Y109.706 E0.01312
G1 X140.102 Y109.643 E0.01313
G1 X139.666 Y109.628 E0.01312
G1 X139.231 Y109.661 E0.01313
G1 X138.803 Y109.743 E0.01312
G1 X138.386 Y109.872 E0.01312
G1 X137.986 Y110.047 E0.01312
G1 X137.608 Y110.265 E0.01313
G1 X137.257 Y110.524 E0.01312
G1 X136.937 Y110.820 E0.01312
G1 X136.652 Y111.151 E0.01314
G1 X136.405 Y111.511 E0.01313
G1 X136.200 Y111.896 E0.01312
G1 X136.039 Y112.301 E0.01310
G1 X135.924 Y112.723 E0.01314
G1 X135.857 Y113.153 E0.01311
G1 X135.838 Y113.589 E0.01313
