; generated by Slic3r 1.36.2-prusa3d on 2017-09-05 at 13:41:06

; 

; external perimeters extrusion width = 0.45mm
; perimeters extrusion width = 0.45mm
; infill extrusion width = 0.45mm
; solid infill extrusion width = 0.45mm
; top infill extrusion width = 0.45mm
; support material extrusion width = 0.35mm
; first layer extrusion width = 0.42mm

M107
M115 U3.0.12 ; tell printer latest fw version
M83  ; extruder relative mode
M104 S230 ; set extruder temp
M140 S85 ; set bed temp
M190 S85 ; wait for bed temp
M109 S230 ; wait for extruder temp
G28 W ; home all without mesh bed level
G80 ; mesh bed leveling
G1 Y-3.0 F1000.0 ; go outside pritn area
G1 X60.0 E9.0  F1000.0 ; intro line
G1 X100.0 E12.5  F1000.0 ; intro line
; Filament gcode

G21 ; set units to millimeters
G90 ; use absolute coordinates
M83 ; use relative distances for extrusion
G1 E-0.80000 F2100.00000
G1 Z0.200 F7200.000
G1 X93.106 Y102.948 F7200.000
G1 E0.80000 F2100.00000
M204 S1000
G1 F2100
G1 X93.682 Y102.632 E0.01976
G1 X132.160 Y93.506 E1.18954
G1 X152.891 Y93.478 E0.62358
G1 X157.543 Y93.651 E0.14003
G1 X158.166 Y93.770 E0.01908
G1 X158.770 Y94.073 E0.02033
G1 X159.266 Y94.537 E0.02044
G1 X159.610 Y95.119 E0.02033
G1 X159.776 Y95.778 E0.02044
G1 X159.781 Y96.547 E0.02314
G1 X159.667 Y97.105 E0.01714
G1 X155.844 Y107.526 E0.33388
G1 X155.305 Y108.330 E0.02913
G1 X154.921 Y108.636 E0.01475
G1 X154.487 Y108.854 E0.01464
G1 X115.931 Y117.992 E1.19188
G1 X112.625 Y118.179 E0.09959
G1 X94.373 Y118.005 E0.54904
G1 X93.712 Y117.866 E0.02033
G1 X93.113 Y117.545 E0.02044
G1 X92.632 Y117.071 E0.02033
G1 X92.303 Y116.476 E0.02044
G1 X92.148 Y115.661 E0.02496
G1 X92.160 Y104.619 E0.33215
G1 X92.314 Y103.981 E0.01976
G1 X92.638 Y103.409 E0.01976
G1 X93.063 Y102.990 E0.01795
G1 F5760
G1 X93.682 Y102.632 E-0.24756
G1 F5760
G1 X95.121 Y102.291 E-0.51244
G1 E-0.04000 F2100.00000
G1 X94.525 Y104.855 F7200.000
G1 E0.80000 F2100.00000
G1 F2100
G1 X94.525 Y115.633 E0.32420
G1 X95.279 Y115.633 E0.02268
G1 X95.279 Y105.024 E0.31910
G1 X96.033 Y105.024 E0.02268
G1 X96.033 Y115.633 E0.31910
G1 X96.787 Y115.633 E0.02268
G1 X96.787 Y105.024 E0.31910
G1 X97.542 Y105.024 E0.02268
G1 X97.542 Y115.633 E0.31910
G1 X98.296 Y115.633 E0.02268
G1 X98.296 Y105.024 E0.31910
G1 X99.050 Y105.024 E0.02268
G1 X99.050 Y115.633 E0.31910
G1 X99.804 Y115.633 E0.02268
G1 X99.804 Y105.024 E0.31910
G1 X100.558 Y105.024 E0.02268
G1 X100.558 Y115.633 E0.31910
G1 X101.312 Y115.633 E0.02268
G1 X101.312 Y105.024 E0.31910
G1 X102.067 Y105.024 E0.02268
G1 X102.067 Y115.633 E0.31910
G1 X102.821 Y115.633 E0.02268
G1 X102.821 Y105.024 E0.31910
G1 X103.575 Y105.024 E0.02268
G1 X103.575 Y115.633 E0.31910
G1 X104.329 Y115.633 E0.02268
G1 X104.329 Y105.024 E0.31910
G1 X105.083 Y105.024 E0.02268
G1 X105.083 Y115.633 E0.31910
G1 X105.837 Y115.633 E0.02268
G1 X105.837 Y105.024 E0.31910
G1 X106.591 Y105.024 E0.02268
G1 X106.591 Y115.633 E0.31910
G1 X107.346 Y115.633 E0.02268
G1 X107.346 Y105.024 E0.31910
G1 X108.100 Y105.024 E0.02268
G1 X108.100 Y115.633 E0.31910
G1 X108.854 Y115.633 E0.02268
G1 X108.854 Y105.024 E0.31910
G1 X109.608 Y105.024 E0.02268
G1 X109.608 Y115.633 E0.31910
G1 X110.362 Y115.633 E0.02268
G1 X110.362 Y105.024 E0.31910
G1 X111.116 Y105.024 E0.02268
G1 X111.116 Y115.633 E0.31910
G1 X111.871 Y115.633 E0.02268
G1 X111.871 Y105.024 E0.31910
G1 X112.625 Y105.024 E0.02268
G1 X112.625 Y115.802 E0.32420
G1 F5760
G1 X112.625 Y113.608 E-0.76000
G1 E-0.04000 F2100.00000
G1 X114.887 Y104.855 F7200.000
G1 E0.80000 F2100.00000
G1 F2100
G1 X114.887 Y107.541 E0.08082
G1 X114.133 Y107.541 E0.02268
G1 X114.133 Y105.024 E0.07571
G1 X113.379 Y105.024 E0.02268
G1 X113.379 Y115.633 E0.31910
G1 X114.133 Y115.633 E0.02268
G1 X114.133 Y111.459 E0.12556
G1 X114.887 Y111.459 E0.02268
G1 X114.887 Y115.633 E0.12556
G1 X115.641 Y115.633 E0.02268
G1 X115.641 Y105.024 E0.31910
G1 X116.396 Y105.024 E0.02268
G1 X116.396 Y108.129 E0.09340
G1 X117.150 Y107.375 E0.03208
G1 X117.150 Y105.024 E0.07072
G1 X117.904 Y105.024 E0.02268
G1 X117.904 Y106.621 E0.04803
G1 X118.658 Y105.867 E0.03208
G1 X118.658 Y105.024 E0.02535
G1 X119.412 Y105.024 E0.02268
G1 X119.412 Y105.353 E0.00988
G1 F5760
G1 X119.412 Y105.024 E-0.11375
G1 F5760
G1 X118.658 Y105.024 E-0.26121
G1 F5760
G1 X118.658 Y105.867 E-0.29184
G1 F5760
G1 X118.468 Y106.057 E-0.09321
G1 E-0.04000 F2100.00000
G1 X114.608 Y108.587 F7200.000
G1 E0.80000 F2100.00000
G1 F840
G1 X114.608 Y110.413 E0.05492
G1 X114.389 Y110.413 E0.00659
G1 X114.389 Y108.587 E0.05492
G1 X114.548 Y108.587 E0.00479
G1 X114.986 Y108.210 F7200.000
G1 F840
G1 X114.986 Y110.790 E0.07761
G1 X114.012 Y110.790 E0.02928
G1 X114.012 Y108.210 E0.07761
G1 X114.926 Y108.210 E0.02747
G1 X114.938 Y108.607 F7200.000
G1 F5760
G1 X114.977 Y110.404 E-0.76000
G1 E-0.04000 F2100.00000
G1 X132.525 Y95.855 F7200.000
G1 E0.80000 F2100.00000
G1 F2100
G1 X132.525 Y106.633 E0.32420
G1 X133.279 Y106.633 E0.02268
G1 X133.279 Y96.024 E0.31910
G1 X134.033 Y96.024 E0.02268
G1 X134.033 Y106.633 E0.31910
G1 X134.787 Y106.633 E0.02268
G1 X134.787 Y96.024 E0.31910
G1 X135.542 Y96.024 E0.02268
G1 X135.542 Y106.633 E0.31910
G1 X136.296 Y106.633 E0.02268
G1 X136.296 Y96.024 E0.31910
G1 X137.050 Y96.024 E0.02268
G1 X137.050 Y106.633 E0.31910
G1 X137.804 Y106.633 E0.02268
G1 X137.804 Y96.024 E0.31910
G1 X138.558 Y96.024 E0.02268
G1 X138.558 Y106.633 E0.31910
G1 X139.312 Y106.633 E0.02268
G1 X139.312 Y96.024 E0.31910
G1 X140.067 Y96.024 E0.02268
G1 X140.067 Y106.633 E0.31910
G1 X140.821 Y106.633 E0.02268
G1 X140.821 Y96.024 E0.31910
G1 X141.575 Y96.024 E0.02268
G1 X141.575 Y106.633 E0.31910
G1 X142.329 Y106.633 E0.02268
G1 X142.329 Y96.024 E0.31910
G1 X143.083 Y96.024 E0.02268
G1 X143.083 Y106.633 E0.31910
G1 X143.837 Y106.633 E0.02268
G1 X143.837 Y96.024 E0.31910
G1 X144.591 Y96.024 E0.02268
G1 X144.591 Y106.633 E0.31910
G1 X145.346 Y106.633 E0.02268
G1 X145.346 Y96.024 E0.31910
G1 X146.100 Y96.024 E0.02268
G1 X146.100 Y106.633 E0.31910
G1 X146.854 Y106.633 E0.02268
G1 X146.854 Y96.024 E0.31910
G1 X147.608 Y96.024 E0.02268
G1 X147.608 Y106.633 E0.31910
G1 X148.362 Y106.633 E0.02268
G1 X148.362 Y96.024 E0.31910
G1 X149.116 Y96.024 E0.02268
G1 X149.116 Y106.633 E0.31910
G1 X149.871 Y106.633 E0.02268
G1 X149.871 Y96.024 E0.31910
G1 X150.625 Y96.024 E0.02268
G1 X150.625 Y106.802 E0.32420
G1 F5760
G1 X150.625 Y104.608 E-0.76000
G1 E-0.04000 F2100.00000
G1 X152.887 Y95.855 F7200.000
G1 E0.80000 F2100.00000
G1 F2100
G1 X152.887 Y98.541 E0.08082
G1 X152.133 Y98.541 E0.02268
G1 X152.133 Y96.024 E0.07571
G1 X151.379 Y96.024 E0.02268
G1 X151.379 Y106.633 E0.31910
G1 X152.133 Y106.633 E0.02268
G1 X152.133 Y102.459 E0.12556
G1 X152.887 Y102.459 E0.02268
G1 X152.887 Y106.633 E0.12556
G1 X153.641 Y106.633 E0.02268
G1 X153.641 Y96.024 E0.31910
G1 X154.396 Y96.024 E0.02268
G1 X154.396 Y99.129 E0.09340
G1 X155.150 Y98.375 E0.03208
G1 X155.150 Y96.024 E0.07072
G1 X155.904 Y96.024 E0.02268
G1 X155.904 Y97.621 E0.04803
G1 X156.658 Y96.867 E0.03208
G1 X156.658 Y96.024 E0.02535
G1 X157.412 Y96.024 E0.02268
G1 X157.412 Y96.353 E0.00988
G1 F5760
G1 X157.412 Y96.024 E-0.11375
G1 F5760
G1 X156.658 Y96.024 E-0.26121
G1 F5760
G1 X156.658 Y96.867 E-0.29184
G1 F5760
G1 X156.468 Y97.057 E-0.09321
G1 E-0.04000 F2100.00000
G1 X152.608 Y99.587 F7200.000
G1 E0.80000 F2100.00000
G1 F840
G1 X152.608 Y101.413 E0.05492
G1 X152.389 Y101.413 E0.00659
G1 X152.389 Y99.587 E0.05492
G1 X152.548 Y99.587 E0.00479
G1 X152.986 Y99.210 F7200.000
G1 F840
G1 X152.986 Y101.790 E0.07761
G1 X152.012 Y101.790 E0.02928
G1 X152.012 Y99.210 E0.07761
G1 X152.926 Y99.210 E0.02747
G1 X152.938 Y99.607 F7200.000
G1 F5760
G1 X152.977 Y101.404 E-0.76000
G1 E-0.04000 F2100.00000
G1 Z0.300 F7200.000
M104 S240 ; set temperature
M140 S90 ; set bed temperature
G1 X155.305 Y108.330 F7200.000
G1 E0.80000 F2100.00000
G1 F906
G1 X154.921 Y108.636 E0.00797
G1 X154.487 Y108.854 E0.00791
G1 X115.931 Y117.992 E0.64392
G1 X112.625 Y118.179 E0.05381
G1 X94.373 Y118.005 E0.29662
G1 X93.712 Y117.866 E0.01098
G1 X93.113 Y117.545 E0.01104
G1 X92.632 Y117.071 E0.01098
G1 X92.303 Y116.476 E0.01104
G1 X92.148 Y115.661 E0.01349
G1 X92.160 Y104.619 E0.17944
G1 X92.314 Y103.981 E0.01067
G1 X92.638 Y103.409 E0.01067
G1 X93.106 Y102.948 E0.01067
G1 X93.682 Y102.632 E0.01067
G1 X132.160 Y93.506 E0.64265
G1 X152.891 Y93.478 E0.33689
G1 X157.543 Y93.651 E0.07565
G1 X158.166 Y93.770 E0.01031
G1 X158.770 Y94.073 E0.01098
G1 X159.266 Y94.537 E0.01104
G1 X159.610 Y95.119 E0.01098
G1 X159.776 Y95.778 E0.01104
G1 X159.781 Y96.547 E0.01250
G1 X159.667 Y97.105 E0.00926
G1 X155.844 Y107.526 E0.18038
G1 X155.339 Y108.281 E0.01476
G1 F5760
G1 X154.921 Y108.636 E-0.18979
G1 F5760
G1 X154.487 Y108.854 E-0.16857
G1 F5760
G1 X153.358 Y109.122 E-0.40164
G1 E-0.04000 F2100.00000
G1 X114.503 Y109.082 F7200.000
G1 E0.80000 F2100.00000
M204 S800
G1 F362
G1 X114.503 Y109.918 E0.01463
G1 X114.496 Y109.135 E0.01370
M204 S1000
G1 X114.068 Y108.654 F7200.000
M204 S800
G1 F362
G1 X114.932 Y108.654 E0.01512
G1 X114.932 Y110.346 E0.02962
G1 X114.068 Y110.346 E0.01512
G1 X114.068 Y108.714 E0.02857
M204 S1000
G1 X113.639 Y108.225 F7200.000
M204 S800
G1 F1200
G1 X115.361 Y108.225 E0.03012
G1 X115.361 Y110.775 E0.04462
G1 X113.639 Y110.775 E0.03012
G1 X113.639 Y108.285 E0.04357
M204 S1000
G1 X114.018 Y108.353 F7200.000
G1 F5760
G1 X115.361 Y108.225 E-0.59658
G1 F5760
G1 X115.361 Y108.697 E-0.16342
G1 E-0.04000 F2100.00000
G1 X152.496 Y100.918 F7200.000
G1 E0.80000 F2100.00000
M204 S800
G1 F362
G1 X152.496 Y100.082 E0.01463
G1 X152.503 Y100.865 E0.01370
M204 S1000
G1 X152.932 Y101.346 F7200.000
M204 S800
G1 F362
G1 X152.068 Y101.346 E0.01512
G1 X152.068 Y99.654 E0.02962
G1 X152.932 Y99.654 E0.01512
G1 X152.932 Y101.286 E0.02857
M204 S1000
G1 F5760
G1 X152.068 Y101.346 E-0.30008
G1 F5760
G1 X152.068 Y100.019 E-0.45992
G1 E-0.04000 F2100.00000
G1 X151.639 Y101.775 F7200.000
G1 E0.80000 F2100.00000
M204 S800
G1 F1200
G1 X151.639 Y99.225 E0.04462
G1 X153.361 Y99.225 E0.03012
G1 X153.361 Y101.775 E0.04462
G1 X151.699 Y101.775 E0.02907
M204 S1000
G1 X151.718 Y101.383 F7200.000
G1 F5760
G1 X151.648 Y99.581 E-0.76000
G1 E-0.04000 F2100.00000
G1 Z0.400 F7200.000
G1 X155.305 Y108.330 F7200.000
G1 E0.80000 F2100.00000
G1 F941
G1 X154.921 Y108.636 E0.00797
G1 X154.487 Y108.854 E0.00791
G1 X115.931 Y117.992 E0.64392
G1 X112.625 Y118.179 E0.05381
G1 X94.373 Y118.005 E0.29662
G1 X93.712 Y117.866 E0.01098
G1 X93.113 Y117.545 E0.01104
G1 X92.632 Y117.071 E0.01098
G1 X92.303 Y116.476 E0.01104
G1 X92.148 Y115.661 E0.01349
G1 X92.160 Y104.619 E0.17944
G1 X92.314 Y103.981 E0.01067
G1 X92.638 Y103.409 E0.01067
G1 X93.106 Y102.948 E0.01067
G1 X93.682 Y102.632 E0.01067
G1 X132.160 Y93.506 E0.64265
G1 X152.891 Y93.478 E0.33689
G1 X157.543 Y93.651 E0.07565
G1 X158.166 Y93.770 E0.01031
G1 X158.770 Y94.073 E0.01098
G1 X159.266 Y94.537 E0.01104
G1 X159.610 Y95.119 E0.01098
G1 X159.776 Y95.778 E0.01104
G1 X159.781 Y96.547 E0.01250
G1 X159.667 Y97.105 E0.00926
G1 X155.844 Y107.526 E0.18038
G1 X155.339 Y108.281 E0.01476
G1 F5760
G1 X154.921 Y108.636 E-0.18979
G1 F5760
G1 X154.487 Y108.854 E-0.16857
G1 F5760
G1 X153.358 Y109.122 E-0.40164
G1 E-0.04000 F2100.00000
G1 X114.699 Y109.082 F7200.000
G1 E0.80000 F2100.00000
M204 S800
G1 F376
G1 X114.699 Y109.918 E0.01463
G1 X114.297 Y109.918 E0.00702
G1 X114.297 Y109.082 E0.01463
G1 X114.639 Y109.082 E0.00597
M204 S1000
G1 X115.127 Y108.654 F7200.000
M204 S800
G1 F376
G1 X115.127 Y110.346 E0.02962
G1 X113.869 Y110.346 E0.02202
G1 X113.869 Y108.654 E0.02962
G1 X115.067 Y108.654 E0.02097
M204 S1000
G1 X115.067 Y108.225 F7200.000
M204 S800
G1 F1200
G1 X115.556 Y108.225 E0.00855
G1 X115.556 Y110.775 E0.04462
G1 X113.440 Y110.775 E0.03702
G1 X113.440 Y108.225 E0.04462
G1 X115.007 Y108.225 E0.02742
M204 S1000
G1 X115.370 Y108.487 F7200.000
G1 F5760
G1 X115.556 Y108.225 E-0.18999
G1 F5760
G1 X115.556 Y109.871 E-0.57001
G1 E-0.04000 F2100.00000
G1 X152.297 Y100.918 F7200.000
G1 E0.80000 F2100.00000
M204 S800
G1 F376
G1 X152.297 Y100.082 E0.01463
G1 X152.699 Y100.082 E0.00702
G1 X152.699 Y100.918 E0.01463
G1 X152.357 Y100.918 E0.00597
M204 S1000
G1 X151.869 Y101.346 F7200.000
M204 S800
G1 F376
G1 X151.869 Y99.654 E0.02962
G1 X153.127 Y99.654 E0.02202
G1 X153.127 Y101.346 E0.02962
G1 X151.929 Y101.346 E0.02097
M204 S1000
G1 X151.929 Y101.775 F7200.000
M204 S800
G1 F1200
G1 X151.440 Y101.775 E0.00855
G1 X151.440 Y99.225 E0.04462
G1 X153.556 Y99.225 E0.03702
G1 X153.556 Y101.775 E0.04462
G1 X151.989 Y101.775 E0.02742
M204 S1000
G1 X151.626 Y101.513 F7200.000
G1 F5760
G1 X151.440 Y101.775 E-0.18999
G1 F5760
G1 X151.440 Y100.129 E-0.57001
G1 E-0.04000 F2100.00000
G1 Z0.419 F7200.000
G1 X112.431 Y108.000 F7200.000
G1 E0.80000 F2100.00000
G1 F450
G1 X96.986 Y108.000 E0.40214
G1 X96.986 Y110.329 E0.06063
G1 X112.283 Y110.329 E0.39829
G1 X112.283 Y111.180 E0.02217
G1 X112.537 Y111.434 E0.00937
G1 X113.285 Y111.434 E0.01948
G1 X113.285 Y112.657 E0.03184
G1 X96.838 Y112.657 E0.42825
G1 F5760
G1 X99.032 Y112.657 E-0.76000
G1 E-0.04000 F2100.00000
G1 X134.838 Y103.657 F7200.000
G1 E0.80000 F2100.00000
G1 F450
G1 X151.285 Y103.657 E0.42825
G1 X151.285 Y102.434 E0.03184
G1 X150.537 Y102.434 E0.01948
G1 X150.283 Y102.180 E0.00937
G1 X150.283 Y101.329 E0.02217
G1 X134.986 Y101.329 E0.39829
G1 X134.986 Y99.000 E0.06063
G1 X150.431 Y99.000 E0.40214
M106 S127.5
G1 F5760
G1 X148.236 Y99.000 E-0.76000
G1 E-0.04000 F2100.00000
G1 Z0.500 F7200.000
G1 X114.845 Y109.082 F7200.000
G1 E0.80000 F2100.00000
M204 S800
G1 F300
G1 X114.845 Y109.918 E0.01463
G1 X114.155 Y109.918 E0.01207
G1 X114.155 Y109.082 E0.01463
G1 X114.785 Y109.082 E0.01102
M204 S1000
G1 X115.274 Y108.654 F7200.000
M204 S800
G1 F300
G1 X115.274 Y110.346 E0.02962
G1 X113.727 Y110.346 E0.02707
G1 X113.727 Y108.654 E0.02962
G1 X115.214 Y108.654 E0.02602
M204 S1000
G1 X115.702 Y108.225 F7200.000
M204 S800
G1 F300
G1 X115.702 Y110.775 E0.04462
G1 X113.298 Y110.775 E0.04207
G1 X113.298 Y108.225 E0.04462
G1 X115.642 Y108.225 E0.04102
M204 S1000
G1 X115.602 Y108.612 F7200.000
G1 F5760
G1 X115.694 Y110.419 E-0.76000
G1 E-0.04000 F2100.00000
G1 X152.155 Y100.918 F7200.000
G1 E0.80000 F2100.00000
M204 S800
G1 F300
G1 X152.155 Y100.082 E0.01463
G1 X152.845 Y100.082 E0.01207
G1 X152.845 Y100.918 E0.01463
G1 X152.215 Y100.918 E0.01102
M204 S1000
G1 X151.727 Y101.346 F7200.000
M204 S800
G1 F300
G1 X151.727 Y99.654 E0.02962
G1 X153.274 Y99.654 E0.02707
G1 X153.274 Y101.346 E0.02962
G1 X151.787 Y101.346 E0.02602
M204 S1000
G1 X151.298 Y101.775 F7200.000
M204 S800
G1 F300
G1 X151.298 Y99.225 E0.04462
G1 X153.702 Y99.225 E0.04207
G1 X153.702 Y101.775 E0.04462
G1 X151.358 Y101.775 E0.04102
M204 S1000
G1 X151.398 Y101.388 F7200.000
G1 F5760
G1 X151.306 Y99.581 E-0.76000
G1 E-0.04000 F2100.00000
G1 Z0.600 F7200.000
G1 X114.988 Y109.082 F7200.000
G1 E0.80000 F2100.00000
M204 S800
G1 F300
G1 X114.988 Y109.918 E0.01463
G1 X114.013 Y109.918 E0.01707
G1 X114.013 Y109.082 E0.01463
G1 X114.928 Y109.082 E0.01602
M204 S1000
G1 X115.417 Y108.654 F7200.000
M204 S800
G1 F300
G1 X115.417 Y110.346 E0.02962
G1 X113.584 Y110.346 E0.03207
G1 X113.584 Y108.654 E0.02962
G1 X115.357 Y108.654 E0.03102
M204 S1000
G1 X115.846 Y108.225 F7200.000
M204 S800
G1 F300
G1 X115.846 Y110.775 E0.04462
G1 X113.156 Y110.775 E0.04706
G1 X113.156 Y108.225 E0.04462
G1 X115.786 Y108.225 E0.04601
M204 S1000
G1 X115.739 Y108.610 F7200.000
G1 F5760
G1 X115.837 Y110.419 E-0.76000
G1 E-0.04000 F2100.00000
G1 X152.013 Y100.918 F7200.000
G1 E0.80000 F2100.00000
M204 S800
G1 F300
G1 X152.013 Y100.082 E0.01463
G1 X152.988 Y100.082 E0.01707
G1 X152.988 Y100.918 E0.01463
G1 X152.073 Y100.918 E0.01602
M204 S1000
G1 X151.584 Y101.346 F7200.000
M204 S800
G1 F300
G1 X151.584 Y99.654 E0.02962
G1 X153.417 Y99.654 E0.03207
G1 X153.417 Y101.346 E0.02962
G1 X151.644 Y101.346 E0.03102
M204 S1000
G1 X151.156 Y101.775 F7200.000
M204 S800
G1 F300
G1 X151.156 Y99.225 E0.04462
G1 X153.846 Y99.225 E0.04706
G1 X153.846 Y101.775 E0.04462
G1 X151.216 Y101.775 E0.04601
M204 S1000
G1 X151.263 Y101.390 F7200.000
M107
G1 F5760
G1 X151.164 Y99.581 E-0.76000
G1 E-0.04000 F2100.00000
G1 Z0.638 F7200.000
