; generated by Slic3r 1.37.1-prusa3d on 2017-10-07 at 08:11:44

; 

; external perimeters extrusion width = 0.60mm
; perimeters extrusion width = 0.43mm
; infill extrusion width = 0.70mm
; solid infill extrusion width = 0.70mm
; top infill extrusion width = 0.43mm
; first layer extrusion width = 0.42mm

M107
M115 U3.0.12 ; tell printer latest fw version
M83  ; extruder relative mode
M104 S255 ; set extruder temp
M140 S100 ; set bed temp
M190 S100 ; wait for bed temp
M109 S255 ; wait for extruder temp
G28 W ; home all without mesh bed level
G80 ; mesh bed leveling
G1 Y-3.0 F1000.0 ; go outside pritn area
G1 X60.0 E9.0  F1000.0 ; intro line
G1 X100.0 E12.5  F1000.0 ; intro line
; Filament gcode

G21 ; set units to millimeters
G90 ; use absolute coordinates
M83 ; use relative distances for extrusion
G1 E-0.80000 F2100.00000
G1 Z0.200 F7200.000
G1 X106.811 Y87.053 F7200.000
G1 E0.80000 F2100.00000
M204 S1000
G1 F2100
G1 X107.614 Y86.381 E0.03282
G1 X108.549 Y85.922 E0.03266
G1 X109.565 Y85.696 E0.03266
G1 X129.543 Y85.572 E0.62639
G1 X130.687 Y85.725 E0.03620
G1 X131.863 Y86.202 E0.03980
G1 X133.206 Y87.001 E0.04899
G1 X134.405 Y87.951 E0.04795
G1 X141.045 Y94.604 E0.29474
G1 X142.114 Y96.090 E0.05738
G1 X142.681 Y97.246 E0.04037
G1 X143.014 Y98.316 E0.03514
G1 X144.286 Y104.165 E0.18766
G1 X144.373 Y104.856 E0.02186
G1 X144.375 Y120.196 E0.48096
G1 X144.214 Y121.235 E0.03298
G1 X143.807 Y122.211 E0.03314
G1 X143.146 Y123.094 E0.03459
G1 X142.290 Y123.781 E0.03443
G1 X141.289 Y124.234 E0.03443
G1 X140.203 Y124.423 E0.03459
G1 X109.922 Y124.427 E0.94941
G1 X108.846 Y124.273 E0.03411
G1 X107.840 Y123.858 E0.03411
G1 X106.957 Y123.197 E0.03459
G1 X106.270 Y122.341 E0.03443
G1 X105.817 Y121.340 E0.03443
G1 X105.628 Y120.254 E0.03459
G1 X105.624 Y89.973 E0.94941
G1 X105.778 Y88.897 E0.03411
G1 X106.193 Y87.891 E0.03411
G1 X106.775 Y87.101 E0.03078
G1 F5760
G1 X107.614 Y86.381 E-0.38276
G1 F5760
G1 X108.549 Y85.922 E-0.36076
G1 F5760
G1 X108.595 Y85.911 E-0.01647
G1 E-0.04000 F2100.00000
G1 X141.583 Y102.255 F7200.000
G1 E0.80000 F2100.00000
G1 F2100
G1 X141.950 Y102.479 E0.01349
G1 X142.700 Y103.278 E0.03435
G1 X143.043 Y103.952 E0.02370
G1 X143.197 Y104.609 E0.02114
G1 X143.205 Y120.475 E0.49747
G1 X142.794 Y121.698 E0.04047
G1 X142.495 Y122.090 E0.01546
G1 X141.764 Y122.766 E0.03121
G1 X141.271 Y123.028 E0.01752
G1 X140.413 Y123.256 E0.02783
G1 X109.576 Y123.256 E0.96687
G1 X108.353 Y122.845 E0.04045
G1 X107.961 Y122.546 E0.01546
G1 X107.285 Y121.815 E0.03121
G1 X107.023 Y121.322 E0.01752
G1 X106.795 Y120.464 E0.02783
G1 X106.795 Y89.627 E0.96688
G1 X107.206 Y88.404 E0.04045
G1 X107.505 Y88.012 E0.01546
G1 X108.236 Y87.336 E0.03121
G1 X108.730 Y87.074 E0.01752
G1 X109.588 Y86.846 E0.02784
G1 X125.396 Y86.849 E0.49567
G1 X126.096 Y87.006 E0.02249
G1 X126.727 Y87.319 E0.02207
G1 X127.228 Y87.757 E0.02088
G1 X127.734 Y87.280 E0.02179
G1 X128.548 Y86.884 E0.02840
G1 X129.286 Y86.739 E0.02357
G1 X130.058 Y86.760 E0.02422
G1 X131.340 Y87.252 E0.04304
G1 X132.015 Y87.624 E0.02418
G1 X132.578 Y87.992 E0.02107
G1 X133.108 Y88.390 E0.02079
G1 X133.637 Y88.837 E0.02171
G1 X134.146 Y89.320 E0.02201
G1 X134.695 Y89.907 E0.02521
G1 X135.199 Y90.532 E0.02516
G1 X135.667 Y91.233 E0.02644
G1 X136.086 Y92.038 E0.02844
G1 X136.284 Y92.573 E0.01788
G1 X136.782 Y92.765 E0.01674
G1 X137.447 Y93.101 E0.02336
G1 X138.066 Y93.488 E0.02290
G1 X138.634 Y93.910 E0.02218
G1 X139.147 Y94.345 E0.02109
G1 X139.654 Y94.827 E0.02194
G1 X140.214 Y95.434 E0.02590
G1 X140.714 Y96.076 E0.02551
G1 X141.210 Y96.867 E0.02927
G1 X141.629 Y97.774 E0.03132
G1 X141.861 Y98.530 E0.02480
G1 X141.999 Y99.328 E0.02540
G1 X142.024 Y100.300 E0.03049
G1 X141.890 Y101.261 E0.03041
G1 X141.601 Y102.197 E0.03073
G1 F5760
G1 X141.950 Y102.479 E-0.15546
G1 F5760
G1 X142.700 Y103.278 E-0.37946
G1 F5760
G1 X142.995 Y103.857 E-0.22509
G1 E-0.04000 F2100.00000
G1 X135.988 Y92.863 F7200.000
G1 E0.80000 F2100.00000
G1 F2100
G1 X136.620 Y93.106 E0.02123
G1 X137.269 Y93.434 E0.02278
G1 X137.859 Y93.804 E0.02185
G1 X138.395 Y94.202 E0.02092
G1 X138.891 Y94.622 E0.02039
G1 X139.390 Y95.096 E0.02158
G1 X139.922 Y95.673 E0.02460
G1 X140.400 Y96.285 E0.02437
G1 X140.873 Y97.037 E0.02784
G1 X141.272 Y97.897 E0.02973
G1 X141.497 Y98.629 E0.02401
G1 X141.624 Y99.378 E0.02382
G1 X141.647 Y100.293 E0.02871
G1 X141.519 Y101.192 E0.02848
G1 X141.287 Y101.947 E0.02475
G1 X141.070 Y102.398 E0.01568
G1 X141.698 Y102.761 E0.02273
G1 X142.378 Y103.477 E0.03096
G1 X142.683 Y104.064 E0.02075
G1 X142.820 Y104.632 E0.01832
G1 X142.828 Y120.444 E0.49579
G1 X142.475 Y121.496 E0.03477
G1 X142.225 Y121.826 E0.01301
G1 X141.562 Y122.447 E0.02845
G1 X141.149 Y122.671 E0.01474
G1 X140.387 Y122.879 E0.02477
G1 X109.606 Y122.879 E0.96510
G1 X108.555 Y122.526 E0.03476
G1 X108.225 Y122.276 E0.01301
G1 X107.604 Y121.613 E0.02845
G1 X107.380 Y121.200 E0.01474
G1 X107.172 Y120.438 E0.02477
G1 X107.172 Y89.657 E0.96510
G1 X107.525 Y88.606 E0.03476
G1 X107.775 Y88.276 E0.01301
G1 X108.438 Y87.655 E0.02845
G1 X108.851 Y87.431 E0.01474
G1 X109.613 Y87.223 E0.02478
G1 X125.376 Y87.226 E0.49421
G1 X125.949 Y87.354 E0.01842
G1 X126.535 Y87.645 E0.02051
G1 X127.239 Y88.276 E0.02967
G1 X127.929 Y87.603 E0.03022
G1 X128.646 Y87.249 E0.02508
G1 X129.337 Y87.113 E0.02207
G1 X130.012 Y87.136 E0.02117
G1 X131.190 Y87.598 E0.03968
G1 X131.815 Y87.943 E0.02239
G1 X132.356 Y88.297 E0.02028
G1 X132.877 Y88.688 E0.02042
G1 X133.389 Y89.121 E0.02102
G1 X133.882 Y89.590 E0.02133
G1 X134.415 Y90.159 E0.02446
G1 X134.900 Y90.762 E0.02423
G1 X135.347 Y91.434 E0.02532
G1 X135.745 Y92.201 E0.02710
G1 X135.968 Y92.807 E0.02025
G1 X135.693 Y93.154 F7200.000
G1 F2100
G1 X136.459 Y93.447 E0.02573
G1 X137.091 Y93.766 E0.02219
G1 X137.652 Y94.119 E0.02079
G1 X138.156 Y94.493 E0.01967
G1 X138.635 Y94.899 E0.01968
G1 X139.125 Y95.365 E0.02122
G1 X139.630 Y95.912 E0.02332
G1 X140.087 Y96.495 E0.02324
G1 X140.537 Y97.207 E0.02641
G1 X140.916 Y98.021 E0.02814
G1 X141.127 Y98.705 E0.02244
G1 X141.250 Y99.427 E0.02299
G1 X141.270 Y100.286 E0.02693
G1 X141.154 Y101.096 E0.02564
G1 X140.931 Y101.822 E0.02381
G1 X140.537 Y102.628 E0.02815
G1 X140.911 Y102.744 E0.01226
G1 X141.445 Y103.042 E0.01919
G1 X142.085 Y103.715 E0.02912
G1 X142.336 Y104.213 E0.01749
G1 X142.443 Y104.654 E0.01423
G1 X142.451 Y120.414 E0.49412
G1 X142.155 Y121.294 E0.02913
G1 X141.953 Y121.565 E0.01059
G1 X141.357 Y122.129 E0.02573
G1 X141.024 Y122.314 E0.01196
G1 X140.360 Y122.502 E0.02162
G1 X109.637 Y122.502 E0.96330
G1 X108.757 Y122.206 E0.02912
G1 X108.486 Y122.004 E0.01059
G1 X107.922 Y121.408 E0.02573
G1 X107.737 Y121.075 E0.01196
G1 X107.549 Y120.411 E0.02162
G1 X107.549 Y89.688 E0.96330
G1 X107.845 Y88.808 E0.02912
G1 X108.047 Y88.537 E0.01059
G1 X108.643 Y87.973 E0.02573
G1 X108.976 Y87.788 E0.01196
G1 X109.640 Y87.600 E0.02163
G1 X125.353 Y87.603 E0.49268
G1 X125.841 Y87.716 E0.01568
G1 X126.341 Y87.969 E0.01757
G1 X126.942 Y88.517 E0.02552
G1 X127.164 Y88.877 E0.01325
G1 X128.170 Y87.895 E0.04407
G1 X128.785 Y87.600 E0.02141
G1 X129.384 Y87.487 E0.01909
G1 X129.963 Y87.511 E0.01816
G1 X131.037 Y87.943 E0.03632
G1 X131.615 Y88.263 E0.02068
G1 X132.135 Y88.602 E0.01949
G1 X132.646 Y88.986 E0.02004
G1 X133.141 Y89.405 E0.02032
G1 X133.618 Y89.859 E0.02065
G1 X134.135 Y90.412 E0.02372
G1 X134.600 Y90.991 E0.02330
G1 X135.027 Y91.634 E0.02419
G1 X135.405 Y92.363 E0.02575
G1 X135.672 Y93.098 E0.02452
G1 X135.378 Y93.495 F7200.000
G1 F2100
G1 X135.628 Y93.533 E0.00793
G1 X136.315 Y93.796 E0.02308
G1 X136.898 Y94.091 E0.02047
G1 X137.434 Y94.426 E0.01982
G1 X137.917 Y94.785 E0.01887
G1 X138.379 Y95.176 E0.01898
G1 X138.852 Y95.626 E0.02047
G1 X139.348 Y96.162 E0.02288
G1 X139.784 Y96.720 E0.02222
G1 X140.201 Y97.378 E0.02442
G1 X140.559 Y98.145 E0.02655
G1 X140.763 Y98.804 E0.02163
G1 X140.876 Y99.477 E0.02139
G1 X140.894 Y100.249 E0.02423
G1 X140.789 Y100.999 E0.02375
G1 X140.575 Y101.696 E0.02285
G1 X140.214 Y102.428 E0.02558
G1 X139.846 Y102.964 E0.02040
G1 X140.476 Y103.009 E0.01981
G1 X140.749 Y103.085 E0.00887
G1 X141.235 Y103.356 E0.01745
G1 X141.789 Y103.950 E0.02546
G1 X141.988 Y104.359 E0.01427
G1 X142.066 Y104.678 E0.01027
G1 X142.074 Y120.383 E0.49244
G1 X141.834 Y121.095 E0.02355
G1 X141.679 Y121.305 E0.00819
G1 X141.149 Y121.814 E0.02305
G1 X140.894 Y121.960 E0.00919
G1 X140.332 Y122.125 E0.01838
G1 X109.668 Y122.125 E0.96145
G1 X108.956 Y121.885 E0.02355
G1 X108.746 Y121.730 E0.00819
G1 X108.237 Y121.200 E0.02305
G1 X108.091 Y120.945 E0.00919
G1 X107.926 Y120.383 E0.01838
G1 X107.926 Y89.719 E0.96145
G1 X108.166 Y89.007 E0.02355
G1 X108.321 Y88.797 E0.00819
G1 X108.851 Y88.288 E0.02305
G1 X109.106 Y88.142 E0.00919
G1 X109.668 Y87.977 E0.01838
G1 X125.332 Y87.980 E0.49114
G1 X125.691 Y88.063 E0.01154
G1 X126.146 Y88.293 E0.01599
G1 X126.660 Y88.770 E0.02199
G1 X127.067 Y89.498 E0.02615
G1 X128.409 Y88.189 E0.05880
G1 X128.919 Y87.953 E0.01763
G1 X129.427 Y87.863 E0.01618
G1 X129.910 Y87.886 E0.01516
G1 X130.883 Y88.287 E0.03298
G1 X131.414 Y88.582 E0.01906
G1 X131.914 Y88.908 E0.01869
G1 X132.416 Y89.284 E0.01967
G1 X132.893 Y89.689 E0.01962
G1 X133.354 Y90.128 E0.01998
G1 X133.854 Y90.664 E0.02297
G1 X134.301 Y91.220 E0.02237
G1 X134.707 Y91.833 E0.02307
G1 X135.056 Y92.507 E0.02379
G1 X135.282 Y93.108 E0.02013
G1 X135.363 Y93.437 E0.01061
G1 X135.074 Y93.847 F7200.000
G1 F2100
G1 X135.519 Y93.895 E0.01405
G1 X136.171 Y94.145 E0.02189
G1 X136.705 Y94.415 E0.01876
G1 X137.215 Y94.734 E0.01886
G1 X137.678 Y95.077 E0.01807
G1 X138.124 Y95.453 E0.01828
G1 X138.580 Y95.886 E0.01972
G1 X139.065 Y96.412 E0.02243
G1 X139.481 Y96.945 E0.02119
G1 X139.864 Y97.549 E0.02245
G1 X140.203 Y98.270 E0.02496
G1 X140.393 Y98.879 E0.02002
G1 X140.502 Y99.526 E0.02056
G1 X140.519 Y100.213 E0.02156
G1 X140.424 Y100.903 E0.02184
G1 X140.219 Y101.570 E0.02187
G1 X139.883 Y102.247 E0.02369
G1 X139.507 Y102.788 E0.02067
G1 X139.055 Y103.300 E0.02138
G1 X140.396 Y103.378 E0.04210
G1 X140.627 Y103.443 E0.00753
G1 X140.983 Y103.638 E0.01273
G1 X141.463 Y104.142 E0.02182
G1 X141.640 Y104.507 E0.01272
G1 X141.689 Y104.701 E0.00626
G1 X141.697 Y120.352 E0.49072
G1 X141.512 Y120.897 E0.01806
G1 X141.403 Y121.047 E0.00580
G1 X140.936 Y121.502 E0.02044
G1 X140.759 Y121.607 E0.00643
G1 X140.302 Y121.748 E0.01500
G1 X109.699 Y121.748 E0.95955
G1 X109.154 Y121.563 E0.01806
G1 X109.004 Y121.454 E0.00580
G1 X108.549 Y120.987 E0.02044
G1 X108.444 Y120.810 E0.00643
G1 X108.303 Y120.353 E0.01500
G1 X108.303 Y89.750 E0.95955
G1 X108.488 Y89.205 E0.01806
G1 X108.597 Y89.055 E0.00580
G1 X109.064 Y88.600 E0.02044
G1 X109.241 Y88.495 E0.00643
G1 X109.698 Y88.354 E0.01500
G1 X125.311 Y88.358 E0.48954
G1 X125.547 Y88.411 E0.00758
G1 X125.911 Y88.589 E0.01271
G1 X126.380 Y89.024 E0.02004
G1 X126.643 Y89.515 E0.01746
G1 X126.679 Y89.690 E0.00561
G1 X126.713 Y90.380 E0.02166
G1 X128.601 Y88.515 E0.08321
G1 X129.011 Y88.320 E0.01425
G1 X129.471 Y88.238 E0.01463
G1 X129.854 Y88.260 E0.01205
G1 X130.725 Y88.630 E0.02966
G1 X131.214 Y88.902 E0.01754
G1 X131.693 Y89.213 E0.01790
G1 X132.185 Y89.582 E0.01929
G1 X132.644 Y89.973 E0.01891
G1 X133.090 Y90.397 E0.01930
G1 X133.574 Y90.916 E0.02223
G1 X134.001 Y91.449 E0.02143
G1 X134.387 Y92.033 E0.02196
G1 X134.707 Y92.650 E0.02180
G1 X134.925 Y93.230 E0.01940
G1 X135.060 Y93.789 E0.01803
G1 X134.740 Y94.300 F7200.000
G1 F2100
G1 X135.134 Y94.234 E0.01254
G1 X135.411 Y94.258 E0.00872
G1 X136.027 Y94.493 E0.02068
G1 X136.527 Y94.747 E0.01757
G1 X136.997 Y95.041 E0.01739
G1 X137.440 Y95.369 E0.01727
G1 X137.876 Y95.738 E0.01792
G1 X138.307 Y96.147 E0.01862
G1 X138.783 Y96.662 E0.02199
G1 X139.178 Y97.169 E0.02017
G1 X139.529 Y97.721 E0.02051
G1 X139.848 Y98.396 E0.02339
G1 X140.024 Y98.956 E0.01842
G1 X140.126 Y99.549 E0.01886
G1 X140.141 Y100.206 E0.02063
G1 X140.053 Y100.835 E0.01991
G1 X139.864 Y101.443 E0.01996
G1 X139.552 Y102.066 E0.02182
G1 X139.204 Y102.563 E0.01902
G1 X138.802 Y103.015 E0.01899
G1 X138.118 Y103.627 E0.02878
G1 X140.323 Y103.749 E0.06924
G1 X140.468 Y103.786 E0.00470
G1 X140.776 Y103.955 E0.01100
G1 X141.136 Y104.334 E0.01640
G1 X141.291 Y104.651 E0.01107
G1 X141.316 Y104.762 E0.00357
G1 X141.320 Y120.320 E0.48781
G1 X141.188 Y120.703 E0.01269
G1 X141.125 Y120.792 E0.00343
G1 X140.718 Y121.195 E0.01795
G1 X140.617 Y121.257 E0.00371
G1 X140.271 Y121.371 E0.01144
G1 X109.731 Y121.371 E0.95756
G1 X109.348 Y121.239 E0.01270
G1 X109.259 Y121.176 E0.00343
G1 X108.856 Y120.769 E0.01795
G1 X108.794 Y120.668 E0.00371
G1 X108.680 Y120.322 E0.01144
G1 X108.680 Y89.782 E0.95756
G1 X108.812 Y89.399 E0.01270
G1 X108.875 Y89.310 E0.00343
G1 X109.282 Y88.907 E0.01795
G1 X109.383 Y88.845 E0.00371
G1 X109.729 Y88.731 E0.01144
G1 X125.290 Y88.735 E0.48789
G1 X125.401 Y88.760 E0.00357
G1 X125.719 Y88.915 E0.01108
G1 X126.097 Y89.275 E0.01637
G1 X126.281 Y89.621 E0.01230
G1 X126.303 Y89.725 E0.00334
G1 X126.385 Y91.393 E0.05234
G1 X126.639 Y93.093 E0.05392
G1 X127.262 Y92.480 E0.02740
G1 X127.327 Y92.436 E0.00247
G1 X127.677 Y92.294 E0.01185
G1 X127.286 Y91.840 E0.01879
G1 X127.221 Y91.717 E0.00436
G1 X127.062 Y90.997 E0.02312
G1 X127.069 Y90.811 E0.00586
G1 X127.151 Y90.534 E0.00906
G1 X127.219 Y90.410 E0.00441
G1 X128.797 Y88.838 E0.06984
G1 X129.105 Y88.686 E0.01077
G1 X129.513 Y88.613 E0.01298
G1 X129.793 Y88.633 E0.00882
G1 X130.549 Y88.963 E0.02585
G1 X131.025 Y89.228 E0.01708
G1 X131.481 Y89.526 E0.01709
G1 X131.945 Y89.873 E0.01816
G1 X132.396 Y90.257 E0.01856
G1 X132.826 Y90.666 E0.01861
G1 X133.293 Y91.168 E0.02148
G1 X133.701 Y91.678 E0.02049
G1 X134.057 Y92.216 E0.02024
G1 X134.358 Y92.794 E0.02043
G1 X134.568 Y93.351 E0.01866
G1 X134.703 Y93.919 E0.01829
G1 X134.734 Y94.241 E0.01014
G1 X134.408 Y94.871 F7200.000
G1 F2100
G1 X134.799 Y94.681 E0.01365
G1 X135.132 Y94.612 E0.01065
G1 X135.350 Y94.631 E0.00686
G1 X135.879 Y94.840 E0.01784
G1 X136.334 Y95.071 E0.01600
G1 X136.779 Y95.349 E0.01644
G1 X137.201 Y95.661 E0.01647
G1 X137.621 Y96.015 E0.01721
G1 X138.043 Y96.416 E0.01826
G1 X138.490 Y96.900 E0.02066
G1 X138.875 Y97.394 E0.01962
G1 X139.204 Y97.913 E0.01928
G1 X139.492 Y98.522 E0.02112
G1 X139.655 Y99.034 E0.01684
G1 X139.749 Y99.574 E0.01718
G1 X139.765 Y100.171 E0.01875
G1 X139.688 Y100.740 E0.01799
G1 X139.519 Y101.290 E0.01804
G1 X139.235 Y101.862 E0.02003
G1 X138.915 Y102.320 E0.01753
G1 X138.528 Y102.756 E0.01829
G1 X138.113 Y103.125 E0.01739
G1 X137.708 Y103.406 E0.01545
G1 X137.353 Y103.590 E0.01253
G1 X137.398 Y103.860 E0.00860
G1 X138.622 Y104.042 E0.03878
G1 X140.318 Y104.132 E0.05327
G1 X140.526 Y104.239 E0.00733
G1 X140.840 Y104.569 E0.01427
G1 X140.937 Y104.782 E0.00733
G1 X140.943 Y120.287 E0.48614
G1 X140.843 Y120.541 E0.00856
G1 X140.490 Y120.894 E0.01566
G1 X140.236 Y120.994 E0.00856
G1 X109.764 Y120.994 E0.95540
G1 X109.510 Y120.894 E0.00856
G1 X109.157 Y120.541 E0.01566
G1 X109.057 Y120.287 E0.00856
G1 X109.057 Y89.815 E0.95540
G1 X109.157 Y89.561 E0.00856
G1 X109.510 Y89.208 E0.01566
G1 X109.764 Y89.108 E0.00856
G1 X125.270 Y89.114 E0.48618
G1 X125.483 Y89.211 E0.00734
G1 X125.813 Y89.525 E0.01428
G1 X125.920 Y89.733 E0.00734
G1 X126.009 Y91.430 E0.05326
G1 X126.212 Y92.794 E0.04324
G1 X126.465 Y93.805 E0.03268
G1 X127.514 Y92.765 E0.04632
G1 X127.742 Y92.683 E0.00758
G1 X128.227 Y92.683 E0.01523
G1 X128.478 Y92.793 E0.00857
G1 X129.174 Y93.491 E0.03092
G1 X129.672 Y93.947 E0.02117
G1 X130.061 Y94.226 E0.01499
G1 X130.381 Y94.378 E0.01112
G1 X130.571 Y94.189 E0.00839
G1 X130.625 Y94.065 E0.00424
G1 X130.615 Y93.935 E0.00408
G1 X130.499 Y93.700 E0.00823
G1 X130.238 Y93.359 E0.01347
G1 X129.934 Y93.049 E0.01361
G1 X129.509 Y92.700 E0.01723
G1 X129.014 Y92.373 E0.01862
G1 X128.475 Y92.099 E0.01894
G1 X127.743 Y91.798 E0.02482
G1 X127.570 Y91.576 E0.00883
G1 X127.435 Y90.942 E0.02030
G1 X127.529 Y90.625 E0.01036
G1 X128.998 Y89.158 E0.06512
G1 X129.201 Y89.052 E0.00718
G1 X129.552 Y88.989 E0.01116
G1 X129.725 Y89.005 E0.00545
G1 X130.372 Y89.296 E0.02224
G1 X130.825 Y89.548 E0.01624
G1 X131.270 Y89.838 E0.01668
G1 X131.705 Y90.165 E0.01705
G1 X132.140 Y90.533 E0.01787
G1 X132.561 Y90.935 E0.01826
