; generated by Slic3r 1.37.1-prusa3d on 2017-10-07 at 08:15:30

; 

; external perimeters extrusion width = 0.45mm
; perimeters extrusion width = 0.45mm
; infill extrusion width = 0.45mm
; solid infill extrusion width = 0.45mm
; top infill extrusion width = 0.45mm
; first layer extrusion width = 0.42mm

M107
M115 U3.0.12 ; tell printer latest fw version
M83  ; extruder relative mode
M104 S255 ; set extruder temp
M140 S100 ; set bed temp
M190 S100 ; wait for bed temp
M109 S255 ; wait for extruder temp
G28 W ; home all without mesh bed level
G80 ; mesh bed leveling
G1 Y-3.0 F1000.0 ; go outside pritn area
G1 X60.0 E9.0  F1000.0 ; intro line
G1 X100.0 E12.5  F1000.0 ; intro line
; Filament gcode

G21 ; set units to millimeters
G90 ; use absolute coordinates
M83 ; use relative distances for extrusion
G1 E-0.80000 F2100.00000
G1 Z0.200 F7200.000
G1 X106.558 Y87.296 F7200.000
G1 E0.80000 F2100.00000
M204 S1000
G1 F2100
G1 X107.356 Y86.512 E0.03507
G1 X108.322 Y85.957 E0.03491
G1 X109.401 Y85.664 E0.03507
G1 X125.003 Y85.623 E0.48919
G1 X126.062 Y85.754 E0.03346
G1 X133.228 Y87.681 E0.23266
G1 X134.367 Y88.175 E0.03893
G1 X135.084 Y88.724 E0.02831
G1 X140.979 Y94.431 E0.25726
G1 X141.728 Y95.285 E0.03562
G1 X142.396 Y96.309 E0.03832
G1 X142.827 Y97.244 E0.03231
G1 X143.117 Y98.230 E0.03222
G1 X144.368 Y104.726 E0.20741
G1 X144.376 Y120.093 E0.48183
G1 X144.275 Y120.939 E0.02670
G1 X144.013 Y121.749 E0.02670
G1 X143.390 Y122.769 E0.03748
G1 X142.514 Y123.583 E0.03748
G1 X141.451 Y124.129 E0.03748
G1 X140.275 Y124.368 E0.03764
G1 X109.953 Y124.377 E0.95071
G1 X109.087 Y124.281 E0.02734
G1 X108.251 Y124.013 E0.02750
G1 X107.231 Y123.390 E0.03748
G1 X106.417 Y122.514 E0.03748
G1 X105.871 Y121.451 E0.03748
G1 X105.632 Y120.275 E0.03764
G1 X105.623 Y89.953 E0.95071
G1 X105.719 Y89.087 E0.02734
G1 X105.987 Y88.251 E0.02750
G1 X106.528 Y87.347 E0.03303
G1 F5760
G1 X107.356 Y86.512 E-0.40755
G1 F5760
G1 X108.239 Y86.005 E-0.35245
G1 E-0.04000 F2100.00000
G1 X128.267 Y91.193 F7200.000
G1 E0.80000 F2100.00000
G1 F2100
G1 X130.256 Y89.232 E0.08760
G1 X130.983 Y88.855 E0.02568
G1 X131.603 Y88.709 E0.01995
G1 X132.518 Y88.708 E0.02869
G1 X133.267 Y88.892 E0.02421
G1 X133.968 Y89.283 E0.02516
G1 X136.020 Y91.327 E0.09081
G1 X136.370 Y91.879 E0.02048
G1 X136.627 Y92.697 E0.02689
G1 X136.643 Y93.383 E0.02150
G1 X137.689 Y93.659 E0.03389
G1 X138.579 Y94.060 E0.03062
G1 X139.404 Y94.602 E0.03096
G1 X140.141 Y95.250 E0.03077
G1 X140.767 Y95.957 E0.02959
G1 X141.381 Y96.892 E0.03508
G1 X141.747 Y97.704 E0.02792
G1 X141.986 Y98.537 E0.02718
G1 X142.105 Y99.614 E0.03399
G1 X142.030 Y100.655 E0.03271
G1 X141.823 Y101.538 E0.02845
G1 X141.569 Y102.194 E0.02206
G1 X141.945 Y102.423 E0.01379
G1 X142.672 Y103.189 E0.03313
G1 X142.988 Y103.762 E0.02050
G1 X143.205 Y104.604 E0.02726
G1 X143.205 Y120.416 E0.49579
G1 X142.921 Y121.399 E0.03207
G1 X142.506 Y122.028 E0.02362
G1 X141.764 Y122.715 E0.03171
G1 X141.271 Y122.977 E0.01752
G1 X140.413 Y123.205 E0.02783
G1 X109.584 Y123.205 E0.96662
G1 X108.601 Y122.921 E0.03207
G1 X107.972 Y122.506 E0.02362
G1 X107.285 Y121.764 E0.03171
G1 X107.023 Y121.271 E0.01752
G1 X106.795 Y120.413 E0.02783
G1 X106.795 Y89.584 E0.96662
G1 X107.079 Y88.601 E0.03207
G1 X107.494 Y87.972 E0.02362
G1 X108.236 Y87.285 E0.03171
G1 X108.730 Y87.023 E0.01752
G1 X109.588 Y86.795 E0.02784
G1 X125.397 Y86.798 E0.49571
G1 X126.115 Y86.963 E0.02310
G1 X126.838 Y87.345 E0.02564
G1 X127.567 Y88.041 E0.03158
G1 X127.989 Y88.765 E0.02628
G1 X128.171 Y89.421 E0.02134
G1 X128.263 Y91.133 E0.05377
G1 X128.007 Y91.978 F7200.000
G1 F2100
G1 X130.500 Y89.521 E0.10976
G1 X131.095 Y89.216 E0.02094
G1 X131.628 Y89.085 E0.01723
G1 X132.454 Y89.080 E0.02589
G1 X133.107 Y89.235 E0.02104
G1 X133.761 Y89.600 E0.02350
G1 X135.715 Y91.549 E0.08654
G1 X136.018 Y92.017 E0.01748
G1 X136.258 Y92.782 E0.02515
G1 X136.267 Y93.734 E0.02985
G1 X136.629 Y93.769 E0.01140
G1 X137.548 Y94.009 E0.02977
G1 X138.410 Y94.398 E0.02964
G1 X139.185 Y94.909 E0.02913
G1 X139.882 Y95.525 E0.02916
G1 X140.475 Y96.196 E0.02808
G1 X141.043 Y97.062 E0.03246
G1 X141.389 Y97.821 E0.02615
G1 X141.619 Y98.625 E0.02622
G1 X141.728 Y99.638 E0.03194
G1 X141.660 Y100.583 E0.02973
G1 X141.459 Y101.439 E0.02755
G1 X141.098 Y102.363 E0.03109
G1 X141.693 Y102.706 E0.02154
G1 X142.356 Y103.396 E0.03002
G1 X142.630 Y103.883 E0.01751
G1 X142.828 Y104.629 E0.02420
G1 X142.828 Y120.388 E0.49412
G1 X142.568 Y121.264 E0.02863
G1 X142.233 Y121.768 E0.01899
G1 X141.562 Y122.396 E0.02880
G1 X141.149 Y122.620 E0.01474
G1 X140.387 Y122.828 E0.02477
G1 X109.612 Y122.828 E0.96493
G1 X108.736 Y122.568 E0.02863
G1 X108.232 Y122.233 E0.01899
G1 X107.604 Y121.562 E0.02880
G1 X107.380 Y121.149 E0.01474
G1 X107.172 Y120.387 E0.02477
G1 X107.172 Y89.612 E0.96493
G1 X107.432 Y88.736 E0.02863
G1 X107.767 Y88.232 E0.01899
G1 X108.438 Y87.604 E0.02880
G1 X108.851 Y87.380 E0.01474
G1 X109.613 Y87.172 E0.02478
G1 X125.375 Y87.175 E0.49419
G1 X126.003 Y87.324 E0.02025
G1 X126.637 Y87.665 E0.02256
G1 X127.255 Y88.254 E0.02676
G1 X127.651 Y88.932 E0.02463
G1 X127.801 Y89.498 E0.01835
G1 X127.888 Y91.193 E0.05322
G1 X127.998 Y91.919 E0.02303
G1 X127.690 Y92.398 F7200.000
G1 F2100
G1 X127.997 Y92.518 E0.01035
G1 X130.744 Y89.810 E0.12092
G1 X131.207 Y89.576 E0.01629
G1 X131.657 Y89.462 E0.01453
G1 X132.394 Y89.453 E0.02313
G1 X132.948 Y89.577 E0.01779
G1 X133.554 Y89.916 E0.02178
G1 X135.433 Y91.800 E0.08342
G1 X135.686 Y92.197 E0.01474
G1 X135.889 Y92.864 E0.02187
G1 X135.889 Y93.687 E0.02579
G1 X135.807 Y94.076 E0.01248
G1 X136.552 Y94.139 E0.02344
G1 X137.409 Y94.360 E0.02775
G1 X138.215 Y94.721 E0.02770
G1 X138.966 Y95.216 E0.02821
G1 X139.623 Y95.799 E0.02752
G1 X140.183 Y96.435 E0.02658
G1 X140.706 Y97.231 E0.02985
G1 X141.039 Y97.964 E0.02524
G1 X141.252 Y98.712 E0.02438
G1 X141.351 Y99.660 E0.02990
G1 X141.289 Y100.512 E0.02677
G1 X141.095 Y101.339 E0.02665
G1 X140.767 Y102.174 E0.02811
G1 X140.547 Y102.579 E0.01446
G1 X140.910 Y102.692 E0.01194
G1 X141.443 Y102.990 E0.01914
G1 X142.042 Y103.606 E0.02695
G1 X142.274 Y104.007 E0.01453
G1 X142.451 Y104.655 E0.02105
G1 X142.451 Y120.361 E0.49246
G1 X142.237 Y121.081 E0.02354
G1 X141.956 Y121.510 E0.01609
G1 X141.357 Y122.078 E0.02589
G1 X141.024 Y122.263 E0.01196
G1 X140.360 Y122.451 E0.02162
G1 X109.639 Y122.451 E0.96324
G1 X108.919 Y122.237 E0.02354
G1 X108.490 Y121.956 E0.01609
G1 X107.922 Y121.357 E0.02589
G1 X107.737 Y121.024 E0.01196
G1 X107.549 Y120.360 E0.02162
G1 X107.549 Y89.639 E0.96324
G1 X107.763 Y88.919 E0.02354
G1 X108.044 Y88.490 E0.01609
G1 X108.643 Y87.922 E0.02589
G1 X108.976 Y87.737 E0.01196
G1 X109.640 Y87.549 E0.02163
G1 X125.353 Y87.552 E0.49267
G1 X125.847 Y87.668 E0.01589
G1 X126.436 Y87.985 E0.02098
G1 X126.942 Y88.467 E0.02192
G1 X127.311 Y89.099 E0.02293
G1 X127.431 Y89.571 E0.01528
G1 X127.512 Y91.230 E0.05209
G1 X127.681 Y92.338 E0.03514
G1 X127.350 Y92.670 F7200.000
G1 F2100
G1 X127.706 Y92.809 E0.01200
G1 X128.010 Y93.037 E0.01189
G1 X130.940 Y90.133 E0.12935
G1 X131.359 Y89.922 E0.01472
G1 X131.684 Y89.839 E0.01051
G1 X132.378 Y89.830 E0.02175
G1 X132.792 Y89.922 E0.01330
G1 X133.308 Y90.203 E0.01842
G1 X135.130 Y92.025 E0.08079
G1 X135.333 Y92.334 E0.01161
G1 X135.520 Y92.945 E0.02004
G1 X135.512 Y93.659 E0.02237
G1 X135.446 Y93.943 E0.00913
G1 X135.182 Y94.483 E0.01885
G1 X135.693 Y94.446 E0.01606
G1 X136.475 Y94.508 E0.02460
G1 X137.270 Y94.711 E0.02571
G1 X138.047 Y95.059 E0.02669
G1 X138.746 Y95.523 E0.02633
G1 X139.363 Y96.073 E0.02590
G1 X139.891 Y96.674 E0.02510
G1 X140.370 Y97.401 E0.02729
G1 X140.681 Y98.081 E0.02344
G1 X140.885 Y98.799 E0.02341
G1 X140.974 Y99.650 E0.02683
G1 X140.918 Y100.441 E0.02484
G1 X140.731 Y101.240 E0.02573
G1 X140.421 Y102.023 E0.02642
G1 X139.927 Y102.920 E0.03209
G1 X140.476 Y102.958 E0.01723
G1 X140.749 Y103.034 E0.00889
G1 X141.234 Y103.305 E0.01743
G1 X141.754 Y103.849 E0.02359
G1 X141.918 Y104.134 E0.01031
G1 X142.074 Y104.682 E0.01787
G1 X142.074 Y120.332 E0.49069
G1 X141.886 Y120.943 E0.02003
G1 X141.680 Y121.253 E0.01167
G1 X141.149 Y121.763 E0.02310
G1 X140.894 Y121.909 E0.00919
G1 X140.332 Y122.074 E0.01838
G1 X109.668 Y122.074 E0.96144
G1 X109.057 Y121.886 E0.02003
G1 X108.747 Y121.680 E0.01167
G1 X108.237 Y121.149 E0.02310
G1 X108.091 Y120.894 E0.00919
G1 X107.926 Y120.332 E0.01838
G1 X107.926 Y89.668 E0.96144
G1 X108.114 Y89.057 E0.02003
G1 X108.320 Y88.747 E0.01167
G1 X108.851 Y88.237 E0.02310
G1 X109.106 Y88.091 E0.00919
G1 X109.668 Y87.926 E0.01838
G1 X125.332 Y87.929 E0.49113
G1 X125.694 Y88.013 E0.01165
G1 X126.196 Y88.277 E0.01777
G1 X126.662 Y88.720 E0.02017
G1 X126.970 Y89.261 E0.01952
G1 X127.055 Y89.607 E0.01116
G1 X127.136 Y91.268 E0.05215
G1 X127.341 Y92.610 E0.04257
G1 X127.042 Y92.954 F7200.000
G1 F2100
G1 X127.539 Y93.148 E0.01671
G1 X128.031 Y93.548 E0.01989
G1 X131.137 Y90.456 E0.13741
G1 X131.511 Y90.267 E0.01315
G1 X131.712 Y90.216 E0.00649
G1 X132.362 Y90.207 E0.02038
G1 X132.640 Y90.268 E0.00894
G1 X133.062 Y90.490 E0.01495
G1 X134.848 Y92.276 E0.07920
G1 X135.002 Y92.516 E0.00892
G1 X135.143 Y92.973 E0.01499
G1 X135.139 Y93.601 E0.01969
G1 X135.097 Y93.799 E0.00636
G1 X134.897 Y94.207 E0.01423
G1 X134.359 Y94.749 E0.02396
G1 X134.499 Y94.997 E0.00892
G1 X134.987 Y94.881 E0.01574
G1 X135.681 Y94.824 E0.02183
G1 X136.400 Y94.878 E0.02260
G1 X137.132 Y95.062 E0.02368
G1 X137.852 Y95.382 E0.02471
G1 X138.506 Y95.814 E0.02457
G1 X139.088 Y96.331 E0.02440
G1 X139.584 Y96.893 E0.02352
G1 X140.033 Y97.573 E0.02554
G1 X140.322 Y98.198 E0.02160
G1 X140.517 Y98.887 E0.02243
G1 X140.597 Y99.640 E0.02376
G1 X140.543 Y100.399 E0.02383
G1 X140.368 Y101.139 E0.02385
G1 X140.075 Y101.872 E0.02475
G1 X139.691 Y102.567 E0.02490
G1 X139.212 Y103.263 E0.02650
G1 X140.396 Y103.327 E0.03718
G1 X140.627 Y103.392 E0.00753
G1 X140.984 Y103.588 E0.01275
G1 X141.442 Y104.063 E0.02071
G1 X141.564 Y104.267 E0.00745
G1 X141.697 Y104.711 E0.01453
G1 X141.697 Y120.301 E0.48883
G1 X141.536 Y120.800 E0.01642
G1 X141.403 Y120.996 E0.00744
G1 X140.936 Y121.451 E0.02045
G1 X140.759 Y121.556 E0.00643
G1 X140.302 Y121.697 E0.01500
G1 X109.699 Y121.697 E0.95955
G1 X109.200 Y121.536 E0.01642
G1 X109.004 Y121.403 E0.00744
G1 X108.549 Y120.936 E0.02045
G1 X108.444 Y120.759 E0.00643
G1 X108.303 Y120.302 E0.01500
G1 X108.303 Y89.699 E0.95955
G1 X108.464 Y89.200 E0.01642
G1 X108.597 Y89.004 E0.00744
G1 X109.064 Y88.549 E0.02045
G1 X109.241 Y88.444 E0.00643
G1 X109.698 Y88.303 E0.01500
G1 X125.311 Y88.307 E0.48954
G1 X125.545 Y88.360 E0.00753
G1 X125.956 Y88.570 E0.01447
G1 X126.380 Y88.973 E0.01833
G1 X126.627 Y89.419 E0.01599
G1 X126.679 Y89.642 E0.00717
G1 X126.761 Y91.305 E0.05221
G1 X126.952 Y92.595 E0.04091
G1 X127.028 Y92.896 E0.00972
G1 X126.751 Y93.345 F7200.000
G1 F2100
G1 X127.031 Y93.355 E0.00878
G1 X127.371 Y93.487 E0.01143
G1 X127.840 Y93.885 E0.01928
G1 X128.008 Y94.105 E0.00869
G1 X131.334 Y90.779 E0.14749
G1 X131.660 Y90.615 E0.01144
G1 X131.775 Y90.588 E0.00371
G1 X132.344 Y90.584 E0.01784
G1 X132.494 Y90.616 E0.00482
G1 X132.818 Y90.779 E0.01136
G1 X134.568 Y92.530 E0.07762
G1 X134.653 Y92.659 E0.00484
G1 X134.766 Y93.003 E0.01134
G1 X134.762 Y93.575 E0.01795
G1 X134.735 Y93.693 E0.00379
G1 X134.606 Y93.965 E0.00944
G1 X132.784 Y95.803 E0.08115
G1 X132.980 Y96.064 E0.01021
G1 X133.662 Y95.693 E0.02437
G1 X134.324 Y95.429 E0.02233
G1 X135.034 Y95.256 E0.02291
G1 X135.697 Y95.201 E0.02086
G1 X136.353 Y95.253 E0.02065
G1 X137.023 Y95.423 E0.02166
G1 X137.683 Y95.720 E0.02270
G1 X138.286 Y96.120 E0.02271
G1 X138.813 Y96.589 E0.02212
G1 X139.278 Y97.113 E0.02196
G1 X139.698 Y97.745 E0.02379
G1 X139.964 Y98.317 E0.01978
G1 X140.144 Y98.944 E0.02046
G1 X140.219 Y99.631 E0.02166
G1 X140.168 Y100.356 E0.02279
G1 X140.004 Y101.037 E0.02195
G1 X139.730 Y101.720 E0.02310
G1 X139.366 Y102.376 E0.02351
G1 X138.950 Y102.978 E0.02294
G1 X138.438 Y103.604 E0.02538
G1 X140.323 Y103.698 E0.05920
G1 X140.468 Y103.735 E0.00469
G1 X140.776 Y103.904 E0.01100
G1 X141.134 Y104.280 E0.01630
G1 X141.214 Y104.407 E0.00469
G1 X141.320 Y104.741 E0.01100
G1 X141.320 Y120.271 E0.48691
G1 X141.207 Y120.615 E0.01136
G1 X141.123 Y120.744 E0.00482
G1 X140.718 Y121.144 E0.01785
G1 X140.617 Y121.206 E0.00371
G1 X140.271 Y121.320 E0.01144
G1 X109.729 Y121.320 E0.95760
G1 X109.385 Y121.207 E0.01136
G1 X109.256 Y121.123 E0.00482
G1 X108.856 Y120.718 E0.01785
G1 X108.794 Y120.617 E0.00371
G1 X108.680 Y120.271 E0.01144
G1 X108.680 Y89.729 E0.95760
G1 X108.793 Y89.385 E0.01136
G1 X108.877 Y89.256 E0.00482
G1 X109.282 Y88.856 E0.01785
G1 X109.383 Y88.794 E0.00371
G1 X109.729 Y88.680 E0.01144
G1 X125.290 Y88.684 E0.48789
G1 X125.401 Y88.709 E0.00357
G1 X125.719 Y88.864 E0.01108
G1 X126.097 Y89.224 E0.01637
G1 X126.281 Y89.570 E0.01230
G1 X126.303 Y89.674 E0.00334
G1 X126.385 Y91.342 E0.05234
G1 X126.582 Y92.669 E0.04208
G1 X126.737 Y93.286 E0.01996
G1 X126.464 Y93.749 F7200.000
G1 F2100
G1 X126.949 Y93.725 E0.01524
G1 X127.155 Y93.799 E0.00684
G1 X127.552 Y94.135 E0.01633
G1 X127.650 Y94.333 E0.00690
G1 X127.723 Y94.923 E0.01866
G1 X131.576 Y91.071 E0.17084
G1 X131.826 Y90.961 E0.00856
G1 X132.326 Y90.961 E0.01566
G1 X132.576 Y91.071 E0.00856
G1 X134.307 Y92.811 E0.07696
G1 X134.389 Y93.038 E0.00757
G1 X134.389 Y93.524 E0.01522
G1 X134.279 Y93.774 E0.00856
G1 X129.134 Y98.919 E0.22816
G1 X129.865 Y99.726 E0.03412
G1 X130.337 Y99.046 E0.02594
G1 X130.838 Y98.437 E0.02474
G1 X131.419 Y97.821 E0.02657
G1 X132.014 Y97.261 E0.02561
G1 X132.597 Y96.786 E0.02359
G1 X133.192 Y96.378 E0.02261
G1 X133.813 Y96.039 E0.02217
G1 X134.451 Y95.784 E0.02156
G1 X135.081 Y95.630 E0.02033
G1 X135.683 Y95.578 E0.01894
G1 X136.307 Y95.627 E0.01962
G1 X136.912 Y95.784 E0.01961
G1 X137.488 Y96.043 E0.01979
G1 X138.047 Y96.412 E0.02098
G1 X138.539 Y96.848 E0.02062
G1 X138.987 Y97.354 E0.02119
G1 X139.363 Y97.918 E0.02127
G1 X139.606 Y98.438 E0.01798
G1 X139.772 Y99.004 E0.01849
G1 X139.842 Y99.623 E0.01956
G1 X139.798 Y100.285 E0.02078
G1 X139.649 Y100.910 E0.02015
G1 X139.394 Y101.548 E0.02155
G1 X139.050 Y102.169 E0.02226
G1 X138.644 Y102.757 E0.02239
G1 X138.148 Y103.362 E0.02455
G1 X137.676 Y103.851 E0.02128
G1 X138.622 Y103.991 E0.02996
G1 X140.318 Y104.081 E0.05327
G1 X140.526 Y104.188 E0.00733
G1 X140.849 Y104.528 E0.01470
G1 X140.943 Y104.775 E0.00829
G1 X140.943 Y120.236 E0.48474
G1 X140.861 Y120.463 E0.00757
G1 X140.490 Y120.843 E0.01666
G1 X140.236 Y120.943 E0.00856
G1 X109.764 Y120.943 E0.95540
G1 X109.537 Y120.861 E0.00757
G1 X109.157 Y120.490 E0.01666
G1 X109.057 Y120.236 E0.00856
G1 X109.057 Y89.764 E0.95540
G1 X109.139 Y89.537 E0.00757
G1 X109.510 Y89.157 E0.01666
G1 X109.764 Y89.057 E0.00856
G1 X125.270 Y89.063 E0.48618
G1 X125.483 Y89.160 E0.00734
G1 X125.813 Y89.474 E0.01428
G1 X125.920 Y89.682 E0.00734
G1 X126.009 Y91.379 E0.05326
G1 X126.212 Y92.743 E0.04324
G1 X126.449 Y93.691 E0.03064
G1 X126.178 Y94.158 F7200.000
G1 F2100
G1 X126.882 Y94.097 E0.02216
G1 X126.952 Y94.119 E0.00229
G1 X127.245 Y94.355 E0.01182
G1 X127.281 Y94.419 E0.00230
G1 X127.443 Y95.736 E0.04159
G1 X131.813 Y91.367 E0.19374
G1 X131.882 Y91.338 E0.00235
G1 X132.270 Y91.338 E0.01215
G1 X132.339 Y91.367 E0.00235
G1 X133.983 Y93.011 E0.07289
G1 X134.012 Y93.080 E0.00235
G1 X134.012 Y93.468 E0.01215
G1 X133.983 Y93.537 E0.00235
G1 X128.637 Y98.883 E0.23705
G1 X128.841 Y99.158 E0.01072
G1 X129.943 Y100.374 E0.05147
G1 X130.241 Y99.845 E0.01905
G1 X130.633 Y99.280 E0.02154
G1 X131.125 Y98.682 E0.02429
G1 X131.690 Y98.084 E0.02579
G1 X132.268 Y97.540 E0.02487
G1 X132.829 Y97.083 E0.02271
G1 X133.397 Y96.694 E0.02158
G1 X133.964 Y96.385 E0.02025
G1 X134.556 Y96.147 E0.01999
G1 X135.129 Y96.004 E0.01852
G1 X135.699 Y95.955 E0.01795
G1 X136.258 Y96.001 E0.01759
G1 X136.800 Y96.144 E0.01757
G1 X137.318 Y96.379 E0.01783
G1 X137.826 Y96.718 E0.01914
G1 X138.279 Y97.122 E0.01904
G1 X138.681 Y97.575 E0.01897
G1 X139.027 Y98.092 E0.01953
G1 X139.258 Y98.584 E0.01705
G1 X139.405 Y99.092 E0.01657
G1 X139.465 Y99.647 E0.01750
G1 X139.423 Y100.241 E0.01869
G1 X139.286 Y100.807 E0.01826
G1 X139.049 Y101.396 E0.01990
G1 X138.734 Y101.963 E0.02032
