; generated by Slic3r 1.37.1-prusa3d on 2017-10-07 at 08:13:37

; 

; external perimeters extrusion width = 0.45mm
; perimeters extrusion width = 0.45mm
; infill extrusion width = 0.45mm
; solid infill extrusion width = 0.45mm
; top infill extrusion width = 0.40mm
; first layer extrusion width = 0.42mm

M107
M115 U3.0.12 ; tell printer latest fw version
M83  ; extruder relative mode
M104 S255 ; set extruder temp
M140 S100 ; set bed temp
M190 S100 ; wait for bed temp
M109 S255 ; wait for extruder temp
G28 W ; home all without mesh bed level
G80 ; mesh bed leveling
G1 Y-3.0 F1000.0 ; go outside pritn area
G1 X60.0 E9.0  F1000.0 ; intro line
G1 X100.0 E12.5  F1000.0 ; intro line
; Filament gcode

G21 ; set units to millimeters
G90 ; use absolute coordinates
M83 ; use relative distances for extrusion
G1 E-0.80000 F2100.00000
G1 Z0.200 F7200.000
G1 X106.804 Y87.205 F7200.000
G1 E0.80000 F2100.00000
M204 S1000
G1 F2100
G1 X107.592 Y86.541 E0.03234
G1 X108.515 Y86.079 E0.03234
G1 X109.519 Y85.845 E0.03234
G1 X129.787 Y85.427 E0.63563
G1 X130.594 Y85.503 E0.02541
G1 X131.373 Y85.727 E0.02541
G1 X132.097 Y86.090 E0.02541
G1 X132.742 Y86.581 E0.02541
G1 X140.960 Y94.613 E0.36031
G1 X141.573 Y95.313 E0.02917
G1 X142.081 Y96.046 E0.02797
G1 X142.711 Y97.314 E0.04439
G1 X143.023 Y98.390 E0.03513
G1 X144.289 Y104.327 E0.19033
G1 X144.373 Y105.008 E0.02153
G1 X144.375 Y120.341 E0.48074
G1 X144.212 Y121.385 E0.03314
G1 X143.805 Y122.360 E0.03314
G1 X143.146 Y123.239 E0.03443
G1 X142.285 Y123.929 E0.03459
G1 X141.284 Y124.380 E0.03443
G1 X140.197 Y124.569 E0.03459
G1 X109.922 Y124.572 E0.94925
G1 X108.841 Y124.417 E0.03427
G1 X107.836 Y124.001 E0.03411
G1 X106.957 Y123.342 E0.03443
G1 X106.267 Y122.481 E0.03459
G1 X105.816 Y121.480 E0.03443
G1 X105.627 Y120.393 E0.03459
G1 X105.624 Y90.118 E0.94925
G1 X105.779 Y89.037 E0.03427
G1 X106.195 Y88.032 E0.03411
G1 X106.768 Y87.254 E0.03029
G1 F5760
G1 X107.592 Y86.541 E-0.37745
G1 F5760
G1 X108.515 Y86.079 E-0.35721
G1 F5760
G1 X108.586 Y86.062 E-0.02534
G1 E-0.04000 F2100.00000
G1 X141.443 Y102.321 F7200.000
G1 E0.80000 F2100.00000
G1 F2100
G1 X141.944 Y102.619 E0.01831
G1 X142.643 Y103.346 E0.03163
G1 X142.988 Y103.958 E0.02201
G1 X143.205 Y104.800 E0.02726
G1 X143.205 Y120.620 E0.49604
G1 X142.794 Y121.843 E0.04045
G1 X142.495 Y122.235 E0.01546
G1 X141.764 Y122.911 E0.03121
G1 X141.271 Y123.173 E0.01752
G1 X140.413 Y123.401 E0.02783
G1 X109.576 Y123.401 E0.96687
G1 X108.353 Y122.990 E0.04045
G1 X107.961 Y122.691 E0.01546
G1 X107.285 Y121.960 E0.03121
G1 X107.023 Y121.467 E0.01752
G1 X106.795 Y120.609 E0.02783
G1 X106.795 Y89.772 E0.96687
G1 X107.206 Y88.549 E0.04045
G1 X107.505 Y88.157 E0.01546
G1 X108.236 Y87.481 E0.03121
G1 X108.729 Y87.219 E0.01752
G1 X109.587 Y86.991 E0.02784
G1 X125.380 Y86.993 E0.49516
G1 X126.085 Y87.148 E0.02262
G1 X126.781 Y87.501 E0.02447
G1 X127.205 Y87.875 E0.01774
G1 X128.044 Y87.075 E0.03635
G1 X128.929 Y86.676 E0.03045
G1 X129.436 Y86.599 E0.01607
G1 X130.149 Y86.599 E0.02237
G1 X130.974 Y86.793 E0.02658
G1 X131.756 Y87.246 E0.02832
G1 X137.127 Y92.618 E0.23819
G1 X137.520 Y93.222 E0.02259
G1 X137.725 Y93.806 E0.01940
G1 X138.559 Y94.197 E0.02888
G1 X139.337 Y94.720 E0.02939
G1 X140.027 Y95.333 E0.02897
G1 X140.647 Y96.032 E0.02929
G1 X141.178 Y96.814 E0.02965
G1 X141.669 Y97.878 E0.03672
G1 X141.907 Y98.790 E0.02957
G1 X141.994 Y99.729 E0.02955
G1 X141.916 Y100.750 E0.03211
G1 X141.696 Y101.675 E0.02981
G1 X141.464 Y102.265 E0.01988
G1 F5760
G1 X141.944 Y102.619 E-0.20662
G1 F5760
G1 X142.643 Y103.346 E-0.34936
G1 F5760
G1 X142.933 Y103.859 E-0.20402
G1 E-0.04000 F2100.00000
G1 X137.418 Y94.080 F7200.000
G1 E0.80000 F2100.00000
G1 F2100
G1 X138.361 Y94.518 E0.03261
G1 X139.096 Y95.011 E0.02774
G1 X139.753 Y95.592 E0.02751
G1 X140.342 Y96.254 E0.02778
G1 X140.858 Y97.013 E0.02876
G1 X141.319 Y98.020 E0.03472
G1 X141.533 Y98.842 E0.02663
G1 X141.617 Y99.717 E0.02758
G1 X141.546 Y100.677 E0.03018
G1 X141.332 Y101.574 E0.02890
G1 X140.970 Y102.488 E0.03083
G1 X141.694 Y102.902 E0.02615
G1 X142.329 Y103.556 E0.02858
G1 X142.631 Y104.080 E0.01895
G1 X142.828 Y104.825 E0.02417
G1 X142.828 Y120.590 E0.49429
G1 X142.475 Y121.641 E0.03476
G1 X142.225 Y121.971 E0.01301
G1 X141.562 Y122.592 E0.02845
G1 X141.149 Y122.816 E0.01474
G1 X140.387 Y123.024 E0.02477
G1 X109.606 Y123.024 E0.96510
G1 X108.555 Y122.671 E0.03476
G1 X108.225 Y122.421 E0.01301
G1 X107.604 Y121.758 E0.02845
G1 X107.380 Y121.345 E0.01474
G1 X107.172 Y120.583 E0.02477
G1 X107.172 Y89.802 E0.96510
G1 X107.525 Y88.751 E0.03476
G1 X107.775 Y88.421 E0.01301
G1 X108.438 Y87.800 E0.02845
G1 X108.851 Y87.576 E0.01474
G1 X109.613 Y87.368 E0.02477
G1 X125.360 Y87.371 E0.49373
G1 X125.936 Y87.495 E0.01847
G1 X126.586 Y87.825 E0.02285
G1 X127.208 Y88.393 E0.02642
G1 X128.279 Y87.372 E0.04641
G1 X129.055 Y87.032 E0.02655
G1 X129.448 Y86.976 E0.01245
G1 X130.128 Y86.976 E0.02132
G1 X130.812 Y87.135 E0.02203
G1 X131.507 Y87.531 E0.02509
G1 X136.846 Y92.870 E0.23673
G1 X137.190 Y93.405 E0.01995
G1 X137.399 Y94.023 E0.02045
G1 X137.046 Y94.379 F7200.000
G1 F2100
G1 X137.408 Y94.484 E0.01182
G1 X138.164 Y94.840 E0.02618
G1 X138.856 Y95.302 E0.02610
G1 X139.495 Y95.867 E0.02674
G1 X140.052 Y96.495 E0.02632
G1 X140.536 Y97.211 E0.02712
G1 X140.959 Y98.132 E0.03175
G1 X141.159 Y98.894 E0.02472
G1 X141.240 Y99.707 E0.02561
G1 X141.176 Y100.605 E0.02823
G1 X140.969 Y101.473 E0.02797
G1 X140.657 Y102.255 E0.02640
G1 X140.392 Y102.741 E0.01736
G1 X140.911 Y102.889 E0.01692
G1 X141.443 Y103.186 E0.01910
G1 X142.042 Y103.802 E0.02695
G1 X142.274 Y104.203 E0.01453
G1 X142.451 Y104.851 E0.02105
G1 X142.451 Y120.559 E0.49252
G1 X142.155 Y121.439 E0.02912
G1 X141.953 Y121.710 E0.01059
G1 X141.357 Y122.274 E0.02573
G1 X141.024 Y122.459 E0.01196
G1 X140.360 Y122.647 E0.02162
G1 X109.637 Y122.647 E0.96330
G1 X108.757 Y122.351 E0.02912
G1 X108.486 Y122.149 E0.01059
G1 X107.922 Y121.553 E0.02573
G1 X107.737 Y121.220 E0.01196
G1 X107.549 Y120.556 E0.02162
G1 X107.549 Y89.833 E0.96330
G1 X107.845 Y88.953 E0.02912
G1 X108.047 Y88.682 E0.01059
G1 X108.643 Y88.118 E0.02573
G1 X108.976 Y87.933 E0.01196
G1 X109.640 Y87.745 E0.02163
G1 X125.341 Y87.748 E0.49228
G1 X125.787 Y87.842 E0.01432
G1 X126.391 Y88.148 E0.02121
G1 X126.945 Y88.666 E0.02380
G1 X127.146 Y88.981 E0.01169
G1 X128.465 Y87.701 E0.05760
G1 X129.137 Y87.401 E0.02308
G1 X129.462 Y87.353 E0.01032
G1 X130.107 Y87.353 E0.02022
G1 X130.653 Y87.477 E0.01755
G1 X131.260 Y87.816 E0.02179
G1 X136.564 Y93.122 E0.23522
G1 X136.858 Y93.586 E0.01724
G1 X137.023 Y94.088 E0.01656
G1 X137.041 Y94.319 E0.00727
G1 X136.675 Y94.667 F7200.000
G1 F2100
G1 X137.263 Y94.833 E0.01917
G1 X137.966 Y95.161 E0.02433
G1 X138.636 Y95.608 E0.02523
G1 X139.236 Y96.141 E0.02516
G1 X139.761 Y96.735 E0.02486
G1 X140.215 Y97.409 E0.02549
G1 X140.598 Y98.244 E0.02878
G1 X140.791 Y98.975 E0.02372
G1 X140.863 Y99.726 E0.02366
G1 X140.801 Y100.562 E0.02626
G1 X140.614 Y101.346 E0.02528
G1 X140.311 Y102.104 E0.02560
G1 X139.759 Y103.110 E0.03598
G1 X140.438 Y103.148 E0.02134
G1 X140.750 Y103.231 E0.01010
G1 X141.234 Y103.501 E0.01739
G1 X141.754 Y104.045 E0.02359
G1 X141.918 Y104.330 E0.01031
G1 X142.074 Y104.878 E0.01787
G1 X142.074 Y120.528 E0.49070
G1 X141.834 Y121.240 E0.02355
G1 X141.679 Y121.450 E0.00819
G1 X141.149 Y121.959 E0.02305
G1 X140.894 Y122.105 E0.00919
G1 X140.332 Y122.270 E0.01838
G1 X109.668 Y122.270 E0.96145
G1 X108.956 Y122.030 E0.02355
G1 X108.746 Y121.875 E0.00819
G1 X108.237 Y121.345 E0.02305
G1 X108.091 Y121.090 E0.00919
G1 X107.926 Y120.528 E0.01838
G1 X107.926 Y89.864 E0.96145
G1 X108.166 Y89.152 E0.02355
G1 X108.321 Y88.942 E0.00819
G1 X108.851 Y88.433 E0.02305
G1 X109.106 Y88.287 E0.00919
G1 X109.668 Y88.122 E0.01838
G1 X125.322 Y88.125 E0.49081
G1 X125.640 Y88.190 E0.01018
G1 X126.195 Y88.472 E0.01951
G1 X126.662 Y88.917 E0.02022
G1 X127.055 Y89.602 E0.02477
G1 X128.653 Y88.030 E0.07029
G1 X129.221 Y87.769 E0.01960
G1 X129.477 Y87.730 E0.00812
G1 X130.087 Y87.730 E0.01912
G1 X130.497 Y87.822 E0.01318
G1 X131.013 Y88.103 E0.01842
G1 X136.283 Y93.374 E0.23370
G1 X136.508 Y93.726 E0.01311
G1 X136.656 Y94.177 E0.01487
G1 X136.672 Y94.607 E0.01350
G1 X136.299 Y94.955 F7200.000
G1 F2100
G1 X137.119 Y95.182 E0.02668
G1 X137.770 Y95.484 E0.02249
G1 X138.395 Y95.899 E0.02353
G1 X138.976 Y96.415 E0.02437
G1 X139.469 Y96.975 E0.02339
G1 X139.894 Y97.607 E0.02386
G1 X140.238 Y98.357 E0.02587
G1 X140.417 Y99.027 E0.02176
G1 X140.486 Y99.746 E0.02264
G1 X140.426 Y100.517 E0.02426
G1 X140.258 Y101.219 E0.02263
G1 X139.974 Y101.933 E0.02409
G1 X139.590 Y102.636 E0.02512
G1 X139.031 Y103.447 E0.03087
G1 X140.396 Y103.523 E0.04286
G1 X140.627 Y103.588 E0.00753
G1 X140.984 Y103.784 E0.01275
G1 X141.442 Y104.259 E0.02071
G1 X141.564 Y104.463 E0.00745
G1 X141.697 Y104.907 E0.01453
G1 X141.697 Y120.497 E0.48882
G1 X141.512 Y121.042 E0.01806
G1 X141.403 Y121.192 E0.00580
G1 X140.936 Y121.647 E0.02044
G1 X140.759 Y121.752 E0.00643
G1 X140.302 Y121.893 E0.01500
G1 X109.699 Y121.893 E0.95955
G1 X109.154 Y121.708 E0.01806
G1 X109.004 Y121.599 E0.00580
G1 X108.549 Y121.132 E0.02044
G1 X108.444 Y120.955 E0.00643
G1 X108.303 Y120.498 E0.01500
G1 X108.303 Y89.895 E0.95955
G1 X108.488 Y89.350 E0.01806
G1 X108.597 Y89.200 E0.00580
G1 X109.064 Y88.745 E0.02044
G1 X109.241 Y88.640 E0.00643
G1 X109.698 Y88.499 E0.01500
G1 X125.304 Y88.502 E0.48933
G1 X125.498 Y88.540 E0.00619
G1 X125.956 Y88.766 E0.01603
G1 X126.380 Y89.169 E0.01833
G1 X126.627 Y89.615 E0.01599
G1 X126.679 Y89.838 E0.00717
G1 X126.761 Y91.501 E0.05221
G1 X126.850 Y92.104 E0.01912
G1 X127.201 Y92.077 E0.01102
G1 X127.189 Y90.539 E0.04821
G1 X127.256 Y90.208 E0.01058
G1 X127.557 Y89.628 E0.02050
G1 X128.843 Y88.356 E0.05671
G1 X129.309 Y88.137 E0.01614
G1 X129.493 Y88.107 E0.00584
G1 X130.067 Y88.107 E0.01800
G1 X130.345 Y88.168 E0.00892
G1 X130.767 Y88.390 E0.01496
G1 X136.002 Y93.627 E0.23215
G1 X136.157 Y93.867 E0.00897
G1 X136.288 Y94.265 E0.01314
G1 X136.298 Y94.895 E0.01974
G1 X135.798 Y95.299 F7200.000
G1 F2100
G1 X136.309 Y95.349 E0.01609
G1 X136.975 Y95.531 E0.02166
G1 X137.598 Y95.819 E0.02152
G1 X138.175 Y96.205 E0.02175
G1 X138.702 Y96.674 E0.02211
G1 X139.163 Y97.196 E0.02186
G1 X139.572 Y97.804 E0.02299
G1 X139.878 Y98.469 E0.02295
G1 X140.049 Y99.109 E0.02074
G1 X140.109 Y99.764 E0.02064
G1 X140.056 Y100.445 E0.02141
G1 X139.903 Y101.093 E0.02089
G1 X139.628 Y101.783 E0.02327
G1 X139.264 Y102.446 E0.02371
G1 X138.829 Y103.075 E0.02400
G1 X138.249 Y103.784 E0.02871
G1 X140.323 Y103.894 E0.06512
G1 X140.468 Y103.931 E0.00470
G1 X140.776 Y104.100 E0.01100
G1 X141.134 Y104.476 E0.01630
G1 X141.214 Y104.603 E0.00469
G1 X141.320 Y104.937 E0.01100
G1 X141.320 Y120.465 E0.48686
G1 X141.188 Y120.848 E0.01270
G1 X141.125 Y120.937 E0.00343
G1 X140.718 Y121.340 E0.01795
G1 X140.617 Y121.402 E0.00371
G1 X140.271 Y121.516 E0.01144
G1 X109.731 Y121.516 E0.95756
G1 X109.348 Y121.384 E0.01270
G1 X109.259 Y121.321 E0.00343
G1 X108.856 Y120.914 E0.01795
G1 X108.794 Y120.813 E0.00371
G1 X108.680 Y120.467 E0.01144
G1 X108.680 Y89.927 E0.95756
G1 X108.812 Y89.544 E0.01270
G1 X108.875 Y89.455 E0.00343
G1 X109.282 Y89.052 E0.01795
G1 X109.383 Y88.990 E0.00371
G1 X109.729 Y88.876 E0.01144
G1 X125.260 Y88.876 E0.48694
G1 X125.365 Y88.894 E0.00334
G1 X125.720 Y89.061 E0.01230
G1 X126.097 Y89.420 E0.01632
G1 X126.281 Y89.766 E0.01230
G1 X126.303 Y89.870 E0.00334
G1 X126.385 Y91.538 E0.05234
G1 X126.582 Y92.865 E0.04208
G1 X126.909 Y94.168 E0.04211
G1 X127.295 Y95.251 E0.03605
G1 X127.609 Y95.195 E0.01000
G1 X127.564 Y90.586 E0.14449
G1 X127.606 Y90.351 E0.00752
G1 X127.847 Y89.872 E0.01679
G1 X129.038 Y88.680 E0.05284
G1 X129.402 Y88.503 E0.01270
G1 X129.511 Y88.484 E0.00345
G1 X130.048 Y88.484 E0.01687
G1 X130.200 Y88.516 E0.00484
G1 X130.523 Y88.679 E0.01136
G1 X135.722 Y93.880 E0.23057
G1 X135.807 Y94.009 E0.00484
G1 X135.920 Y94.353 E0.01136
G1 X135.920 Y94.897 E0.01704
G1 X135.816 Y95.242 E0.01131
G1 F5760
G1 X136.309 Y95.349 E-0.17483
G1 F5760
G1 X136.975 Y95.531 E-0.23926
G1 F5760
G1 X137.598 Y95.819 E-0.23769
G1 F5760
G1 X137.858 Y95.993 E-0.10821
G1 E-0.04000 F2100.00000
G1 X134.859 Y95.721 F7200.000
G1 E0.80000 F2100.00000
G1 F2100
G1 X135.601 Y95.663 E0.02333
G1 X136.228 Y95.718 E0.01975
G1 X136.833 Y95.880 E0.01963
G1 X137.402 Y96.142 E0.01964
G1 X137.935 Y96.496 E0.02006
G1 X138.427 Y96.933 E0.02064
G1 X138.858 Y97.418 E0.02034
G1 X139.237 Y97.978 E0.02119
G1 X139.519 Y98.584 E0.02097
G1 X139.675 Y99.160 E0.01870
G1 X139.732 Y99.782 E0.01959
G1 X139.681 Y100.399 E0.01940
G1 X139.539 Y100.991 E0.01911
G1 X139.283 Y101.632 E0.02162
G1 X138.939 Y102.255 E0.02232
G1 X138.523 Y102.854 E0.02287
G1 X138.045 Y103.437 E0.02364
G1 X137.506 Y104.012 E0.02471
G1 X138.623 Y104.187 E0.03545
G1 X140.318 Y104.277 E0.05324
G1 X140.526 Y104.384 E0.00733
G1 X140.849 Y104.724 E0.01470
G1 X140.943 Y104.971 E0.00829
G1 X140.943 Y120.432 E0.48474
G1 X140.843 Y120.686 E0.00856
G1 X140.490 Y121.039 E0.01566
G1 X140.236 Y121.139 E0.00856
G1 X109.764 Y121.139 E0.95540
G1 X109.510 Y121.039 E0.00856
G1 X109.157 Y120.686 E0.01566
G1 X109.057 Y120.432 E0.00856
G1 X109.057 Y89.960 E0.95540
G1 X109.157 Y89.706 E0.00856
G1 X109.510 Y89.353 E0.01566
G1 X109.764 Y89.253 E0.00856
G1 X125.270 Y89.259 E0.48618
G1 X125.483 Y89.356 E0.00734
G1 X125.813 Y89.670 E0.01428
G1 X125.920 Y89.878 E0.00734
G1 X126.009 Y91.575 E0.05326
G1 X126.212 Y92.939 E0.04324
G1 X126.547 Y94.277 E0.04326
G1 X127.011 Y95.576 E0.04324
G1 X127.576 Y96.770 E0.04143
G1 X127.847 Y96.737 E0.00853
G1 X127.930 Y96.323 E0.01326
G1 X127.973 Y95.779 E0.01710
G1 X127.992 Y94.577 E0.03768
G1 X127.941 Y90.596 E0.12483
G1 X127.959 Y90.486 E0.00350
G1 X128.137 Y90.115 E0.01292
G1 X129.281 Y88.971 E0.05073
G1 X129.531 Y88.861 E0.00857
G1 X130.063 Y88.868 E0.01666
G1 X130.281 Y88.971 E0.00757
G1 X135.443 Y94.134 E0.22892
G1 X135.543 Y94.388 E0.00856
G1 X135.543 Y94.859 E0.01477
G1 X135.467 Y95.072 E0.00707
G1 X134.900 Y95.678 E0.02602
G1 F5760
G1 X135.601 Y95.663 E-0.24282
G1 F5760
G1 X136.228 Y95.718 E-0.21821
G1 F5760
G1 X136.833 Y95.880 E-0.21686
G1 F5760
G1 X137.048 Y95.979 E-0.08211
G1 E-0.04000 F2100.00000
G1 X133.903 Y96.121 F7200.000
G1 E0.80000 F2100.00000
G1 F2100
G1 X134.072 Y96.378 E0.00962
G1 X134.442 Y96.232 E0.01247
G1 X134.987 Y96.094 E0.01763
G1 X135.585 Y96.040 E0.01884
G1 X136.178 Y96.092 E0.01865
G1 X136.718 Y96.240 E0.01755
G1 X137.205 Y96.464 E0.01682
G1 X137.715 Y96.803 E0.01919
G1 X138.154 Y97.192 E0.01839
G1 X138.554 Y97.640 E0.01885
G1 X138.902 Y98.152 E0.01940
G1 X139.159 Y98.699 E0.01895
G1 X139.306 Y99.242 E0.01764
G1 X139.355 Y99.798 E0.01751
G1 X139.311 Y100.326 E0.01659
G1 X139.184 Y100.865 E0.01738
G1 X138.947 Y101.460 E0.02008
G1 X138.623 Y102.048 E0.02105
G1 X138.227 Y102.621 E0.02184
G1 X137.758 Y103.193 E0.02319
G1 X137.198 Y103.788 E0.02563
G1 X136.678 Y104.263 E0.02207
G1 X138.584 Y104.562 E0.06048
G1 X140.215 Y104.643 E0.05120
G1 X140.281 Y104.674 E0.00228
G1 X140.539 Y104.945 E0.01173
G1 X140.566 Y105.012 E0.00228
G1 X140.566 Y120.390 E0.48216
G1 X140.537 Y120.459 E0.00235
G1 X140.263 Y120.733 E0.01215
G1 X140.194 Y120.762 E0.00235
G1 X109.806 Y120.762 E0.95278
G1 X109.737 Y120.733 E0.00235
G1 X109.463 Y120.459 E0.01215
G1 X109.434 Y120.390 E0.00235
G1 X109.434 Y90.002 E0.95278
G1 X109.463 Y89.933 E0.00235
G1 X109.737 Y89.659 E0.01215
G1 X109.806 Y89.630 E0.00235
G1 X125.185 Y89.630 E0.48219
G1 X125.253 Y89.657 E0.00228
G1 X125.524 Y89.915 E0.01173
G1 X125.554 Y89.981 E0.00228
G1 X125.634 Y91.612 E0.05117
G1 X125.841 Y93.012 E0.04441
G1 X126.186 Y94.387 E0.04442
G1 X126.662 Y95.720 E0.04440
G1 X127.268 Y97.001 E0.04442
G1 X127.642 Y97.625 E0.02281
G1 X127.929 Y97.346 E0.01255
G1 X128.048 Y97.186 E0.00625
G1 X128.144 Y97.005 E0.00642
G1 X128.218 Y96.800 E0.00682
G1 X128.304 Y96.375 E0.01361
G1 X128.350 Y95.797 E0.01818
G1 X128.369 Y94.578 E0.03823
G1 X128.324 Y90.580 E0.12535
G1 X128.428 Y90.357 E0.00771
G1 X129.518 Y89.267 E0.04834
G1 X129.587 Y89.238 E0.00235
G1 X129.975 Y89.238 E0.01215
G1 X130.044 Y89.267 E0.00235
G1 X135.137 Y94.361 E0.22585
