; generated by Slic3r 1.37.1-prusa3d on 2017-10-07 at 08:16:53

; 

; external perimeters extrusion width = 0.45mm
; perimeters extrusion width = 0.45mm
; infill extrusion width = 0.50mm
; solid infill extrusion width = 0.45mm
; top infill extrusion width = 0.45mm
; first layer extrusion width = 0.42mm

M107
M115 U3.0.12 ; tell printer latest fw version
M83  ; extruder relative mode
M104 S255 ; set extruder temp
M140 S100 ; set bed temp
M190 S100 ; wait for bed temp
M109 S255 ; wait for extruder temp
G28 W ; home all without mesh bed level
G80 ; mesh bed leveling
G1 Y-3.0 F1000.0 ; go outside pritn area
G1 X60.0 E9.0  F1000.0 ; intro line
G1 X100.0 E12.5  F1000.0 ; intro line
; Filament gcode

G21 ; set units to millimeters
G90 ; use absolute coordinates
M83 ; use relative distances for extrusion
G1 E-0.80000 F2100.00000
G1 Z0.200 F10800.000
G1 X106.558 Y87.296 F10800.000
G1 E0.80000 F2100.00000
M204 S500
G1 F1260
G1 X107.356 Y86.512 E0.03507
G1 X108.322 Y85.957 E0.03491
G1 X109.401 Y85.664 E0.03507
G1 X125.003 Y85.623 E0.48919
G1 X125.703 Y85.680 E0.02202
G1 X131.503 Y86.684 E0.18457
G1 X132.587 Y86.994 E0.03533
G1 X133.745 Y87.551 E0.04030
G1 X134.532 Y88.083 E0.02978
G1 X135.275 Y88.729 E0.03088
G1 X140.499 Y93.951 E0.23160
G1 X141.608 Y95.252 E0.05359
G1 X142.264 Y96.291 E0.03853
G1 X142.672 Y97.166 E0.03026
G1 X142.978 Y98.117 E0.03133
G1 X144.367 Y104.700 E0.21095
G1 X144.376 Y120.093 E0.48263
G1 X144.275 Y120.939 E0.02670
G1 X144.013 Y121.749 E0.02670
G1 X143.390 Y122.769 E0.03748
G1 X142.514 Y123.583 E0.03748
G1 X141.451 Y124.129 E0.03748
G1 X140.275 Y124.368 E0.03764
G1 X109.953 Y124.377 E0.95071
G1 X109.087 Y124.281 E0.02734
G1 X108.251 Y124.013 E0.02750
G1 X107.231 Y123.390 E0.03748
G1 X106.417 Y122.514 E0.03748
G1 X105.871 Y121.451 E0.03748
G1 X105.632 Y120.275 E0.03764
G1 X105.623 Y89.953 E0.95071
G1 X105.719 Y89.087 E0.02734
G1 X105.987 Y88.251 E0.02750
G1 X106.528 Y87.347 E0.03303
G1 F8640
G1 X107.356 Y86.512 E-0.27170
G1 F8640
G1 X108.322 Y85.957 E-0.25709
G1 F8640
G1 X109.288 Y85.695 E-0.23121
G1 E-0.04000 F2100.00000
G1 X127.720 Y88.204 F10800.000
G1 E0.80000 F2100.00000
G1 F1260
G1 X128.121 Y88.044 E0.01355
G1 X129.004 Y87.818 E0.02856
G1 X130.091 Y87.716 E0.03426
G1 X131.078 Y87.796 E0.03103
G1 X132.043 Y88.043 E0.03124
G1 X133.140 Y88.552 E0.03790
G1 X133.922 Y89.094 E0.02985
G1 X134.593 Y89.703 E0.02840
G1 X135.178 Y90.373 E0.02790
G1 X135.746 Y91.228 E0.03218
G1 X136.119 Y92.026 E0.02762
G1 X136.255 Y92.496 E0.01533
G1 X136.819 Y92.715 E0.01897
G1 X137.493 Y93.062 E0.02378
G1 X138.071 Y93.427 E0.02145
G1 X138.609 Y93.825 E0.02098
G1 X139.118 Y94.255 E0.02088
G1 X139.658 Y94.767 E0.02334
G1 X140.212 Y95.369 E0.02566
G1 X140.761 Y96.081 E0.02818
G1 X141.240 Y96.860 E0.02866
G1 X141.589 Y97.614 E0.02607
G1 X141.838 Y98.386 E0.02543
G1 X142.002 Y99.330 E0.03004
G1 X142.021 Y100.227 E0.02813
G1 X141.900 Y101.127 E0.02848
G1 X141.575 Y102.199 E0.03511
G1 X141.950 Y102.428 E0.01379
G1 X142.700 Y103.227 E0.03435
G1 X143.046 Y103.907 E0.02391
G1 X143.202 Y104.604 E0.02241
G1 X143.205 Y120.416 E0.49576
G1 X142.921 Y121.399 E0.03208
G1 X142.506 Y122.028 E0.02362
G1 X141.764 Y122.715 E0.03171
G1 X141.271 Y122.977 E0.01752
G1 X140.413 Y123.205 E0.02783
G1 X109.584 Y123.205 E0.96662
G1 X108.601 Y122.921 E0.03207
G1 X107.972 Y122.506 E0.02362
G1 X107.285 Y121.764 E0.03171
G1 X107.023 Y121.271 E0.01752
G1 X106.795 Y120.413 E0.02783
G1 X106.795 Y89.584 E0.96662
G1 X107.079 Y88.601 E0.03207
G1 X107.494 Y87.972 E0.02362
G1 X108.236 Y87.285 E0.03171
G1 X108.730 Y87.023 E0.01752
G1 X109.588 Y86.795 E0.02784
G1 X125.397 Y86.798 E0.49569
G1 X126.103 Y86.958 E0.02270
G1 X126.790 Y87.312 E0.02423
G1 X127.677 Y88.163 E0.03853
G1 X127.527 Y88.690 F10800.000
G1 F1260
G1 X128.228 Y88.406 E0.02370
G1 X129.083 Y88.187 E0.02768
G1 X130.077 Y88.093 E0.03132
G1 X131.031 Y88.171 E0.03000
G1 X131.932 Y88.404 E0.02918
G1 X132.939 Y88.871 E0.03481
G1 X133.679 Y89.382 E0.02819
G1 X134.316 Y89.959 E0.02697
G1 X134.886 Y90.612 E0.02716
G1 X135.410 Y91.401 E0.02969
G1 X135.771 Y92.171 E0.02668
G1 X135.942 Y92.779 E0.01980
G1 X136.656 Y93.055 E0.02398
G1 X137.299 Y93.385 E0.02268
G1 X137.853 Y93.734 E0.02053
G1 X138.371 Y94.117 E0.02018
G1 X138.871 Y94.539 E0.02052
G1 X139.385 Y95.028 E0.02224
G1 X139.919 Y95.606 E0.02470
G1 X140.446 Y96.287 E0.02698
G1 X140.903 Y97.029 E0.02732
G1 X141.234 Y97.741 E0.02463
G1 X141.475 Y98.490 E0.02465
G1 X141.626 Y99.353 E0.02749
G1 X141.645 Y100.192 E0.02631
G1 X141.528 Y101.062 E0.02753
G1 X141.271 Y101.908 E0.02772
G1 X141.062 Y102.342 E0.01511
G1 X141.698 Y102.710 E0.02304
G1 X142.378 Y103.426 E0.03096
G1 X142.684 Y104.016 E0.02085
G1 X142.825 Y104.626 E0.01964
G1 X142.828 Y120.388 E0.49420
G1 X142.568 Y121.264 E0.02863
G1 X142.233 Y121.768 E0.01899
G1 X141.562 Y122.396 E0.02880
G1 X141.149 Y122.620 E0.01474
G1 X140.387 Y122.828 E0.02477
G1 X109.612 Y122.828 E0.96493
G1 X108.736 Y122.568 E0.02863
G1 X108.232 Y122.233 E0.01899
G1 X107.604 Y121.562 E0.02880
G1 X107.380 Y121.149 E0.01474
G1 X107.172 Y120.387 E0.02477
G1 X107.172 Y89.612 E0.96493
G1 X107.432 Y88.736 E0.02863
G1 X107.767 Y88.232 E0.01899
G1 X108.438 Y87.604 E0.02880
G1 X108.851 Y87.380 E0.01474
G1 X109.613 Y87.172 E0.02478
G1 X125.375 Y87.175 E0.49418
G1 X125.993 Y87.319 E0.01991
G1 X126.591 Y87.633 E0.02116
G1 X127.308 Y88.323 E0.03120
G1 X127.496 Y88.639 E0.01154
G1 X127.358 Y89.168 F10800.000
G1 F1260
G1 X128.334 Y88.768 E0.03306
G1 X129.162 Y88.556 E0.02680
G1 X130.065 Y88.471 E0.02842
G1 X130.953 Y88.540 E0.02794
G1 X131.821 Y88.765 E0.02811
G1 X132.738 Y89.191 E0.03172
G1 X133.435 Y89.670 E0.02653
G1 X134.040 Y90.216 E0.02553
G1 X134.594 Y90.850 E0.02642
G1 X135.074 Y91.573 E0.02721
G1 X135.422 Y92.316 E0.02573
G1 X135.629 Y93.063 E0.02428
G1 X136.493 Y93.396 E0.02903
G1 X137.106 Y93.709 E0.02158
G1 X137.635 Y94.042 E0.01961
G1 X138.132 Y94.409 E0.01937
G1 X138.623 Y94.824 E0.02015
G1 X139.112 Y95.288 E0.02116
G1 X139.626 Y95.844 E0.02374
G1 X140.130 Y96.494 E0.02579
G1 X140.566 Y97.199 E0.02598
G1 X140.879 Y97.868 E0.02317
G1 X141.112 Y98.593 E0.02387
G1 X141.249 Y99.377 E0.02496
G1 X141.269 Y100.157 E0.02446
G1 X141.157 Y100.996 E0.02655
G1 X140.915 Y101.782 E0.02577
G1 X140.526 Y102.575 E0.02770
G1 X140.911 Y102.693 E0.01262
G1 X141.445 Y102.991 E0.01919
G1 X142.085 Y103.664 E0.02912
G1 X142.337 Y104.164 E0.01755
G1 X142.448 Y104.648 E0.01555
G1 X142.451 Y120.361 E0.49268
G1 X142.237 Y121.081 E0.02354
G1 X141.956 Y121.510 E0.01609
G1 X141.357 Y122.078 E0.02589
G1 X141.024 Y122.263 E0.01196
G1 X140.360 Y122.451 E0.02162
G1 X109.639 Y122.451 E0.96324
G1 X108.919 Y122.237 E0.02354
G1 X108.490 Y121.956 E0.01609
G1 X107.922 Y121.357 E0.02589
G1 X107.737 Y121.024 E0.01196
G1 X107.549 Y120.360 E0.02162
G1 X107.549 Y89.639 E0.96324
G1 X107.763 Y88.919 E0.02354
G1 X108.044 Y88.490 E0.01609
G1 X108.643 Y87.922 E0.02589
G1 X108.976 Y87.737 E0.01196
G1 X109.640 Y87.549 E0.02163
G1 X125.353 Y87.552 E0.49268
G1 X125.840 Y87.665 E0.01565
G1 X126.391 Y87.953 E0.01951
G1 X127.023 Y88.571 E0.02770
G1 X127.329 Y89.115 E0.01957
G1 X127.114 Y89.753 F10800.000
G1 F1260
G1 X127.719 Y89.422 E0.02163
G1 X128.463 Y89.123 E0.02514
G1 X129.241 Y88.925 E0.02517
G1 X130.053 Y88.848 E0.02557
G1 X130.875 Y88.909 E0.02585
G1 X131.710 Y89.125 E0.02703
G1 X132.538 Y89.511 E0.02866
G1 X133.193 Y89.959 E0.02487
G1 X133.764 Y90.473 E0.02410
G1 X134.288 Y91.071 E0.02491
G1 X134.739 Y91.746 E0.02548
G1 X135.074 Y92.461 E0.02476
G1 X135.336 Y93.425 E0.03130
G1 X135.619 Y93.463 E0.00893
G1 X136.348 Y93.744 E0.02450
G1 X136.912 Y94.033 E0.01987
G1 X137.417 Y94.350 E0.01869
G1 X137.894 Y94.701 E0.01856
G1 X138.375 Y95.108 E0.01978
G1 X138.840 Y95.549 E0.02008
G1 X139.334 Y96.082 E0.02278
G1 X139.815 Y96.702 E0.02460
G1 X140.229 Y97.370 E0.02464
G1 X140.524 Y97.996 E0.02172
G1 X140.743 Y98.672 E0.02227
G1 X140.873 Y99.401 E0.02322
G1 X140.892 Y100.152 E0.02355
G1 X140.792 Y100.900 E0.02368
G1 X140.559 Y101.656 E0.02479
G1 X140.214 Y102.352 E0.02437
G1 X139.832 Y102.912 E0.02125
G1 X140.476 Y102.958 E0.02026
G1 X140.749 Y103.034 E0.00886
G1 X141.235 Y103.305 E0.01745
G1 X141.789 Y103.899 E0.02546
G1 X141.988 Y104.309 E0.01428
G1 X142.071 Y104.669 E0.01158
G1 X142.074 Y120.332 E0.49110
G1 X141.886 Y120.943 E0.02004
G1 X141.680 Y121.253 E0.01167
G1 X141.149 Y121.763 E0.02310
G1 X140.894 Y121.909 E0.00919
G1 X140.332 Y122.074 E0.01838
G1 X109.668 Y122.074 E0.96144
G1 X109.057 Y121.886 E0.02003
G1 X108.747 Y121.680 E0.01167
G1 X108.237 Y121.149 E0.02310
G1 X108.091 Y120.894 E0.00919
G1 X107.926 Y120.332 E0.01838
G1 X107.926 Y89.668 E0.96144
G1 X108.114 Y89.057 E0.02003
G1 X108.320 Y88.747 E0.01167
G1 X108.851 Y88.237 E0.02310
G1 X109.106 Y88.091 E0.00919
G1 X109.668 Y87.926 E0.01838
G1 X125.332 Y87.929 E0.49114
G1 X125.691 Y88.012 E0.01154
G1 X126.149 Y88.244 E0.01610
G1 X126.738 Y88.820 E0.02583
G1 X126.953 Y89.217 E0.01415
G1 X127.096 Y89.695 E0.01566
G1 X126.722 Y90.471 F10800.000
G1 F1260
G1 X127.199 Y90.137 E0.01827
G1 X127.872 Y89.768 E0.02405
G1 X128.570 Y89.484 E0.02361
G1 X129.291 Y89.299 E0.02337
G1 X130.072 Y89.225 E0.02458
G1 X130.828 Y89.284 E0.02379
G1 X131.597 Y89.486 E0.02492
G1 X132.339 Y89.831 E0.02565
G1 X132.950 Y90.248 E0.02322
G1 X133.488 Y90.731 E0.02267
G1 X133.982 Y91.291 E0.02341
G1 X134.404 Y91.920 E0.02373
G1 X134.726 Y92.608 E0.02383
G1 X134.922 Y93.308 E0.02279
G1 X134.972 Y93.773 E0.01466
G1 X135.510 Y93.825 E0.01697
G1 X136.203 Y94.092 E0.02327
G1 X136.732 Y94.364 E0.01867
G1 X137.210 Y94.665 E0.01771
G1 X137.655 Y94.993 E0.01733
G1 X138.120 Y95.385 E0.01907
G1 X138.576 Y95.818 E0.01971
G1 X139.051 Y96.332 E0.02196
G1 X139.500 Y96.909 E0.02292
G1 X139.893 Y97.541 E0.02331
G1 X140.169 Y98.125 E0.02028
G1 X140.374 Y98.751 E0.02064
G1 X140.499 Y99.452 E0.02233
G1 X140.515 Y100.145 E0.02172
G1 X140.420 Y100.833 E0.02178
G1 X140.204 Y101.529 E0.02284
G1 X139.883 Y102.171 E0.02252
G1 X139.506 Y102.717 E0.02081
G1 X139.038 Y103.247 E0.02215
G1 X140.396 Y103.327 E0.04264
G1 X140.627 Y103.392 E0.00753
G1 X140.983 Y103.587 E0.01273
G1 X141.463 Y104.091 E0.02182
G1 X141.640 Y104.455 E0.01267
G1 X141.693 Y104.690 E0.00758
G1 X141.697 Y120.301 E0.48947
G1 X141.536 Y120.800 E0.01642
G1 X141.403 Y120.996 E0.00744
G1 X140.936 Y121.451 E0.02045
G1 X140.759 Y121.556 E0.00643
G1 X140.302 Y121.697 E0.01500
G1 X109.699 Y121.697 E0.95955
G1 X109.200 Y121.536 E0.01642
G1 X109.004 Y121.403 E0.00744
G1 X108.549 Y120.936 E0.02045
G1 X108.444 Y120.759 E0.00643
G1 X108.303 Y120.302 E0.01500
G1 X108.303 Y89.699 E0.95955
G1 X108.464 Y89.200 E0.01642
G1 X108.597 Y89.004 E0.00744
G1 X109.064 Y88.549 E0.02045
G1 X109.241 Y88.444 E0.00643
G1 X109.698 Y88.303 E0.01500
G1 X125.311 Y88.307 E0.48954
G1 X125.547 Y88.360 E0.00758
G1 X125.911 Y88.538 E0.01271
G1 X126.421 Y89.027 E0.02214
G1 X126.612 Y89.379 E0.01259
G1 X126.668 Y89.565 E0.00608
G1 X126.718 Y90.411 E0.02656
G1 X126.378 Y91.177 F10800.000
G1 F1260
G1 X127.390 Y90.462 E0.03886
G1 X128.043 Y90.104 E0.02335
G1 X128.699 Y89.839 E0.02216
G1 X129.370 Y89.668 E0.02171
G1 X130.089 Y89.602 E0.02266
G1 X130.780 Y89.658 E0.02173
G1 X131.484 Y89.845 E0.02282
G1 X132.139 Y90.151 E0.02269
G1 X132.709 Y90.538 E0.02157
G1 X133.213 Y90.989 E0.02124
G1 X133.677 Y91.513 E0.02192
G1 X134.069 Y92.093 E0.02195
G1 X134.378 Y92.753 E0.02285
G1 X134.554 Y93.391 E0.02077
G1 X134.639 Y94.256 E0.02724
G1 X135.123 Y94.166 E0.01546
G1 X135.402 Y94.188 E0.00878
G1 X136.040 Y94.433 E0.02141
G1 X136.539 Y94.688 E0.01756
G1 X137.003 Y94.981 E0.01722
G1 X137.426 Y95.293 E0.01648
G1 X137.864 Y95.663 E0.01798
G1 X138.312 Y96.088 E0.01935
G1 X138.769 Y96.582 E0.02113
G1 X139.186 Y97.118 E0.02127
G1 X139.557 Y97.713 E0.02200
G1 X139.815 Y98.255 E0.01884
G1 X140.006 Y98.832 E0.01903
G1 X140.122 Y99.477 E0.02057
G1 X140.139 Y100.110 E0.01987
G1 X140.055 Y100.738 E0.01984
G1 X139.859 Y101.375 E0.02092
G1 X139.565 Y101.968 E0.02075
G1 X139.203 Y102.493 E0.01999
G1 X138.798 Y102.947 E0.01906
G1 X138.100 Y103.573 E0.02941
G1 X140.323 Y103.698 E0.06981
G1 X140.468 Y103.735 E0.00471
G1 X140.776 Y103.904 E0.01100
G1 X141.136 Y104.283 E0.01640
G1 X141.291 Y104.600 E0.01107
G1 X141.316 Y104.711 E0.00357
G1 X141.320 Y120.271 E0.48785
G1 X141.207 Y120.615 E0.01136
G1 X141.123 Y120.744 E0.00482
G1 X140.718 Y121.144 E0.01785
G1 X140.617 Y121.206 E0.00371
G1 X140.271 Y121.320 E0.01144
G1 X109.729 Y121.320 E0.95760
G1 X109.385 Y121.207 E0.01136
G1 X109.256 Y121.123 E0.00482
G1 X108.856 Y120.718 E0.01785
G1 X108.794 Y120.617 E0.00371
G1 X108.680 Y120.271 E0.01144
G1 X108.680 Y89.729 E0.95760
G1 X108.793 Y89.385 E0.01136
G1 X108.877 Y89.256 E0.00482
G1 X109.282 Y88.856 E0.01785
G1 X109.383 Y88.794 E0.00371
G1 X109.729 Y88.680 E0.01144
G1 X125.290 Y88.684 E0.48789
G1 X125.401 Y88.709 E0.00357
G1 X125.717 Y88.863 E0.01103
G1 X126.133 Y89.272 E0.01828
G1 X126.267 Y89.532 E0.00918
G1 X126.299 Y89.644 E0.00366
G1 X126.375 Y91.117 E0.04623
G1 X126.092 Y91.935 F10800.000
G1 F1260
G1 X127.012 Y91.177 E0.03738
G1 X127.594 Y90.779 E0.02211
G1 X128.214 Y90.440 E0.02217
G1 X128.828 Y90.193 E0.02073
G1 X129.420 Y90.042 E0.01919
G1 X130.077 Y89.979 E0.02069
G1 X130.702 Y90.027 E0.01963
G1 X131.341 Y90.195 E0.02073
G1 X131.941 Y90.473 E0.02074
G1 X132.467 Y90.828 E0.01990
G1 X132.939 Y91.248 E0.01982
G1 X133.371 Y91.735 E0.02040
G1 X133.748 Y92.292 E0.02109
G1 X134.019 Y92.869 E0.01998
G1 X134.186 Y93.475 E0.01973
G1 X134.244 Y94.098 E0.01961
G1 X134.164 Y95.132 E0.03252
G1 X134.647 Y94.687 E0.02058
G1 X134.797 Y94.613 E0.00527
G1 X135.133 Y94.543 E0.01074
G1 X135.298 Y94.552 E0.00519
G1 X135.877 Y94.773 E0.01944
G1 X136.359 Y95.020 E0.01698
G1 X136.785 Y95.288 E0.01579
G1 X137.188 Y95.585 E0.01568
G1 X137.617 Y95.947 E0.01761
G1 X138.039 Y96.348 E0.01825
G1 X138.487 Y96.832 E0.02068
G1 X138.882 Y97.341 E0.02021
G1 X139.221 Y97.884 E0.02008
G1 X139.469 Y98.406 E0.01812
G1 X139.643 Y98.936 E0.01748
G1 X139.748 Y99.528 E0.01886
G1 X139.761 Y100.103 E0.01804
G1 X139.684 Y100.671 E0.01797
G1 X139.514 Y101.223 E0.01809
G1 X139.246 Y101.766 E0.01900
G1 X138.913 Y102.251 E0.01845
G1 X138.524 Y102.688 E0.01834
G1 X138.110 Y103.057 E0.01739
G1 X137.704 Y103.338 E0.01550
G1 X137.324 Y103.534 E0.01339
G1 X137.370 Y103.805 E0.00861
G1 X138.622 Y103.991 E0.03969
G1 X140.318 Y104.081 E0.05327
G1 X140.526 Y104.188 E0.00733
G1 X140.840 Y104.518 E0.01427
G1 X140.937 Y104.731 E0.00733
G1 X140.943 Y120.236 E0.48614
G1 X140.861 Y120.463 E0.00757
G1 X140.490 Y120.843 E0.01666
G1 X140.236 Y120.943 E0.00856
G1 X109.764 Y120.943 E0.95540
G1 X109.537 Y120.861 E0.00757
G1 X109.157 Y120.490 E0.01666
G1 X109.057 Y120.236 E0.00856
G1 X109.057 Y89.764 E0.95540
G1 X109.139 Y89.537 E0.00757
G1 X109.510 Y89.157 E0.01666
G1 X109.764 Y89.057 E0.00856
G1 X125.239 Y89.057 E0.48521
G1 X125.483 Y89.160 E0.00830
G1 X125.813 Y89.474 E0.01428
G1 X125.920 Y89.682 E0.00734
G1 X126.009 Y91.379 E0.05326
G1 X126.083 Y91.876 E0.01576
G1 F8640
G1 X127.012 Y91.177 E-0.26836
G1 F8640
G1 X127.594 Y90.779 E-0.16279
G1 F8640
G1 X128.214 Y90.440 E-0.16326
G1 F8640
G1 X128.828 Y90.193 E-0.15264
G1 F8640
G1 X128.882 Y90.180 E-0.01294
G1 E-0.04000 F2100.00000
G1 X133.095 Y97.096 F10800.000
G1 E0.80000 F2100.00000
G1 F1260
G1 X133.402 Y97.419 E0.01396
G1 X133.878 Y97.583 E0.01579
G1 X134.195 Y97.716 E0.01080
G1 X134.529 Y97.890 E0.01180
G1 X134.875 Y98.106 E0.01277
G1 X135.193 Y98.338 E0.01236
G1 X135.465 Y98.569 E0.01118
G1 X135.860 Y99.006 E0.01846
G1 X135.996 Y99.243 E0.00857
G1 X136.040 Y99.409 E0.00537
G1 X135.983 Y99.581 E0.00568
G1 X135.823 Y99.782 E0.00806
G1 X135.585 Y99.945 E0.00905
G1 X135.344 Y99.892 E0.00772
G1 X135.081 Y99.737 E0.00957
G1 X134.738 Y99.439 E0.01427
G1 X134.373 Y99.013 E0.01757
G1 X133.922 Y98.320 E0.02592
G1 X133.672 Y98.098 E0.01050
G1 X132.576 Y97.730 E0.03624
G1 X133.057 Y97.143 E0.02380
G1 F8640
G1 X133.402 Y97.419 E-0.10198
G1 F8640
G1 X133.878 Y97.583 E-0.11629
G1 F8640
G1 X134.195 Y97.716 E-0.07954
G1 F8640
G1 X134.529 Y97.890 E-0.08691
G1 F8640
G1 X134.875 Y98.106 E-0.09405
G1 F8640
G1 X135.193 Y98.338 E-0.09100
G1 F8640
G1 X135.465 Y98.569 E-0.08235
G1 F8640
