; generated by Slic3r 1.36.2-prusa3d on 2017-09-01 at 08:48:58

; 

; external perimeters extrusion width = 0.45mm
; perimeters extrusion width = 0.45mm
; infill extrusion width = 0.45mm
; solid infill extrusion width = 0.45mm
; top infill extrusion width = 0.45mm
; first layer extrusion width = 0.42mm

M107
M115 U3.0.12 ; tell printer latest fw version
M83  ; extruder relative mode
M104 S215 ; set extruder temp
M140 S55 ; set bed temp
M190 S55 ; wait for bed temp
M109 S215 ; wait for extruder temp
G28 W ; home all without mesh bed level
G80 ; mesh bed leveling
G1 Y-3.0 F1000.0 ; go outside pritn area
G1 X60.0 E9.0  F1000.0 ; intro line
G1 X100.0 E12.5  F1000.0 ; intro line
; Filament gcode

G21 ; set units to millimeters
G90 ; use absolute coordinates
M83 ; use relative distances for extrusion
G1 E-0.80000 F2100.00000
G1 Z0.200 F7200.000
G1 X79.198 Y62.768 F7200.000
G1 E0.80000 F2100.00000
M204 S1000
G1 F2100
G1 X79.992 Y62.627 E0.02429
G1 X180.254 Y62.627 E3.01585
G1 X181.152 Y62.805 E0.02755
G1 X181.917 Y63.309 E0.02755
G1 X182.434 Y64.066 E0.02755
G1 X182.627 Y64.961 E0.02755
G1 X182.627 Y145.019 E2.40813
G1 X182.566 Y145.532 E0.01555
G1 X182.395 Y146.020 E0.01555
G1 X182.123 Y146.460 E0.01555
G1 X181.759 Y146.833 E0.01567
G1 X181.057 Y147.232 E0.02429
G1 X180.263 Y147.373 E0.02429
G1 X79.997 Y147.373 E3.01596
G1 X79.480 Y147.314 E0.01567
G1 X78.988 Y147.144 E0.01567
G1 X78.544 Y146.871 E0.01567
G1 X78.168 Y146.505 E0.01578
G1 X77.770 Y145.807 E0.02417
G1 X77.628 Y145.012 E0.02429
G1 X77.628 Y64.996 E2.40687
G1 X77.687 Y64.479 E0.01567
G1 X77.857 Y63.987 E0.01567
G1 X78.130 Y63.543 E0.01567
G1 X78.496 Y63.167 E0.01578
G1 X79.145 Y62.798 E0.02248
G1 F5760
G1 X79.992 Y62.627 E-0.29931
G1 F5760
G1 X81.323 Y62.627 E-0.46069
G1 E-0.04000 F2100.00000
G1 X81.144 Y65.968 F7200.000
G1 E0.80000 F2100.00000
G1 F1680
G1 X96.851 Y65.968 E0.47245
G1 X99.851 Y68.967 E0.12760
G1 X150.649 Y68.967 E1.52801
G1 X153.649 Y65.968 E0.12760
G1 X179.286 Y65.968 E0.77114
G1 X179.286 Y86.603 E0.62068
G1 X176.286 Y89.602 E0.12760
G1 X176.286 Y120.398 E0.92637
G1 X179.286 Y123.397 E0.12760
G1 X179.286 Y144.032 E0.62068
G1 X153.649 Y144.032 E0.77114
G1 X150.649 Y141.033 E0.12760
G1 X99.851 Y141.033 E1.52801
G1 X96.851 Y144.032 E0.12760
G1 X81.144 Y144.032 E0.47245
G1 X81.144 Y66.028 E2.34634
G1 F5760
G1 X83.338 Y66.020 E-0.76000
G1 E-0.04000 F2100.00000
G1 X100.007 Y68.590 F7200.000
G1 E0.80000 F2100.00000
G1 F1680
G1 X150.493 Y68.590 E1.51862
G1 X153.493 Y65.591 E0.12760
G1 X179.663 Y65.591 E0.78718
G1 X179.663 Y86.759 E0.63672
G1 X176.663 Y89.758 E0.12760
G1 X176.663 Y120.242 E0.91697
G1 X179.663 Y123.241 E0.12760
G1 X179.663 Y144.409 E0.63672
G1 X153.493 Y144.409 E0.78718
G1 X150.493 Y141.410 E0.12760
G1 X102.843 Y141.410 E1.43331
G1 X102.843 Y142.553 E0.03438
G1 X102.557 Y142.553 E0.00860
G1 X102.557 Y141.410 E0.03438
G1 X100.007 Y141.410 E0.07671
G1 X97.007 Y144.409 E0.12760
G1 X80.767 Y144.409 E0.48849
G1 X80.767 Y65.591 E2.37083
G1 X97.007 Y65.591 E0.48849
G1 X99.964 Y68.548 E0.12579
G1 X100.163 Y68.213 F7200.000
G1 F1050
G1 X150.337 Y68.213 E1.50922
G1 X153.337 Y65.214 E0.12760
G1 X180.040 Y65.214 E0.80322
G1 X180.040 Y86.915 E0.65276
G1 X177.040 Y89.914 E0.12760
G1 X177.040 Y120.086 E0.90757
G1 X180.040 Y123.085 E0.12760
G1 X180.040 Y144.786 E0.65276
G1 X153.337 Y144.786 E0.80322
G1 X150.337 Y141.787 E0.12760
G1 X103.220 Y141.787 E1.41727
G1 X103.220 Y142.930 E0.03438
G1 X102.180 Y142.930 E0.03128
G1 X102.180 Y141.787 E0.03438
G1 X100.163 Y141.787 E0.06067
G1 X97.163 Y144.786 E0.12760
G1 X80.390 Y144.786 E0.50453
G1 X80.390 Y65.214 E2.39351
G1 X97.163 Y65.214 E0.50453
G1 X100.121 Y68.171 E0.12579
G1 X100.345 Y68.569 F7200.000
G1 F5760
G1 X102.315 Y68.172 E-0.76000
G1 E-0.04000 F2100.00000
G1 X81.257 Y143.155 F7200.000
G1 E0.80000 F2100.00000
G1 F1680
G1 X81.851 Y143.749 E0.02533
G1 X82.386 Y143.749 E0.01611
G1 X81.427 Y142.790 E0.04089
G1 X81.427 Y142.256 E0.01611
G1 X82.920 Y143.749 E0.06367
G1 X83.455 Y143.749 E0.01611
G1 X81.427 Y141.721 E0.08646
G1 X81.427 Y141.187 E0.01611
G1 X83.989 Y143.749 E0.10924
G1 X84.524 Y143.749 E0.01611
G1 X81.427 Y140.652 E0.13203
G1 X81.427 Y140.118 E0.01611
G1 X85.058 Y143.749 E0.15482
G1 X85.592 Y143.749 E0.01611
G1 X81.427 Y139.583 E0.17760
G1 X81.427 Y139.049 E0.01611
G1 X86.127 Y143.749 E0.20039
G1 X86.661 Y143.749 E0.01611
G1 X81.427 Y138.515 E0.22317
G1 X81.427 Y137.980 E0.01611
G1 X87.196 Y143.749 E0.24596
G1 X87.730 Y143.749 E0.01611
G1 X81.427 Y137.446 E0.26875
G1 X81.427 Y136.911 E0.01611
G1 X88.265 Y143.749 E0.29153
G1 X88.799 Y143.749 E0.01611
G1 X81.427 Y136.377 E0.31432
G1 X81.427 Y135.842 E0.01611
G1 X89.334 Y143.749 E0.33710
G1 X89.868 Y143.749 E0.01611
G1 X81.427 Y135.308 E0.35989
G1 X81.427 Y134.774 E0.01611
G1 X90.402 Y143.749 E0.38268
G1 X90.937 Y143.749 E0.01611
G1 X81.427 Y134.239 E0.40546
G1 X81.427 Y133.705 E0.01611
G1 X91.471 Y143.749 E0.42825
G1 X92.006 Y143.749 E0.01611
G1 X81.427 Y133.170 E0.45103
G1 X81.427 Y132.636 E0.01611
G1 X92.540 Y143.749 E0.47382
G1 X93.075 Y143.749 E0.01611
G1 X81.427 Y132.101 E0.49661
G1 X81.427 Y131.567 E0.01611
G1 X93.609 Y143.749 E0.51939
G1 X94.143 Y143.749 E0.01611
G1 X81.427 Y131.033 E0.54218
G1 X81.427 Y130.498 E0.01611
G1 X94.678 Y143.749 E0.56496
G1 X95.212 Y143.749 E0.01611
G1 X81.427 Y129.964 E0.58775
G1 X81.427 Y129.429 E0.01611
G1 X95.747 Y143.749 E0.61054
G1 X96.281 Y143.749 E0.01611
G1 X81.427 Y128.895 E0.63332
G1 X81.427 Y128.360 E0.01611
G1 X96.775 Y143.708 E0.65436
G1 X97.042 Y143.441 E0.01139
G1 X81.427 Y127.826 E0.66576
G1 X81.427 Y127.292 E0.01611
G1 X97.309 Y143.174 E0.67715
G1 X97.576 Y142.907 E0.01139
G1 X81.427 Y126.757 E0.68855
G1 X81.427 Y126.223 E0.01611
G1 X97.844 Y142.639 E0.69994
G1 X98.111 Y142.372 E0.01139
G1 X81.427 Y125.688 E0.71134
G1 X81.427 Y125.154 E0.01611
G1 X98.378 Y142.105 E0.72273
G1 X98.645 Y141.838 E0.01139
G1 X81.427 Y124.619 E0.73413
G1 X81.427 Y124.085 E0.01611
G1 X98.913 Y141.571 E0.74552
G1 X99.180 Y141.304 E0.01139
G1 X81.427 Y123.551 E0.75692
G1 X81.427 Y123.016 E0.01611
G1 X99.447 Y141.036 E0.76831
G1 X99.714 Y140.769 E0.01139
G1 X81.427 Y122.482 E0.77971
G1 X81.427 Y121.947 E0.01611
G1 X100.230 Y140.750 E0.80168
G1 X100.764 Y140.750 E0.01611
G1 X81.427 Y121.413 E0.82446
G1 X81.427 Y120.878 E0.01611
G1 X101.299 Y140.750 E0.84725
G1 X101.833 Y140.750 E0.01611
G1 X81.427 Y120.344 E0.87003
G1 X81.427 Y119.809 E0.01611
G1 X102.367 Y140.750 E0.89282
G1 X102.902 Y140.750 E0.01611
G1 X81.427 Y119.275 E0.91561
G1 X81.427 Y118.741 E0.01611
G1 X103.436 Y140.750 E0.93839
G1 X103.971 Y140.750 E0.01611
G1 X81.427 Y118.206 E0.96118
G1 X81.427 Y117.672 E0.01611
G1 X104.505 Y140.750 E0.98396
G1 X105.040 Y140.750 E0.01611
G1 X81.427 Y117.137 E1.00675
G1 X81.427 Y116.603 E0.01611
G1 X105.574 Y140.750 E1.02954
G1 X106.109 Y140.750 E0.01611
G1 X81.427 Y116.068 E1.05232
G1 X81.427 Y115.534 E0.01611
G1 X106.643 Y140.750 E1.07511
G1 X107.177 Y140.750 E0.01611
G1 X81.427 Y115.000 E1.09789
G1 X81.427 Y114.465 E0.01611
G1 X107.712 Y140.750 E1.12068
G1 X108.246 Y140.750 E0.01611
G1 X81.427 Y113.931 E1.14347
G1 X81.427 Y113.396 E0.01611
G1 X108.781 Y140.750 E1.16625
G1 X109.315 Y140.750 E0.01611
G1 X81.427 Y112.862 E1.18904
G1 X81.427 Y112.327 E0.01611
G1 X109.850 Y140.750 E1.21182
G1 X110.384 Y140.750 E0.01611
G1 X81.427 Y111.793 E1.23461
G1 X81.427 Y111.259 E0.01611
G1 X110.918 Y140.750 E1.25740
G1 X111.453 Y140.750 E0.01611
G1 X81.427 Y110.724 E1.28018
G1 X81.427 Y110.190 E0.01611
G1 X111.987 Y140.750 E1.30297
G1 X112.522 Y140.750 E0.01611
G1 X81.427 Y109.655 E1.32576
G1 X81.427 Y109.121 E0.01611
G1 X113.056 Y140.750 E1.34854
G1 X113.591 Y140.750 E0.01611
G1 X81.427 Y108.586 E1.37133
G1 X81.427 Y108.052 E0.01611
G1 X114.125 Y140.750 E1.39411
G1 X114.659 Y140.750 E0.01611
G1 X81.427 Y107.518 E1.41690
G1 X81.427 Y106.983 E0.01611
G1 X115.194 Y140.750 E1.43969
G1 X115.728 Y140.750 E0.01611
G1 X81.427 Y106.449 E1.46247
G1 X81.427 Y105.914 E0.01611
G1 X116.263 Y140.750 E1.48526
G1 X116.797 Y140.750 E0.01611
G1 X81.427 Y105.380 E1.50804
G1 X81.427 Y104.845 E0.01611
G1 X117.332 Y140.750 E1.53083
G1 X117.866 Y140.750 E0.01611
G1 X81.427 Y104.311 E1.55362
G1 X81.427 Y103.777 E0.01611
G1 X118.400 Y140.750 E1.57640
G1 X118.935 Y140.750 E0.01611
G1 X81.427 Y103.242 E1.59919
G1 X81.427 Y102.708 E0.01611
G1 X119.469 Y140.750 E1.62197
G1 X120.004 Y140.750 E0.01611
G1 X81.427 Y102.173 E1.64476
G1 X81.427 Y101.639 E0.01611
G1 X120.538 Y140.750 E1.66755
G1 X121.073 Y140.750 E0.01611
G1 X81.427 Y101.104 E1.69033
G1 X81.427 Y100.570 E0.01611
G1 X121.607 Y140.750 E1.71312
G1 X122.142 Y140.750 E0.01611
G1 X81.427 Y100.035 E1.73590
G1 X81.427 Y99.501 E0.01611
G1 X122.676 Y140.750 E1.75869
G1 X123.210 Y140.750 E0.01611
G1 X81.427 Y98.967 E1.78148
G1 X81.427 Y98.432 E0.01611
G1 X123.745 Y140.750 E1.80426
G1 X124.279 Y140.750 E0.01611
G1 X81.427 Y97.898 E1.82705
G1 X81.427 Y97.363 E0.01611
G1 X124.814 Y140.750 E1.84983
G1 X125.348 Y140.750 E0.01611
G1 X81.427 Y96.829 E1.87262
G1 X81.427 Y96.294 E0.01611
G1 X125.883 Y140.750 E1.89541
G1 X126.417 Y140.750 E0.01611
G1 X81.427 Y95.760 E1.91819
G1 X81.427 Y95.226 E0.01611
G1 X126.951 Y140.750 E1.94098
G1 X127.486 Y140.750 E0.01611
G1 X81.427 Y94.691 E1.96376
G1 X81.427 Y94.157 E0.01611
G1 X128.020 Y140.750 E1.98655
G1 X128.555 Y140.750 E0.01611
G1 X81.427 Y93.622 E2.00934
G1 X81.427 Y93.088 E0.01611
G1 X129.089 Y140.750 E2.03212
G1 X129.624 Y140.750 E0.01611
G1 X81.427 Y92.553 E2.05491
G1 X81.427 Y92.019 E0.01611
G1 X130.158 Y140.750 E2.07769
G1 X130.692 Y140.750 E0.01611
G1 X81.427 Y91.485 E2.10048
G1 X81.427 Y90.950 E0.01611
G1 X131.227 Y140.750 E2.12327
G1 X131.761 Y140.750 E0.01611
G1 X81.427 Y90.416 E2.14605
G1 X81.427 Y89.881 E0.01611
G1 X132.296 Y140.750 E2.16884
G1 X132.830 Y140.750 E0.01611
G1 X81.427 Y89.347 E2.19162
G1 X81.427 Y88.812 E0.01611
G1 X133.365 Y140.750 E2.21441
G1 X133.899 Y140.750 E0.01611
G1 X81.427 Y88.278 E2.23720
G1 X81.427 Y87.744 E0.01611
G1 X134.433 Y140.750 E2.25998
G1 X134.968 Y140.750 E0.01611
G1 X81.427 Y87.209 E2.28277
G1 X81.427 Y86.675 E0.01611
G1 X135.502 Y140.750 E2.30555
G1 X136.037 Y140.750 E0.01611
G1 X81.427 Y86.140 E2.32834
G1 X81.427 Y85.606 E0.01611
G1 X136.571 Y140.750 E2.35113
G1 X137.106 Y140.750 E0.01611
G1 X81.427 Y85.071 E2.37391
G1 X81.427 Y84.537 E0.01611
G1 X137.640 Y140.750 E2.39670
G1 X138.174 Y140.750 E0.01611
G1 X81.427 Y84.002 E2.41948
G1 X81.427 Y83.468 E0.01611
G1 X138.709 Y140.750 E2.44227
G1 X139.243 Y140.750 E0.01611
G1 X81.427 Y82.934 E2.46506
G1 X81.427 Y82.399 E0.01611
G1 X139.778 Y140.750 E2.48784
G1 X140.312 Y140.750 E0.01611
G1 X81.427 Y81.865 E2.51063
G1 X81.427 Y81.330 E0.01611
G1 X140.847 Y140.750 E2.53341
G1 X141.381 Y140.750 E0.01611
G1 X81.427 Y80.796 E2.55620
G1 X81.427 Y80.261 E0.01611
G1 X141.916 Y140.750 E2.57899
G1 X142.450 Y140.750 E0.01611
G1 X81.427 Y79.727 E2.60177
G1 X81.427 Y79.193 E0.01611
G1 X142.984 Y140.750 E2.62456
G1 X143.519 Y140.750 E0.01611
G1 X81.427 Y78.658 E2.64734
G1 X81.427 Y78.124 E0.01611
G1 X144.053 Y140.750 E2.67013
G1 X144.588 Y140.750 E0.01611
G1 X81.427 Y77.589 E2.69292
G1 X81.427 Y77.055 E0.01611
G1 X145.122 Y140.750 E2.71570
G1 X145.657 Y140.750 E0.01611
G1 X81.427 Y76.520 E2.73849
G1 X81.427 Y75.986 E0.01611
G1 X146.191 Y140.750 E2.76127
G1 X146.725 Y140.750 E0.01611
G1 X81.427 Y75.452 E2.78406
G1 X81.427 Y74.917 E0.01611
G1 X147.260 Y140.750 E2.80685
G1 X147.794 Y140.750 E0.01611
G1 X81.427 Y74.383 E2.82963
G1 X81.427 Y73.848 E0.01611
G1 X148.329 Y140.750 E2.85242
G1 X148.863 Y140.750 E0.01611
G1 X81.427 Y73.314 E2.87521
G1 X81.427 Y72.779 E0.01611
G1 X149.398 Y140.750 E2.89799
G1 X149.932 Y140.750 E0.01611
G1 X81.427 Y72.245 E2.92078
G1 X81.427 Y71.711 E0.01611
G1 X150.636 Y140.920 E2.95080
G1 F5760
G1 X149.085 Y139.368 E-0.76000
G1 E-0.04000 F2100.00000
G1 X154.170 Y143.919 F7200.000
G1 E0.80000 F2100.00000
G1 F1680
G1 X81.427 Y71.176 E3.10145
G1 X81.427 Y70.642 E0.01611
G1 X154.534 Y143.749 E3.11700
G1 X155.069 Y143.749 E0.01611
G1 X81.427 Y70.107 E3.13979
G1 X81.427 Y69.573 E0.01611
G1 X155.603 Y143.749 E3.16257
G1 X156.138 Y143.749 E0.01611
G1 X81.427 Y69.038 E3.18536
G1 X81.427 Y68.504 E0.01611
G1 X156.672 Y143.749 E3.20814
G1 X157.206 Y143.749 E0.01611
G1 X81.427 Y67.970 E3.23093
G1 X81.427 Y67.435 E0.01611
G1 X157.741 Y143.749 E3.25372
G1 X158.275 Y143.749 E0.01611
G1 X81.427 Y66.901 E3.27650
G1 X81.427 Y66.366 E0.01611
G1 X158.810 Y143.749 E3.29929
G1 X159.344 Y143.749 E0.01611
G1 X81.846 Y66.251 E3.30420
G1 X82.381 Y66.251 E0.01611
G1 X159.879 Y143.749 E3.30420
G1 X160.413 Y143.749 E0.01611
G1 X82.915 Y66.251 E3.30420
G1 X83.449 Y66.251 E0.01611
G1 X160.947 Y143.749 E3.30420
G1 X161.482 Y143.749 E0.01611
G1 X83.984 Y66.251 E3.30420
G1 X84.518 Y66.251 E0.01611
G1 X162.016 Y143.749 E3.30420
G1 X162.551 Y143.749 E0.01611
G1 X85.053 Y66.251 E3.30420
G1 X85.587 Y66.251 E0.01611
G1 X163.085 Y143.749 E3.30420
G1 X163.620 Y143.749 E0.01611
G1 X86.122 Y66.251 E3.30420
G1 X86.656 Y66.251 E0.01611
G1 X164.154 Y143.749 E3.30420
G1 X164.689 Y143.749 E0.01611
G1 X87.190 Y66.251 E3.30420
G1 X87.725 Y66.251 E0.01611
G1 X165.223 Y143.749 E3.30420
G1 X165.757 Y143.749 E0.01611
G1 X88.259 Y66.251 E3.30420
G1 X88.794 Y66.251 E0.01611
G1 X166.292 Y143.749 E3.30420
G1 X166.826 Y143.749 E0.01611
G1 X89.328 Y66.251 E3.30420
G1 X89.863 Y66.251 E0.01611
G1 X167.361 Y143.749 E3.30420
G1 X167.895 Y143.749 E0.01611
G1 X90.397 Y66.251 E3.30420
G1 X90.931 Y66.251 E0.01611
G1 X168.430 Y143.749 E3.30420
G1 X168.964 Y143.749 E0.01611
G1 X91.466 Y66.251 E3.30420
G1 X92.000 Y66.251 E0.01611
G1 X169.498 Y143.749 E3.30420
G1 X170.033 Y143.749 E0.01611
G1 X92.535 Y66.251 E3.30420
G1 X93.069 Y66.251 E0.01611
G1 X170.567 Y143.749 E3.30420
G1 X171.102 Y143.749 E0.01611
G1 X93.604 Y66.251 E3.30420
G1 X94.138 Y66.251 E0.01611
G1 X171.636 Y143.749 E3.30420
G1 X172.171 Y143.749 E0.01611
G1 X94.672 Y66.251 E3.30420
G1 X95.207 Y66.251 E0.01611
G1 X172.705 Y143.749 E3.30420
G1 X173.239 Y143.749 E0.01611
G1 X95.741 Y66.251 E3.30420
G1 X96.276 Y66.251 E0.01611
G1 X173.774 Y143.749 E3.30420
G1 X174.308 Y143.749 E0.01611
G1 X99.809 Y69.250 E3.17634
G1 X100.344 Y69.250 E0.01611
G1 X174.843 Y143.749 E3.17634
G1 X175.377 Y143.749 E0.01611
G1 X100.878 Y69.250 E3.17634
G1 X101.413 Y69.250 E0.01611
G1 X175.912 Y143.749 E3.17634
G1 X176.446 Y143.749 E0.01611
G1 X101.947 Y69.250 E3.17634
G1 X102.481 Y69.250 E0.01611
G1 X176.980 Y143.749 E3.17634
G1 X177.515 Y143.749 E0.01611
G1 X103.016 Y69.250 E3.17634
G1 X103.550 Y69.250 E0.01611
G1 X178.049 Y143.749 E3.17634
G1 X178.584 Y143.749 E0.01611
G1 X104.085 Y69.250 E3.17634
G1 X104.619 Y69.250 E0.01611
G1 X179.003 Y143.634 E3.17143
G1 X179.003 Y143.099 E0.01611
G1 X105.154 Y69.250 E3.14864
G1 X105.688 Y69.250 E0.01611
G1 X179.003 Y142.565 E3.12586
G1 X179.003 Y142.031 E0.01611
G1 X106.222 Y69.250 E3.10307
G1 X106.757 Y69.250 E0.01611
G1 X179.003 Y141.496 E3.08028
G1 X179.003 Y140.962 E0.01611
G1 X107.291 Y69.250 E3.05750
G1 X107.826 Y69.250 E0.01611
G1 X179.003 Y140.427 E3.03471
G1 X179.003 Y139.893 E0.01611
G1 X108.360 Y69.250 E3.01193
G1 X108.895 Y69.250 E0.01611
G1 X179.003 Y139.358 E2.98914
G1 X179.003 Y138.824 E0.01611
G1 X109.429 Y69.250 E2.96635
G1 X109.963 Y69.250 E0.01611
G1 X179.003 Y138.290 E2.94357
G1 X179.003 Y137.755 E0.01611
G1 X110.498 Y69.250 E2.92078
G1 X111.032 Y69.250 E0.01611
G1 X179.003 Y137.221 E2.89800
G1 X179.003 Y136.686 E0.01611
G1 X111.567 Y69.250 E2.87521
G1 X112.101 Y69.250 E0.01611
G1 X179.003 Y136.152 E2.85242
G1 X179.003 Y135.617 E0.01611
G1 X112.636 Y69.250 E2.82964
G1 X113.170 Y69.250 E0.01611
G1 X179.003 Y135.083 E2.80685
G1 X179.003 Y134.549 E0.01611
G1 X113.704 Y69.250 E2.78407
G1 X114.239 Y69.250 E0.01611
G1 X179.003 Y134.014 E2.76128
G1 X179.003 Y133.480 E0.01611
G1 X114.773 Y69.250 E2.73849
G1 X115.308 Y69.250 E0.01611
G1 X179.003 Y132.945 E2.71571
G1 X179.003 Y132.411 E0.01611
G1 X115.842 Y69.250 E2.69292
G1 X116.377 Y69.250 E0.01611
G1 X179.003 Y131.876 E2.67014
G1 X179.003 Y131.342 E0.01611
G1 X116.911 Y69.250 E2.64735
G1 X117.445 Y69.250 E0.01611
G1 X179.003 Y130.808 E2.62456
G1 X179.003 Y130.273 E0.01611
