; generated by Slic3r 1.36.2-prusa3d on 2017-09-03 at 11:03:58

; 

; external perimeters extrusion width = 0.60mm
; perimeters extrusion width = 0.43mm
; infill extrusion width = 0.70mm
; solid infill extrusion width = 0.70mm
; top infill extrusion width = 0.43mm
; support material extrusion width = 0.35mm
; first layer extrusion width = 0.42mm

M107
M115 U3.0.12 ; tell printer latest fw version
M83  ; extruder relative mode
M104 S215 ; set extruder temp
M140 S55 ; set bed temp
M190 S55 ; wait for bed temp
M109 S215 ; wait for extruder temp
G28 W ; home all without mesh bed level
G80 ; mesh bed leveling
G1 Y-3.0 F1000.0 ; go outside pritn area
G1 X60.0 E9.0  F1000.0 ; intro line
G1 X100.0 E12.5  F1000.0 ; intro line
; Filament gcode

G21 ; set units to millimeters
G90 ; use absolute coordinates
M83 ; use relative distances for extrusion
G1 E-0.80000 F2100.00000
G1 Z0.200 F7200.000
G1 X13.367 Y79.568 F7200.000
G1 E0.80000 F2100.00000
M204 S1000
G1 F2100
G1 X14.092 Y79.278 E0.02350
G1 X14.600 Y79.223 E0.01536
G1 X235.404 Y79.223 E6.64175
G1 X236.288 Y79.395 E0.02710
G1 X237.042 Y79.881 E0.02699
G1 X237.562 Y80.613 E0.02699
G1 X237.774 Y81.485 E0.02699
G1 X237.777 Y127.423 E1.38181
G1 X237.622 Y128.246 E0.02519
G1 X237.193 Y128.961 E0.02508
G1 X235.852 Y130.282 E0.05662
G1 X235.404 Y130.555 E0.01578
G1 X234.907 Y130.722 E0.01578
G1 X234.400 Y130.777 E0.01534
G1 X15.570 Y130.777 E6.58239
G1 X14.754 Y130.622 E0.02496
G1 X14.039 Y130.193 E0.02508
G1 X12.718 Y128.852 E0.05662
G1 X12.445 Y128.404 E0.01578
G1 X12.278 Y127.907 E0.01578
G1 X12.223 Y127.404 E0.01521
G1 X12.225 Y81.512 E1.38042
G1 X12.380 Y80.751 E0.02338
G1 X12.775 Y80.077 E0.02350
G1 X13.322 Y79.607 E0.02169
G1 F5760
G1 X14.092 Y79.278 E-0.29027
G1 F5760
G1 X14.600 Y79.223 E-0.17681
G1 F5760
G1 X15.446 Y79.223 E-0.29291
G1 E-0.04000 F2100.00000
G1 X138.413 Y87.013 F7200.000
G1 E0.80000 F2100.00000
G1 F1680
G1 X165.787 Y87.013 E0.82341
G1 X165.787 Y97.695 E0.32132
G1 X165.281 Y99.215 E0.04819
G1 X164.640 Y100.614 E0.04629
G1 X163.851 Y101.935 E0.04629
G1 X162.923 Y103.163 E0.04629
G1 X161.868 Y104.283 E0.04629
G1 X160.697 Y105.282 E0.04629
G1 X159.425 Y106.148 E0.04629
G1 X158.066 Y106.870 E0.04629
G1 X156.638 Y107.442 E0.04629
G1 X155.155 Y107.855 E0.04629
G1 X153.637 Y108.104 E0.04629
G1 X152.100 Y108.188 E0.04629
G1 X150.563 Y108.104 E0.04629
G1 X149.045 Y107.855 E0.04629
G1 X147.562 Y107.442 E0.04629
G1 X146.134 Y106.870 E0.04629
G1 X144.775 Y106.148 E0.04629
G1 X143.503 Y105.282 E0.04629
G1 X142.332 Y104.283 E0.04629
G1 X141.276 Y103.162 E0.04631
G1 X140.330 Y101.903 E0.04739
G1 X139.560 Y100.614 E0.04516
G1 X138.919 Y99.215 E0.04629
G1 X138.413 Y97.695 E0.04819
G1 X138.413 Y87.073 E0.31951
G1 X138.790 Y87.390 F7200.000
G1 F1260
G1 X165.410 Y87.390 E0.80073
G1 X165.410 Y97.634 E0.30814
G1 X164.930 Y99.077 E0.04573
G1 X164.306 Y100.438 E0.04506
G1 X163.538 Y101.724 E0.04506
G1 X162.635 Y102.919 E0.04506
G1 X161.607 Y104.009 E0.04505
G1 X160.468 Y104.981 E0.04506
G1 X159.230 Y105.824 E0.04506
G1 X157.907 Y106.528 E0.04505
G1 X156.517 Y107.084 E0.04506
G1 X155.074 Y107.486 E0.04505
G1 X153.596 Y107.729 E0.04506
G1 X152.100 Y107.810 E0.04506
G1 X150.604 Y107.729 E0.04506
G1 X149.126 Y107.486 E0.04506
G1 X147.683 Y107.084 E0.04506
G1 X146.293 Y106.528 E0.04505
G1 X144.970 Y105.824 E0.04506
G1 X143.732 Y104.981 E0.04506
G1 X142.593 Y104.009 E0.04505
G1 X141.565 Y102.919 E0.04506
G1 X140.643 Y101.692 E0.04616
G1 X139.894 Y100.438 E0.04394
G1 X139.270 Y99.077 E0.04506
G1 X138.790 Y97.634 E0.04574
G1 X138.790 Y87.450 E0.30633
G1 X138.785 Y86.990 F7200.000
G1 F5760
G1 X140.984 Y87.445 E-0.76000
G1 E-0.04000 F2100.00000
G1 X84.213 Y87.013 F7200.000
G1 E0.80000 F2100.00000
G1 F1680
G1 X111.587 Y87.013 E0.82341
G1 X111.587 Y97.695 E0.32132
G1 X111.081 Y99.215 E0.04819
G1 X110.440 Y100.615 E0.04631
G1 X109.628 Y101.965 E0.04739
G1 X108.723 Y103.163 E0.04516
G1 X107.668 Y104.283 E0.04629
G1 X106.497 Y105.282 E0.04629
G1 X105.225 Y106.148 E0.04629
G1 X103.866 Y106.870 E0.04629
G1 X102.438 Y107.442 E0.04629
G1 X100.955 Y107.855 E0.04629
G1 X99.437 Y108.104 E0.04629
G1 X97.900 Y108.188 E0.04629
G1 X96.363 Y108.104 E0.04629
G1 X94.845 Y107.855 E0.04629
G1 X93.362 Y107.442 E0.04629
G1 X91.934 Y106.870 E0.04629
G1 X90.575 Y106.148 E0.04629
G1 X89.303 Y105.282 E0.04629
G1 X88.132 Y104.283 E0.04629
G1 X87.077 Y103.163 E0.04629
G1 X86.149 Y101.935 E0.04629
G1 X85.360 Y100.614 E0.04629
G1 X84.719 Y99.215 E0.04629
G1 X84.213 Y97.695 E0.04819
G1 X84.213 Y87.073 E0.31951
G1 X84.590 Y87.390 F7200.000
G1 F1260
G1 X111.210 Y87.390 E0.80073
G1 X111.210 Y97.634 E0.30814
G1 X110.730 Y99.077 E0.04574
G1 X110.106 Y100.439 E0.04506
G1 X109.315 Y101.754 E0.04616
G1 X108.435 Y102.919 E0.04394
G1 X107.407 Y104.009 E0.04506
G1 X106.268 Y104.981 E0.04506
G1 X105.030 Y105.824 E0.04506
G1 X103.707 Y106.528 E0.04506
G1 X102.317 Y107.084 E0.04506
G1 X100.874 Y107.486 E0.04506
G1 X99.396 Y107.729 E0.04506
G1 X97.900 Y107.810 E0.04506
G1 X96.404 Y107.729 E0.04506
G1 X94.926 Y107.486 E0.04506
G1 X93.483 Y107.084 E0.04506
G1 X92.093 Y106.528 E0.04506
G1 X90.770 Y105.824 E0.04505
G1 X89.532 Y104.981 E0.04506
G1 X88.393 Y104.009 E0.04506
G1 X87.365 Y102.919 E0.04506
G1 X86.462 Y101.724 E0.04506
G1 X85.694 Y100.438 E0.04506
G1 X85.070 Y99.077 E0.04506
G1 X84.590 Y97.634 E0.04573
G1 X84.590 Y87.450 E0.30633
G1 X84.585 Y86.990 F7200.000
G1 F5760
G1 X86.784 Y87.445 E-0.76000
G1 E-0.04000 F2100.00000
G1 X30.013 Y87.013 F7200.000
G1 E0.80000 F2100.00000
G1 F1680
G1 X57.387 Y87.013 E0.82341
G1 X57.387 Y97.695 E0.32132
G1 X56.881 Y99.215 E0.04819
G1 X56.240 Y100.614 E0.04629
G1 X55.451 Y101.935 E0.04629
G1 X54.523 Y103.163 E0.04629
G1 X53.468 Y104.283 E0.04629
G1 X52.297 Y105.282 E0.04629
G1 X51.025 Y106.148 E0.04629
G1 X49.666 Y106.870 E0.04629
G1 X48.238 Y107.442 E0.04629
G1 X46.755 Y107.855 E0.04629
G1 X45.237 Y108.104 E0.04629
G1 X43.700 Y108.188 E0.04629
G1 X42.163 Y108.104 E0.04629
G1 X40.645 Y107.855 E0.04629
G1 X39.162 Y107.442 E0.04629
G1 X37.734 Y106.870 E0.04629
G1 X36.375 Y106.148 E0.04629
G1 X35.103 Y105.282 E0.04629
G1 X33.932 Y104.283 E0.04629
G1 X32.877 Y103.163 E0.04629
G1 X31.949 Y101.935 E0.04629
G1 X31.160 Y100.614 E0.04629
G1 X30.519 Y99.215 E0.04629
G1 X30.013 Y97.695 E0.04819
G1 X30.013 Y87.073 E0.31951
G1 X30.390 Y87.390 F7200.000
G1 F1260
G1 X57.010 Y87.390 E0.80073
G1 X57.010 Y97.634 E0.30814
G1 X56.530 Y99.077 E0.04574
G1 X55.906 Y100.438 E0.04506
G1 X55.138 Y101.724 E0.04506
G1 X54.235 Y102.919 E0.04506
G1 X53.207 Y104.009 E0.04506
G1 X52.068 Y104.981 E0.04506
G1 X50.830 Y105.824 E0.04506
G1 X49.507 Y106.528 E0.04506
G1 X48.117 Y107.084 E0.04506
G1 X46.674 Y107.486 E0.04506
G1 X45.196 Y107.729 E0.04506
G1 X43.700 Y107.810 E0.04506
G1 X42.204 Y107.729 E0.04506
G1 X40.726 Y107.486 E0.04506
G1 X39.283 Y107.084 E0.04506
G1 X37.893 Y106.528 E0.04506
G1 X36.570 Y105.824 E0.04506
G1 X35.332 Y104.981 E0.04506
G1 X34.193 Y104.009 E0.04506
G1 X33.165 Y102.919 E0.04506
G1 X32.262 Y101.724 E0.04506
G1 X31.494 Y100.438 E0.04506
G1 X30.870 Y99.077 E0.04506
G1 X30.390 Y97.634 E0.04574
G1 X30.390 Y87.450 E0.30633
G1 X30.385 Y86.990 F7200.000
G1 F5760
G1 X32.584 Y87.445 E-0.76000
G1 E-0.04000 F2100.00000
G1 X192.613 Y87.013 F7200.000
G1 E0.80000 F2100.00000
G1 F1680
G1 X219.987 Y87.013 E0.82341
G1 X219.987 Y97.695 E0.32132
G1 X219.481 Y99.215 E0.04819
G1 X218.840 Y100.614 E0.04629
G1 X218.051 Y101.935 E0.04629
G1 X217.123 Y103.163 E0.04629
G1 X216.068 Y104.283 E0.04629
G1 X214.897 Y105.282 E0.04629
G1 X213.625 Y106.148 E0.04629
G1 X212.266 Y106.870 E0.04629
G1 X210.838 Y107.442 E0.04629
G1 X209.355 Y107.855 E0.04629
G1 X207.837 Y108.104 E0.04629
G1 X206.300 Y108.188 E0.04629
G1 X204.763 Y108.104 E0.04629
G1 X203.245 Y107.855 E0.04629
G1 X201.763 Y107.442 E0.04629
G1 X200.334 Y106.870 E0.04629
G1 X198.975 Y106.148 E0.04629
G1 X197.702 Y105.281 E0.04631
G1 X196.506 Y104.255 E0.04739
G1 X195.477 Y103.163 E0.04516
G1 X194.549 Y101.935 E0.04629
G1 X193.760 Y100.614 E0.04629
G1 X193.119 Y99.215 E0.04629
G1 X192.613 Y97.695 E0.04819
G1 X192.613 Y87.073 E0.31951
G1 X192.990 Y87.390 F7200.000
G1 F1260
G1 X219.610 Y87.390 E0.80073
G1 X219.610 Y97.634 E0.30814
G1 X219.130 Y99.077 E0.04574
G1 X218.506 Y100.438 E0.04506
G1 X217.738 Y101.724 E0.04506
G1 X216.835 Y102.919 E0.04506
G1 X215.807 Y104.009 E0.04506
G1 X214.668 Y104.981 E0.04506
G1 X213.430 Y105.824 E0.04506
G1 X212.107 Y106.528 E0.04506
G1 X210.717 Y107.084 E0.04505
G1 X209.274 Y107.486 E0.04506
G1 X207.796 Y107.729 E0.04506
G1 X206.300 Y107.810 E0.04506
G1 X204.804 Y107.729 E0.04506
G1 X203.326 Y107.486 E0.04506
G1 X201.883 Y107.084 E0.04505
G1 X200.493 Y106.528 E0.04506
G1 X199.170 Y105.824 E0.04505
G1 X197.932 Y104.981 E0.04506
G1 X196.767 Y103.982 E0.04616
G1 X195.765 Y102.919 E0.04394
G1 X194.862 Y101.724 E0.04506
G1 X194.094 Y100.438 E0.04506
G1 X193.470 Y99.077 E0.04506
G1 X192.990 Y97.634 E0.04574
G1 X192.990 Y87.450 E0.30633
G1 X192.985 Y86.990 F7200.000
G1 F5760
G1 X195.184 Y87.445 E-0.76000
G1 E-0.04000 F2100.00000
G1 X234.813 Y82.187 F7200.000
G1 E0.80000 F2100.00000
G1 F1680
G1 X234.813 Y127.157 E1.35268
G1 X234.157 Y127.813 E0.02791
G1 X15.843 Y127.813 E6.56684
G1 X15.187 Y127.157 E0.02791
G1 X15.187 Y82.187 E1.35268
G1 X234.753 Y82.187 E6.60451
G1 X235.190 Y81.810 F7200.000
G1 F1260
G1 X235.190 Y127.313 E1.36872
G1 X234.313 Y128.190 E0.03731
G1 X15.687 Y128.190 E6.57624
G1 X14.810 Y127.313 E0.03731
G1 X14.810 Y81.810 E1.36872
G1 X235.130 Y81.810 E6.62719
G1 X235.014 Y82.169 F7200.000
G1 F5760
G1 X235.133 Y84.004 E-0.76000
G1 E-0.04000 F2100.00000
G1 X234.700 Y83.063 F7200.000
G1 E0.80000 F2100.00000
G1 F2520
G1 X234.106 Y82.470 E0.02528
G1 X233.572 Y82.470 E0.01608
G1 X234.530 Y83.428 E0.04079
G1 X234.530 Y83.961 E0.01608
G1 X233.039 Y82.470 E0.06353
G1 X232.505 Y82.470 E0.01608
G1 X234.530 Y84.495 E0.08627
G1 X234.530 Y85.029 E0.01608
G1 X231.971 Y82.470 E0.10900
G1 X231.437 Y82.470 E0.01608
G1 X234.530 Y85.563 E0.13174
G1 X234.530 Y86.097 E0.01608
G1 X230.903 Y82.470 E0.15448
G1 X230.369 Y82.470 E0.01608
G1 X234.530 Y86.631 E0.17722
G1 X234.530 Y87.165 E0.01608
G1 X229.835 Y82.470 E0.19996
G1 X229.301 Y82.470 E0.01608
G1 X234.530 Y87.699 E0.22270
G1 X234.530 Y88.233 E0.01608
G1 X228.767 Y82.470 E0.24543
G1 X228.234 Y82.470 E0.01608
G1 X234.530 Y88.766 E0.26817
G1 X234.530 Y89.300 E0.01608
G1 X227.700 Y82.470 E0.29091
G1 X227.166 Y82.470 E0.01608
G1 X234.530 Y89.834 E0.31365
G1 X234.530 Y90.368 E0.01608
G1 X226.632 Y82.470 E0.33639
G1 X226.098 Y82.470 E0.01608
G1 X234.530 Y90.902 E0.35913
G1 X234.530 Y91.436 E0.01608
G1 X225.564 Y82.470 E0.38187
G1 X225.030 Y82.470 E0.01608
G1 X234.530 Y91.970 E0.40460
G1 X234.530 Y92.504 E0.01608
G1 X224.496 Y82.470 E0.42734
G1 X223.963 Y82.470 E0.01608
G1 X234.530 Y93.038 E0.45008
G1 X234.530 Y93.571 E0.01608
G1 X223.429 Y82.470 E0.47282
G1 X222.895 Y82.470 E0.01608
G1 X234.530 Y94.105 E0.49556
G1 X234.530 Y94.639 E0.01608
G1 X222.361 Y82.470 E0.51830
G1 X221.827 Y82.470 E0.01608
G1 X234.530 Y95.173 E0.54103
G1 X234.530 Y95.707 E0.01608
G1 X221.293 Y82.470 E0.56377
G1 X220.759 Y82.470 E0.01608
G1 X234.530 Y96.241 E0.58651
G1 X234.530 Y96.775 E0.01608
G1 X220.225 Y82.470 E0.60925
G1 X219.691 Y82.470 E0.01608
G1 X234.530 Y97.309 E0.63199
G1 X234.530 Y97.842 E0.01608
G1 X219.158 Y82.470 E0.65473
G1 X218.624 Y82.470 E0.01608
G1 X234.530 Y98.376 E0.67746
G1 X234.530 Y98.910 E0.01608
G1 X218.090 Y82.470 E0.70020
G1 X217.556 Y82.470 E0.01608
G1 X234.530 Y99.444 E0.72294
G1 X234.530 Y99.978 E0.01608
G1 X217.022 Y82.470 E0.74568
G1 X216.488 Y82.470 E0.01608
G1 X234.530 Y100.512 E0.76842
G1 X234.530 Y101.046 E0.01608
G1 X215.954 Y82.470 E0.79116
G1 X215.420 Y82.470 E0.01608
G1 X219.681 Y86.730 E0.18145
G1 X219.147 Y86.730 E0.01608
G1 X214.886 Y82.470 E0.18145
G1 X214.353 Y82.470 E0.01608
G1 X218.613 Y86.730 E0.18145
G1 X218.079 Y86.730 E0.01608
G1 X213.819 Y82.470 E0.18145
G1 X213.285 Y82.470 E0.01608
G1 X217.545 Y86.730 E0.18145
G1 X217.011 Y86.730 E0.01608
G1 X212.751 Y82.470 E0.18145
G1 X212.217 Y82.470 E0.01608
G1 X216.477 Y86.730 E0.18145
G1 X215.943 Y86.730 E0.01608
G1 X211.683 Y82.470 E0.18145
G1 X211.149 Y82.470 E0.01608
G1 X215.410 Y86.730 E0.18145
G1 X214.876 Y86.730 E0.01608
G1 X210.615 Y82.470 E0.18145
G1 X210.081 Y82.470 E0.01608
G1 X214.342 Y86.730 E0.18145
G1 X213.808 Y86.730 E0.01608
G1 X209.548 Y82.470 E0.18145
G1 X209.014 Y82.470 E0.01608
G1 X213.274 Y86.730 E0.18145
G1 X212.740 Y86.730 E0.01608
G1 X208.480 Y82.470 E0.18145
G1 X207.946 Y82.470 E0.01608
G1 X212.206 Y86.730 E0.18145
G1 X211.672 Y86.730 E0.01608
G1 X207.412 Y82.470 E0.18145
G1 X206.878 Y82.470 E0.01608
G1 X211.138 Y86.730 E0.18145
G1 X210.605 Y86.730 E0.01608
G1 X206.344 Y82.470 E0.18145
G1 X205.810 Y82.470 E0.01608
G1 X210.071 Y86.730 E0.18145
G1 X209.537 Y86.730 E0.01608
G1 X205.277 Y82.470 E0.18145
G1 X204.743 Y82.470 E0.01608
G1 X209.003 Y86.730 E0.18145
G1 X208.469 Y86.730 E0.01608
G1 X204.209 Y82.470 E0.18145
G1 X203.675 Y82.470 E0.01608
G1 X207.935 Y86.730 E0.18145
G1 X207.401 Y86.730 E0.01608
G1 X203.141 Y82.470 E0.18145
G1 X202.607 Y82.470 E0.01608
G1 X206.867 Y86.730 E0.18145
G1 X206.333 Y86.730 E0.01608
G1 X202.073 Y82.470 E0.18145
G1 X201.539 Y82.470 E0.01608
G1 X205.800 Y86.730 E0.18145
G1 X205.266 Y86.730 E0.01608
G1 X201.005 Y82.470 E0.18145
G1 X200.472 Y82.470 E0.01608
G1 X204.732 Y86.730 E0.18145
G1 X204.198 Y86.730 E0.01608
G1 X199.938 Y82.470 E0.18145
G1 X199.404 Y82.470 E0.01608
G1 X203.664 Y86.730 E0.18145
G1 X203.130 Y86.730 E0.01608
G1 X198.870 Y82.470 E0.18145
G1 X198.336 Y82.470 E0.01608
G1 X202.596 Y86.730 E0.18145
G1 X202.062 Y86.730 E0.01608
G1 X197.802 Y82.470 E0.18145
G1 X197.268 Y82.470 E0.01608
G1 X201.528 Y86.730 E0.18145
G1 X200.995 Y86.730 E0.01608
G1 X196.734 Y82.470 E0.18145
G1 X196.200 Y82.470 E0.01608
G1 X200.461 Y86.730 E0.18145
G1 X199.927 Y86.730 E0.01608
G1 X195.667 Y82.470 E0.18145
G1 X195.133 Y82.470 E0.01608
G1 X199.393 Y86.730 E0.18145
G1 X198.859 Y86.730 E0.01608
G1 X194.599 Y82.470 E0.18145
G1 X194.065 Y82.470 E0.01608
G1 X198.325 Y86.730 E0.18145
G1 X197.791 Y86.730 E0.01608
G1 X193.531 Y82.470 E0.18145
G1 X192.997 Y82.470 E0.01608
G1 X197.257 Y86.730 E0.18145
G1 X196.724 Y86.730 E0.01608
G1 X192.463 Y82.470 E0.18145
G1 X191.929 Y82.470 E0.01608
G1 X196.190 Y86.730 E0.18145
G1 X195.656 Y86.730 E0.01608
G1 X191.395 Y82.470 E0.18145
G1 X190.862 Y82.470 E0.01608
G1 X195.122 Y86.730 E0.18145
G1 X194.588 Y86.730 E0.01608
G1 X190.328 Y82.470 E0.18145
G1 X189.794 Y82.470 E0.01608
G1 X194.054 Y86.730 E0.18145
G1 X193.520 Y86.730 E0.01608
G1 X189.260 Y82.470 E0.18145
G1 X188.726 Y82.470 E0.01608
G1 X192.986 Y86.730 E0.18145
G1 X192.452 Y86.730 E0.01608
G1 X188.192 Y82.470 E0.18145
G1 X187.658 Y82.470 E0.01608
G1 X192.330 Y87.142 E0.19898
G1 X192.330 Y87.676 E0.01608
G1 X187.124 Y82.470 E0.22171
G1 X186.591 Y82.470 E0.01608
G1 X192.330 Y88.209 E0.24445
G1 X192.330 Y88.743 E0.01608
G1 X186.057 Y82.470 E0.26719
G1 X185.523 Y82.470 E0.01608
G1 X192.330 Y89.277 E0.28993
G1 X192.330 Y89.811 E0.01608
G1 X184.989 Y82.470 E0.31267
G1 X184.455 Y82.470 E0.01608
G1 X192.330 Y90.345 E0.33541
G1 X192.330 Y90.879 E0.01608
G1 X183.921 Y82.470 E0.35814
G1 X183.387 Y82.470 E0.01608
G1 X192.330 Y91.413 E0.38088
G1 X192.330 Y91.947 E0.01608
G1 X182.853 Y82.470 E0.40362
G1 X182.319 Y82.470 E0.01608
G1 X192.330 Y92.481 E0.42636
G1 X192.330 Y93.014 E0.01608
G1 X181.786 Y82.470 E0.44910
G1 X181.252 Y82.470 E0.01608
G1 X192.330 Y93.548 E0.47184
G1 X192.330 Y94.082 E0.01608
G1 X180.718 Y82.470 E0.49457
G1 X180.184 Y82.470 E0.01608
G1 X192.330 Y94.616 E0.51731
G1 X192.330 Y95.150 E0.01608
G1 X179.650 Y82.470 E0.54005
G1 X179.116 Y82.470 E0.01608
G1 X192.330 Y95.684 E0.56279
G1 X192.330 Y96.218 E0.01608
G1 X178.582 Y82.470 E0.58553
G1 X178.048 Y82.470 E0.01608
G1 X192.330 Y96.752 E0.60827
G1 X192.330 Y97.286 E0.01608
G1 X177.514 Y82.470 E0.63101
G1 X176.981 Y82.470 E0.01608
G1 X192.369 Y97.859 E0.65541
G1 X192.635 Y98.659 E0.02539
G1 X176.447 Y82.470 E0.68948
G1 X175.913 Y82.470 E0.01608
G1 X192.934 Y99.491 E0.72494
G1 X193.386 Y100.477 E0.03266
G1 X175.379 Y82.470 E0.76692
