; generated by Slic3r 1.36.2-prusa3d on 2017-09-19 at 18:41:19

; 

; external perimeters extrusion width = 0.60mm
; perimeters extrusion width = 0.43mm
; infill extrusion width = 0.70mm
; solid infill extrusion width = 0.70mm
; top infill extrusion width = 0.43mm
; first layer extrusion width = 0.42mm

M107
M115 U3.0.12 ; tell printer latest fw version
M83  ; extruder relative mode
M104 S215 ; set extruder temp
M140 S55 ; set bed temp
M190 S55 ; wait for bed temp
M109 S215 ; wait for extruder temp
G28 W ; home all without mesh bed level
G80 ; mesh bed leveling
G1 Y-3.0 F1000.0 ; go outside pritn area
G1 X60.0 E9.0  F1000.0 ; intro line
G1 X100.0 E12.5  F1000.0 ; intro line
; Filament gcode

G21 ; set units to millimeters
G90 ; use absolute coordinates
M83 ; use relative distances for extrusion
G1 E-0.80000 F2100.00000
G1 Z0.200 F7200.000
G1 X98.303 Y78.455 F7200.000
G1 E0.80000 F2100.00000
M204 S1000
G1 F2100
G1 X99.070 Y77.921 E0.02812
G1 X99.984 Y77.723 E0.02812
G1 X150.021 Y77.723 E1.50511
G1 X150.509 Y77.774 E0.01475
G1 X150.975 Y77.925 E0.01475
G1 X151.405 Y78.170 E0.01487
G1 X151.771 Y78.496 E0.01475
G1 X152.063 Y78.890 E0.01475
G1 X152.269 Y79.339 E0.01487
G1 X152.377 Y79.818 E0.01475
G1 X152.385 Y80.312 E0.01487
G1 X151.250 Y90.987 E0.32291
G1 X147.931 Y101.243 E0.32425
G1 X142.397 Y110.878 E0.33423
G1 X135.190 Y118.902 E0.32445
G1 X126.210 Y125.456 E0.33440
G1 X116.241 Y129.900 E0.32830
G1 X105.461 Y132.193 E0.33152
G1 X99.802 Y132.193 E0.17021
G1 X99.033 Y131.989 E0.02395
G1 X98.374 Y131.542 E0.02395
G1 X97.834 Y130.761 E0.02856
G1 X97.642 Y129.831 E0.02856
G1 X97.642 Y80.070 E1.49681
G1 X97.820 Y79.198 E0.02677
G1 X98.270 Y78.505 E0.02485
G1 F5760
G1 X99.070 Y77.921 E-0.34308
G1 F5760
G1 X99.984 Y77.723 E-0.32374
G1 F5760
G1 X100.253 Y77.723 E-0.09318
G1 E-0.04000 F2100.00000
G1 X100.606 Y80.687 F7200.000
G1 E0.80000 F2100.00000
G1 F1680
G1 X149.365 Y80.687 E1.46666
G1 X148.348 Y90.371 E0.29290
G1 X145.156 Y100.196 E0.31073
G1 X139.991 Y109.141 E0.31069
G1 X133.080 Y116.817 E0.31070
G1 X124.722 Y122.889 E0.31074
G1 X115.287 Y127.091 E0.31068
G1 X105.183 Y129.239 E0.31070
G1 X100.606 Y129.239 E0.13768
G1 X100.606 Y80.747 E1.45863
G1 X100.229 Y80.310 F7200.000
G1 F1260
G1 X149.784 Y80.310 E1.49060
G1 X148.718 Y90.450 E0.30669
G1 X145.502 Y100.350 E0.31311
G1 X140.298 Y109.364 E0.31307
G1 X133.334 Y117.099 E0.31309
G1 X124.911 Y123.217 E0.31313
G1 X115.404 Y127.451 E0.31307
G1 X105.223 Y129.616 E0.31308
G1 X100.229 Y129.616 E0.15022
G1 X100.229 Y80.370 E1.48131
G1 X100.582 Y80.498 F7200.000
G1 F5760
G1 X102.423 Y80.367 E-0.76000
G1 E-0.04000 F2100.00000
G1 X100.719 Y128.360 F7200.000
G1 E0.80000 F2100.00000
G1 F2520
G1 X101.315 Y128.956 E0.02546
G1 X101.851 Y128.956 E0.01618
G1 X100.889 Y127.994 E0.04109
G1 X100.889 Y127.459 E0.01618
G1 X102.386 Y128.956 E0.06396
G1 X102.921 Y128.956 E0.01618
G1 X100.889 Y126.924 E0.08684
G1 X100.889 Y126.388 E0.01618
G1 X103.457 Y128.956 E0.10972
G1 X103.992 Y128.956 E0.01618
G1 X100.889 Y125.853 E0.13260
G1 X100.889 Y125.317 E0.01618
G1 X104.528 Y128.956 E0.15548
G1 X105.063 Y128.956 E0.01618
G1 X100.889 Y124.782 E0.17835
G1 X100.889 Y124.246 E0.01618
G1 X105.521 Y128.878 E0.19789
G1 X105.962 Y128.784 E0.01364
G1 X100.889 Y123.711 E0.21676
G1 X100.889 Y123.175 E0.01618
G1 X106.404 Y128.690 E0.23563
G1 X106.846 Y128.596 E0.01364
G1 X100.889 Y122.640 E0.25449
G1 X100.889 Y122.104 E0.01618
G1 X107.287 Y128.502 E0.27336
G1 X107.729 Y128.409 E0.01364
G1 X100.889 Y121.569 E0.29223
G1 X100.889 Y121.033 E0.01618
G1 X108.170 Y128.315 E0.31109
G1 X108.612 Y128.221 E0.01364
G1 X100.889 Y120.498 E0.32996
G1 X100.889 Y119.962 E0.01618
G1 X109.054 Y128.127 E0.34883
G1 X109.495 Y128.033 E0.01364
G1 X100.889 Y119.427 E0.36769
G1 X100.889 Y118.891 E0.01618
G1 X109.937 Y127.939 E0.38656
G1 X110.378 Y127.845 E0.01364
G1 X100.889 Y118.356 E0.40542
G1 X100.889 Y117.820 E0.01618
G1 X110.820 Y127.751 E0.42429
G1 X111.261 Y127.657 E0.01364
G1 X100.889 Y117.285 E0.44316
G1 X100.889 Y116.749 E0.01618
G1 X111.703 Y127.563 E0.46202
G1 X112.145 Y127.470 E0.01364
G1 X100.889 Y116.214 E0.48089
G1 X100.889 Y115.678 E0.01618
G1 X112.586 Y127.376 E0.49976
G1 X113.028 Y127.282 E0.01364
G1 X100.889 Y115.143 E0.51862
G1 X100.889 Y114.607 E0.01618
G1 X113.469 Y127.188 E0.53749
G1 X113.911 Y127.094 E0.01364
G1 X100.889 Y114.072 E0.55635
G1 X100.889 Y113.536 E0.01618
G1 X114.353 Y127.000 E0.57522
G1 X114.794 Y126.906 E0.01364
G1 X100.889 Y113.001 E0.59409
G1 X100.889 Y112.465 E0.01618
G1 X115.230 Y126.806 E0.61270
G1 X115.600 Y126.641 E0.01225
G1 X100.889 Y111.930 E0.62853
G1 X100.889 Y111.394 E0.01618
G1 X115.971 Y126.476 E0.64436
G1 X116.341 Y126.311 E0.01225
G1 X100.889 Y110.859 E0.66018
G1 X100.889 Y110.323 E0.01618
G1 X116.712 Y126.146 E0.67601
G1 X117.082 Y125.981 E0.01225
G1 X100.889 Y109.788 E0.69184
G1 X100.889 Y109.252 E0.01618
G1 X117.453 Y125.816 E0.70767
G1 X117.823 Y125.651 E0.01225
G1 X100.889 Y108.717 E0.72350
G1 X100.889 Y108.181 E0.01618
G1 X118.194 Y125.486 E0.73933
G1 X118.564 Y125.321 E0.01225
G1 X100.889 Y107.646 E0.75516
G1 X100.889 Y107.110 E0.01618
G1 X118.935 Y125.156 E0.77099
G1 X119.305 Y124.991 E0.01225
G1 X100.889 Y106.575 E0.78682
G1 X100.889 Y106.039 E0.01618
G1 X119.676 Y124.826 E0.80264
G1 X120.046 Y124.661 E0.01225
G1 X100.889 Y105.504 E0.81847
G1 X100.889 Y104.969 E0.01618
G1 X120.417 Y124.496 E0.83430
G1 X120.787 Y124.331 E0.01225
G1 X100.889 Y104.433 E0.85013
G1 X100.889 Y103.898 E0.01618
G1 X121.158 Y124.166 E0.86596
G1 X121.528 Y124.001 E0.01225
G1 X100.889 Y103.362 E0.88179
G1 X100.889 Y102.827 E0.01618
G1 X121.899 Y123.836 E0.89762
G1 X122.269 Y123.671 E0.01225
G1 X100.889 Y102.291 E0.91345
G1 X100.889 Y101.756 E0.01618
G1 X122.640 Y123.506 E0.92928
G1 X123.010 Y123.341 E0.01225
G1 X100.889 Y101.220 E0.94511
G1 X100.889 Y100.685 E0.01618
G1 X123.381 Y123.176 E0.96093
G1 X123.751 Y123.011 E0.01225
G1 X100.889 Y100.149 E0.97676
G1 X100.889 Y99.614 E0.01618
G1 X124.122 Y122.846 E0.99259
G1 X124.492 Y122.681 E0.01225
G1 X100.889 Y99.078 E1.00842
G1 X100.889 Y98.543 E0.01618
G1 X124.817 Y122.470 E1.02228
G1 X125.127 Y122.245 E0.01158
G1 X100.889 Y98.007 E1.03553
G1 X100.889 Y97.472 E0.01618
G1 X125.437 Y122.020 E1.04878
G1 X125.747 Y121.794 E0.01158
G1 X100.889 Y96.936 E1.06204
G1 X100.889 Y96.401 E0.01618
G1 X126.057 Y121.569 E1.07529
G1 X126.367 Y121.344 E0.01158
G1 X100.889 Y95.865 E1.08854
G1 X100.889 Y95.330 E0.01618
G1 X126.678 Y121.119 E1.10179
G1 X126.988 Y120.893 E0.01158
G1 X100.889 Y94.794 E1.11504
G1 X100.889 Y94.259 E0.01618
G1 X127.298 Y120.668 E1.12829
G1 X127.608 Y120.443 E0.01158
G1 X100.889 Y93.723 E1.14155
G1 X100.889 Y93.188 E0.01618
G1 X127.918 Y120.217 E1.15480
G1 X128.229 Y119.992 E0.01158
G1 X100.889 Y92.652 E1.16805
G1 X100.889 Y92.117 E0.01618
G1 X128.539 Y119.767 E1.18130
G1 X128.849 Y119.541 E0.01158
G1 X100.889 Y91.581 E1.19455
G1 X100.889 Y91.046 E0.01618
G1 X129.159 Y119.316 E1.20781
G1 X129.469 Y119.091 E0.01158
G1 X100.889 Y90.510 E1.22106
G1 X100.889 Y89.975 E0.01618
G1 X129.779 Y118.865 E1.23431
G1 X130.090 Y118.640 E0.01158
G1 X100.889 Y89.439 E1.24756
G1 X100.889 Y88.904 E0.01618
G1 X130.400 Y118.415 E1.26081
G1 X130.710 Y118.189 E0.01158
G1 X100.889 Y88.368 E1.27406
G1 X100.889 Y87.833 E0.01618
G1 X131.020 Y117.964 E1.28732
G1 X131.330 Y117.739 E0.01158
G1 X100.889 Y87.297 E1.30057
G1 X100.889 Y86.762 E0.01618
G1 X131.640 Y117.514 E1.31382
G1 X131.951 Y117.288 E0.01158
G1 X100.889 Y86.226 E1.32707
G1 X100.889 Y85.691 E0.01618
G1 X132.261 Y117.063 E1.34032
G1 X132.571 Y116.838 E0.01158
G1 X100.889 Y85.155 E1.35357
G1 X100.889 Y84.620 E0.01618
G1 X132.881 Y116.612 E1.36683
G1 X133.136 Y116.332 E0.01145
G1 X100.889 Y84.084 E1.37773
G1 X100.889 Y83.549 E0.01618
G1 X133.390 Y116.050 E1.38857
G1 X133.644 Y115.768 E0.01145
G1 X100.889 Y83.014 E1.39941
G1 X100.889 Y82.478 E0.01618
G1 X133.898 Y115.487 E1.41025
G1 X134.151 Y115.205 E0.01145
G1 X100.889 Y81.943 E1.42109
G1 X100.889 Y81.407 E0.01618
G1 X134.405 Y114.923 E1.43193
G1 X134.659 Y114.641 E0.01145
G1 X100.987 Y80.970 E1.43857
G1 X101.523 Y80.970 E0.01618
G1 X134.912 Y114.360 E1.42653
G1 X135.166 Y114.078 E0.01145
G1 X102.058 Y80.970 E1.41449
G1 X102.594 Y80.970 E0.01618
G1 X135.420 Y113.796 E1.40245
G1 X135.673 Y113.514 E0.01145
G1 X103.129 Y80.970 E1.39041
G1 X103.665 Y80.970 E0.01618
G1 X135.927 Y113.232 E1.37837
G1 X136.181 Y112.951 E0.01145
G1 X104.200 Y80.970 E1.36634
G1 X104.736 Y80.970 E0.01618
G1 X136.435 Y112.669 E1.35430
G1 X136.688 Y112.387 E0.01145
G1 X105.271 Y80.970 E1.34226
G1 X105.807 Y80.970 E0.01618
G1 X136.942 Y112.105 E1.33022
G1 X137.196 Y111.824 E0.01145
G1 X106.342 Y80.970 E1.31818
G1 X106.878 Y80.970 E0.01618
G1 X137.449 Y111.542 E1.30614
G1 X137.703 Y111.260 E0.01145
G1 X107.413 Y80.970 E1.29410
G1 X107.949 Y80.970 E0.01618
G1 X137.957 Y110.978 E1.28206
G1 X138.211 Y110.696 E0.01145
G1 X108.484 Y80.970 E1.27003
G1 X109.019 Y80.970 E0.01618
G1 X138.464 Y110.415 E1.25799
G1 X138.718 Y110.133 E0.01145
G1 X109.555 Y80.970 E1.24595
G1 X110.090 Y80.970 E0.01618
G1 X138.972 Y109.851 E1.23391
G1 X139.225 Y109.569 E0.01145
G1 X110.626 Y80.970 E1.22187
G1 X111.161 Y80.970 E0.01618
G1 X139.479 Y109.287 E1.20983
G1 X139.733 Y109.006 E0.01145
G1 X111.697 Y80.970 E1.19779
G1 X112.232 Y80.970 E0.01618
G1 X139.935 Y108.673 E1.18357
G1 X140.131 Y108.333 E0.01184
G1 X112.768 Y80.970 E1.16906
G1 X113.303 Y80.970 E0.01618
G1 X140.327 Y107.994 E1.15456
G1 X140.523 Y107.654 E0.01184
G1 X113.839 Y80.970 E1.14005
G1 X114.374 Y80.970 E0.01618
G1 X140.719 Y107.315 E1.12555
G1 X140.915 Y106.975 E0.01184
G1 X114.910 Y80.970 E1.11105
G1 X115.445 Y80.970 E0.01618
G1 X141.111 Y106.636 E1.09654
G1 X141.307 Y106.296 E0.01184
G1 X115.981 Y80.970 E1.08204
G1 X116.516 Y80.970 E0.01618
G1 X141.503 Y105.957 E1.06753
G1 X141.699 Y105.617 E0.01184
G1 X117.052 Y80.970 E1.05303
G1 X117.587 Y80.970 E0.01618
G1 X141.895 Y105.278 E1.03852
G1 X142.091 Y104.938 E0.01184
G1 X118.123 Y80.970 E1.02402
G1 X118.658 Y80.970 E0.01618
G1 X142.287 Y104.599 E1.00952
G1 X142.483 Y104.259 E0.01184
G1 X119.194 Y80.970 E0.99501
G1 X119.729 Y80.970 E0.01618
G1 X142.679 Y103.920 E0.98051
G1 X142.875 Y103.580 E0.01184
G1 X120.265 Y80.970 E0.96600
G1 X120.800 Y80.970 E0.01618
G1 X143.071 Y103.241 E0.95150
G1 X143.267 Y102.901 E0.01184
G1 X121.336 Y80.970 E0.93699
G1 X121.871 Y80.970 E0.01618
G1 X143.463 Y102.562 E0.92249
G1 X143.659 Y102.222 E0.01184
G1 X122.407 Y80.970 E0.90799
G1 X122.942 Y80.970 E0.01618
G1 X143.855 Y101.883 E0.89348
G1 X144.051 Y101.543 E0.01184
G1 X123.478 Y80.970 E0.87898
G1 X124.013 Y80.970 E0.01618
G1 X144.247 Y101.204 E0.86447
G1 X144.443 Y100.864 E0.01184
G1 X124.549 Y80.970 E0.84997
G1 X125.084 Y80.970 E0.01618
G1 X144.639 Y100.525 E0.83546
G1 X144.835 Y100.185 E0.01184
G1 X125.620 Y80.970 E0.82096
G1 X126.155 Y80.970 E0.01618
G1 X144.987 Y99.801 E0.80455
G1 X145.118 Y99.397 E0.01284
G1 X126.691 Y80.970 E0.78728
G1 X127.226 Y80.970 E0.01618
G1 X145.249 Y98.993 E0.77001
G1 X145.380 Y98.589 E0.01284
G1 X127.762 Y80.970 E0.75275
G1 X128.297 Y80.970 E0.01618
G1 X145.512 Y98.185 E0.73548
G1 X145.643 Y97.780 E0.01284
G1 X128.833 Y80.970 E0.71821
G1 X129.368 Y80.970 E0.01618
G1 X145.774 Y97.376 E0.70094
G1 X145.906 Y96.972 E0.01284
G1 X129.904 Y80.970 E0.68367
G1 X130.439 Y80.970 E0.01618
G1 X146.037 Y96.568 E0.66641
G1 X146.168 Y96.164 E0.01284
G1 X130.974 Y80.970 E0.64914
G1 X131.510 Y80.970 E0.01618
G1 X146.300 Y95.760 E0.63187
G1 X146.431 Y95.355 E0.01284
G1 X132.045 Y80.970 E0.61460
G1 X132.581 Y80.970 E0.01618
G1 X146.562 Y94.951 E0.59733
G1 X146.694 Y94.547 E0.01284
G1 X133.116 Y80.970 E0.58007
G1 X133.652 Y80.970 E0.01618
G1 X146.825 Y94.143 E0.56280
G1 X146.956 Y93.739 E0.01284
G1 X134.187 Y80.970 E0.54553
G1 X134.723 Y80.970 E0.01618
G1 X147.088 Y93.335 E0.52826
G1 X147.219 Y92.930 E0.01284
G1 X135.258 Y80.970 E0.51099
G1 X135.794 Y80.970 E0.01618
G1 X147.350 Y92.526 E0.49373
G1 X147.481 Y92.122 E0.01284
G1 X136.329 Y80.970 E0.47646
G1 X136.865 Y80.970 E0.01618
G1 X147.613 Y91.718 E0.45919
G1 X147.744 Y91.314 E0.01284
G1 X137.400 Y80.970 E0.44192
G1 X137.936 Y80.970 E0.01618
G1 X147.875 Y90.909 E0.42466
G1 X148.007 Y90.505 E0.01284
G1 X138.471 Y80.970 E0.40739
G1 X139.007 Y80.970 E0.01618
G1 X148.096 Y90.059 E0.38833
G1 X148.147 Y89.575 E0.01472
G1 X139.542 Y80.970 E0.36762
G1 X140.078 Y80.970 E0.01618
G1 X148.198 Y89.090 E0.34692
G1 X148.249 Y88.605 E0.01472
G1 X140.613 Y80.970 E0.32622
G1 X141.149 Y80.970 E0.01618
G1 X148.300 Y88.121 E0.30551
G1 X148.351 Y87.636 E0.01472
G1 X141.684 Y80.970 E0.28481
G1 X142.220 Y80.970 E0.01618
G1 X148.401 Y87.152 E0.26411
G1 X148.452 Y86.667 E0.01472
G1 X142.755 Y80.970 E0.24340
G1 X143.291 Y80.970 E0.01618
G1 X148.503 Y86.182 E0.22270
G1 X148.554 Y85.698 E0.01472
G1 X143.826 Y80.970 E0.20200
G1 X144.362 Y80.970 E0.01618
G1 X148.605 Y85.213 E0.18130
G1 X148.656 Y84.729 E0.01472
G1 X144.897 Y80.970 E0.16059
G1 X145.433 Y80.970 E0.01618
G1 X148.707 Y84.244 E0.13989
G1 X148.758 Y83.760 E0.01472
G1 X145.968 Y80.970 E0.11919
G1 X146.504 Y80.970 E0.01618
G1 X148.809 Y83.275 E0.09848
G1 X148.860 Y82.790 E0.01472
G1 X147.039 Y80.970 E0.07778
G1 X147.575 Y80.970 E0.01618
G1 X148.911 Y82.306 E0.05708
G1 X148.962 Y81.821 E0.01472
G1 X148.110 Y80.970 E0.03638
G1 X148.646 Y80.970 E0.01618
G1 X149.167 Y81.491 E0.02227
M106 S234.6
G1 F5760
G1 X148.646 Y80.970 E-0.25531
G1 F5760
G1 X148.110 Y80.970 E-0.18547
G1 F5760
G1 X148.762 Y81.622 E-0.31922
G1 E-0.04000 F2100.00000
G1 Z0.550 F7200.000
M104 S210 ; set temperature
G1 X97.834 Y130.761 F7200.000
G1 E0.80000 F2100.00000
G1 F3000
G1 X97.642 Y129.831 E0.04395
G1 X97.642 Y80.070 E2.30310
G1 X97.820 Y79.198 E0.04118
G1 X98.303 Y78.455 E0.04101
G1 X99.070 Y77.921 E0.04326
G1 X99.984 Y77.723 E0.04326
G1 X150.021 Y77.723 E2.31587
G1 X150.509 Y77.774 E0.02270
G1 X150.975 Y77.925 E0.02270
G1 X151.405 Y78.170 E0.02288
G1 X151.771 Y78.496 E0.02270
G1 X152.063 Y78.890 E0.02270
G1 X152.269 Y79.339 E0.02288
G1 X152.377 Y79.818 E0.02270
G1 X152.385 Y80.312 E0.02288
G1 X151.250 Y90.987 E0.49684
G1 X147.931 Y101.243 E0.49891
G1 X142.397 Y110.878 E0.51427
G1 X135.190 Y118.902 E0.49922
G1 X126.210 Y125.456 E0.51453
G1 X116.241 Y129.900 E0.50515
G1 X105.461 Y132.193 E0.51011
G1 X99.802 Y132.193 E0.26190
G1 X99.033 Y131.989 E0.03685
G1 X98.374 Y131.542 E0.03685
G1 X97.868 Y130.810 E0.04117
G1 F5760
G1 X97.642 Y129.831 E-0.34813
G1 F5760
G1 X97.642 Y128.642 E-0.41187
G1 E-0.04000 F2100.00000
G1 X100.759 Y129.086 F7200.000
G1 E0.80000 F2100.00000
M204 S800
G1 F2400
G1 X100.759 Y80.840 E2.30318
G1 X149.195 Y80.840 E2.31226
G1 X148.197 Y90.339 E0.45598
G1 X145.015 Y100.133 E0.49161
G1 X139.867 Y109.051 E0.49155
G1 X132.977 Y116.703 E0.49156
G1 X124.645 Y122.756 E0.49163
G1 X115.239 Y126.944 E0.49154
G1 X105.167 Y129.086 E0.49156
G1 X100.819 Y129.086 E0.20758
M204 S1000
G1 X100.319 Y129.526 F7200.000
M204 S800
G1 F1800
G1 X100.319 Y80.400 E3.56042
G1 X149.684 Y80.400 E3.57773
G1 X148.630 Y90.431 E0.73102
G1 X145.419 Y100.313 E0.75305
G1 X140.225 Y109.311 E0.75296
G1 X133.273 Y117.032 E0.75299
G1 X124.866 Y123.139 E0.75309
G1 X115.376 Y127.365 E0.75294
G1 X105.213 Y129.526 E0.75298
G1 X100.379 Y129.526 E0.35038
M204 S1000
G1 X100.502 Y129.170 F7200.000
G1 F5760
G1 X100.376 Y127.332 E-0.76000
G1 E-0.04000 F2100.00000
G1 X119.926 Y124.763 F7200.000
G1 E0.80000 F2100.00000
M204 S2000
G1 F3600
G1 X144.640 Y100.049 E3.07619
G1 X144.678 Y99.983 E0.00669
G1 X145.094 Y98.701 E0.11864
G1 X118.870 Y124.925 E3.26416
G1 X117.260 Y125.642 E0.15518
G1 X145.524 Y97.378 E3.51815
G1 X145.954 Y96.055 E0.12246
G1 X115.649 Y126.360 E3.77213
G1 X115.125 Y126.593 E0.05052
G1 X114.360 Y126.756 E0.06885
G1 X146.384 Y94.731 E3.98615
G1 X146.814 Y93.408 E0.12246
G1 X113.225 Y126.997 E4.18089
G1 X112.090 Y127.238 E0.10209
G1 X147.244 Y92.085 E4.37562
G1 X147.674 Y90.762 E0.12246
G1 X110.956 Y127.480 E4.57036
G1 X109.821 Y127.721 E0.10209
G1 X147.901 Y89.641 E4.73990
G1 X148.006 Y88.643 E0.08834
G1 X108.687 Y127.962 E4.89418
G1 X107.552 Y128.203 E0.10209
G1 X148.111 Y87.645 E5.04846
G1 X148.216 Y86.646 E0.08834
G1 X106.418 Y128.445 E5.20274
